LumaGrade-Vercel/public/luts/fuji-classic-chrome.cube
TITLE "FUJI Classic Chrome Reference"
LUT_3D_SIZE 9
DOMAIN_MIN 0.0 0.0 0.0
DOMAIN_MAX 1.0 1.0 1.0
0.0031414 0.0062307 0.0122439
0.0991734 0.0167065 0.0216731
0.2126469 0.0406806 0.0392560
0.3331890 0.0743473 0.0626209
0.4570721 0.1100276 0.0877406
0.5807406 0.1463955 0.1140784
0.7007893 0.1821736 0.1407107
0.8137985 0.2161990 0.1667145
0.9163529 0.2473464 0.1911112
0.0164006 0.1115134 0.0407754
0.1070560 0.1165092 0.0414863
0.2168183 0.1264425 0.0565161
0.3353201 0.1431719 0.0754134
0.4585779 0.1650370 0.0970830
0.5818775 0.1910214 0.1213256
0.7016872 0.2192044 0.1466065
0.8145312 0.2477235 0.1717143
0.9169724 0.2748900 0.1954864
0.0677092 0.2276738 0.0820351
0.1316409 0.2300309 0.0841885
0.2296561 0.2358852 0.0819605
0.3451368 0.2441486 0.0948755
0.4633646 0.2583388 0.1189603
0.5848405 0.2755111 0.1400572
0.7039327 0.2950278 0.1622300
0.8163630 0.3159618 0.1850777
0.9185509 0.3368756 0.2071466
0.1290765 0.3510164 0.1280812
0.1725673 0.3523655 0.1298834
0.2531346 0.3562199 0.1316883
0.3587429 0.3626859 0.1277743
0.4770462 0.3702636 0.1376655
0.5940323 0.3821623 0.1643131
0.7092970 0.3969603 0.1883220
0.8200737 0.4125295 0.2092181
0.9215871 0.4281106 0.2285742
0.1910805 0.4780327 0.1778027
0.2223220 0.4789338 0.1792075
0.2882993 0.4814944 0.1818601
0.3807836 0.4865365 0.1825899
0.4906674 0.4933184 0.1779854
0.6084390 0.5005375 0.1858447
0.7224119 0.5103220 0.2099870
0.8294163 0.5226464 0.2357723
0.9281506 0.5353563 0.2565286
0.2519490 0.6051546 0.2296314
0.2756787 0.6058175 0.2307660
0.3299582 0.6076755 0.2333206
0.4115224 0.6114160 0.2361137
0.5110312 0.6172506 0.2355446
0.6219890 0.6240870 0.2306122
0.7362450 0.6308813 0.2361026
0.8443785 0.6388434 0.2544013
0.9415134 0.6483861 0.2777636
0.3107447 0.7287618 0.2809810
0.3296785 0.7292783 0.2818758
0.3751422 0.7307116 0.2840222
0.4473250 0.7335876 0.2870263
0.5384794 0.7382624 0.2888445
0.6412094 0.7444821 0.2865717
0.7499884 0.7511032 0.2811761
0.8576005 0.7573356 0.2837346
0.9561149 0.7638405 0.2970515
0.3668940 0.8452076 0.3288228
0.3825845 0.8456296 0.3295532
0.4214252 0.8467932 0.3313672
0.4856425 0.8491139 0.3341920
0.5694979 0.8529193 0.3368668
0.6655642 0.8582402 0.3371967
0.7678277 0.8645122 0.3334872
0.8710342 0.8707112 0.3279521
0.9686813 0.8762696 0.3281950
0.4184968 0.9509594 0.3717948
0.4319514 0.9513180 0.3724130
0.4659125 0.9523032 0.3739793
0.5236968 0.9542576 0.3765580
0.6012676 0.9574622 0.3794480
0.6917703 0.9620238 0.3811062
0.7887998 0.9676760 0.3797557
0.8870638 0.9737075 0.3750352
0.9813450 0.9792950 0.3696911
0.0041405 0.0087645 0.1092624
0.0884283 0.0306468 0.1042528
0.2024691 0.0559885 0.1260463
0.3306704 0.0790204 0.1383554
0.4579313 0.1090922 0.1505503
0.5823428 0.1440309 0.1665260
0.7022616 0.1799292 0.1853936
0.8150429 0.2142844 0.2055054
0.9174335 0.2456736 0.2254177
0.0135878 0.1130234 0.1233067
0.1091913 0.1163791 0.1259307
0.2194041 0.1254269 0.1320151
0.3383114 0.1409757 0.1414350
0.4609451 0.1627532 0.1545664
0.5837345 0.1889286 0.1709565
0.7031920 0.2173405 0.1895944
0.8157918 0.2460661 0.2093548
0.9180627 0.2733995 0.2289639
0.0699316 0.2279189 0.1436256
0.1345448 0.2297698 0.1465620
0.2307338 0.2357875 0.1461323
0.3448571 0.2444153 0.1563112
0.4644252 0.2578689 0.1694955
0.5863709 0.2744457 0.1841161
0.7053389 0.2938283 0.2013097
0.8175883 0.3147708 0.2199476
0.9196280 0.3357319 0.2385861
0.1312437 0.3510107 0.1748068
0.1746899 0.3522350 0.1767036
0.2546207 0.3560006 0.1791705
0.3593841 0.3626327 0.1760687
0.4772115 0.3702767 0.1847862
0.5938628 0.3823593 0.2053448
0.7098188 0.3967385 0.2232493
0.8209122 0.4119946 0.2403055
0.9224737 0.4274438 0.2569544
0.1927026 0.4779964 0.2135920
0.2238883 0.4788547 0.2149835
0.2896502 0.4813473 0.2177353
0.3815983 0.4864107 0.2188995
0.4910991 0.4932839 0.2147672
0.6087398 0.5004919 0.2217789
0.7222628 0.5104472 0.2431636
0.8293345 0.5227655 0.2649580
0.9283888 0.5352842 0.2825394
0.2531851 0.6051173 0.2577336
0.2768813 0.6057615 0.2588449
0.3310634 0.6075817 0.2613815
0.4123949 0.6112969 0.2642727
0.5115429 0.6171732 0.2639935
0.6223104 0.6240597 0.2593534
0.7364961 0.6308435 0.2645235
0.8444028 0.6388717 0.2814724
0.9413805 0.6484958 0.3027026
0.3117401 0.7287272 0.3037612
0.3306534 0.7292340 0.3046400
0.3760627 0.7306456 0.3067612
0.4481284 0.7334971 0.3097780
0.5390749 0.7381720 0.3117210
0.6415685 0.7444312 0.3096844
0.7502439 0.7510815 0.3045159
0.8578087 0.7573067 0.3071118
0.9562450 0.7638253 0.3195836
0.3677234 0.8451773 0.3479589
0.3834009 0.8455935 0.3486789
0.4222076 0.8467438 0.3504729
0.4863567 0.8490460 0.3532889
0.5700914 0.8528406 0.3560110
0.6659882 0.8581740 0.3564767
0.7680987 0.8644776 0.3529638
0.8712461 0.8706939 0.3476097
0.9688746 0.8762460 0.3479206
0.4192105 0.9509329 0.3883999
0.4326562 0.9512878 0.3890110
0.4665943 0.9522639 0.3905622
0.5243340 0.9542047 0.3931281
0.6018281 0.9573973 0.3960343
0.6922162 0.9619588 0.3977666
0.7891145 0.9676282 0.3965521
0.8872806 0.9736832 0.3919963
0.9815272 0.9792811 0.3867966
0.0041267 0.0229379 0.2110856
0.1008793 0.0372076 0.2073384
0.1939373 0.0823715 0.2035595
0.3105738 0.1132406 0.2290110
0.4428388 0.1357070 0.2478216
0.5745081 0.1590721 0.2602017
0.6995663 0.1859604 0.2715801
0.8150345 0.2153203 0.2841083
0.9186511 0.2443309 0.2975421
0.0243063 0.1169832 0.2198120
0.1124033 0.1199126 0.2251191
0.2059479 0.1412942 0.2161382
0.3211628 0.1597515 0.2369864
0.4513734 0.1755286 0.2509988
0.5802034 0.1949781 0.2615999
0.7030337 0.2186698 0.2728605
0.8171615 0.2448677 0.2856881
0.9200266 0.2710439 0.2993881
0.0587316 0.2312683 0.2368876
0.1308141 0.2326669 0.2381952
0.2328408 0.2365318 0.2414508
0.3474972 0.2444285 0.2473794
0.4682970 0.2563540 0.2554483
0.5900381 0.2722195 0.2656675
0.7086357 0.2912699 0.2778851
0.8204836 0.3121514 0.2915466
0.9222134 0.3331376 0.3055872
0.1297950 0.3524854 0.2553984
0.1757112 0.3532800 0.2571931
0.2580809 0.3560145 0.2617378
0.3608467 0.3628412 0.2614067
0.4769825 0.3708299 0.2705261
0.5947851 0.3824077 0.2820315
0.7121820 0.3956551 0.2932801
0.8234816 0.4104123 0.3059832
0.9249327 0.4256624 0.3189702
0.1946688 0.4784613 0.2840698
0.2263341 0.4791606 0.2855248
0.2926491 0.4812989 0.2889069
0.3837780 0.4862199 0.2917283
0.4921575 0.4933355 0.2885836
0.6092861 0.5005463 0.2954535
0.7218356 0.5109021 0.3127343
0.8295727 0.5229243 0.3277783
0.9295257 0.5348407 0.3401999
0.2555143 0.6052672 0.3184476
0.2793133 0.6058449 0.3195766
0.3336071 0.6075142 0.3222747
0.4146478 0.6110863 0.3257245
0.5129080 0.6170301 0.3263700
0.6231282 0.6240552 0.3222690
0.7371430 0.6308007 0.3271023
0.8443511 0.6390407 0.3423264
0.9410414 0.6488306 0.3596267
0.3139281 0.7287631 0.3560471
0.3328576 0.7292375 0.3569242
0.3782648 0.7305734 0.3590793
0.4501776 0.7333297 0.3622839
0.5406634 0.7379745 0.3646979
0.6425234 0.7443299 0.3632805
0.7509072 0.7510603 0.3585346
0.8583471 0.7572622 0.3613315
0.9565303 0.7638306 0.3724973
0.3696800 0.8451709 0.3936180
0.3853523 0.8455692 0.3943308
0.4241327 0.8466759 0.3961231
0.4881818 0.8489153 0.3989991
0.5716603 0.8526643 0.4019377
0.6671281 0.8580192 0.4028123
0.7688194 0.8644063 0.3997663
0.8718027 0.8706698 0.3947678
0.9693777 0.8762030 0.3953065
0.4209575 0.9509106 0.4290319
0.4343944 0.9512542 0.4296353
0.4683044 0.9522022 0.4311755
0.5259713 0.9540993 0.4337561
0.6033039 0.9572503 0.4367637
0.6934114 0.9618028 0.4387388
0.7899613 0.9675139 0.4378870
0.8878579 0.9736324 0.4337068
0.9820093 0.9792582 0.4288057
0.0044653 0.0523880 0.3195524
0.1060194 0.0543819 0.3256821
0.2079039 0.0931597 0.3066848
0.3060471 0.1399051 0.3096298
0.4228058 0.1737658 0.3364475
0.5522978 0.1981142 0.3605436
0.6812545 0.2192294 0.3771124
0.8018965 0.2402981 0.3893222
0.9099360 0.2616599 0.3996603
0.0282339 0.1284704 0.3265150
0.1155061 0.1296974 0.3327012
0.2182647 0.1461784 0.3205665
0.3137971 0.1807992 0.3178526
0.4293004 0.2072028 0.3426428
0.5583807 0.2266704 0.3643455
0.6863284 0.2449200 0.3791657
0.8058644 0.2640806 0.3905277
0.9130194 0.2839178 0.4005356
0.0788835 0.2345605 0.3392977
0.1410016 0.2361064 0.3404282
0.2358037 0.2401542 0.3466549
0.3323890 0.2601609 0.3366340
0.4466031 0.2763205 0.3572016
0.5743624 0.2889377 0.3724080
0.6991084 0.3032753 0.3833426
0.8155806 0.3195883 0.3931554
0.9203034 0.3370397 0.4027553
0.1158217 0.3567572 0.3585333
0.1659236 0.3575520 0.3593843
0.2542032 0.3597441 0.3615955
0.3629921 0.3640848 0.3655761
0.4795768 0.3715134 0.3717674
0.5990548 0.3816041 0.3794522
0.7164362 0.3940821 0.3884365
0.8275894 0.4082884 0.3983624
0.9288802 0.4231513 0.4084052
0.1880111 0.4812769 0.3764358
0.2221298 0.4817483 0.3774945
0.2928286 0.4831067 0.3805324
0.3875970 0.4865259 0.3864019
0.4938695 0.4938593 0.3864067
0.6092217 0.5013547 0.3951051
0.7224339 0.5115038 0.4057139
0.8322683 0.5222391 0.4146196
0.9329333 0.5333807 0.4236918
0.2554120 0.6065417 0.4034924
0.2799803 0.6069827 0.4045707
0.3358111 0.6082673 0.4074201
0.4181995 0.6112039 0.4121706
0.5155605 0.6169619 0.4152645
0.6245334 0.6242744 0.4121119
0.7381099 0.6309592 0.4174661
0.8439167 0.6396795 0.4313540
0.9408283 0.6494448 0.4435903
0.3158396 0.7293668 0.4340159
0.3350326 0.7297685 0.4348986
0.3810031 0.7309100 0.4371823
0.4534378 0.7333519 0.4409686
0.5436195 0.7377797 0.4446123
0.6443347 0.7442549 0.4445517
0.7520884 0.7511516 0.4403426
0.8593194 0.7572946 0.4435711
0.9568054 0.7640258 0.4541768
0.3721360 0.8454782 0.4650383
0.3879106 0.8458346 0.4657610
0.4269152 0.8468316 0.4676272
0.4911694 0.8488930 0.4707777
0.5745029 0.8524773 0.4743356
0.6693082 0.8578119 0.4761536
0.7701722 0.8643475 0.4739486
0.8728154 0.8707064 0.4693750
0.9702645 0.8761982 0.4705058
0.4234924 0.9510769 0.4948309
0.4369729 0.9513939 0.4954406
0.4709778 0.9522732 0.4970198
0.5287223 0.9540574 0.4997380
0.6059584 0.9570873 0.5030794
0.6956680 0.9615809 0.5056452
0.7915848 0.9673491 0.5055217
0.8889388 0.9735897 0.5019322
0.9828983 0.9792708 0.4973990
0.0057971 0.0868981 0.4314215
0.1079386 0.0853641 0.4387992
0.2183143 0.1050844 0.4311557
0.3200188 0.1527979 0.4117126
0.4211827 0.1997208 0.4195215
0.5355987 0.2350738 0.4464387
0.6582404 0.2610008 0.4730144
0.7785436 0.2817638 0.4932171
0.8888345 0.2998191 0.5078562
0.0323142 0.1464621 0.4371389
0.1184312 0.1466971 0.4426934
0.2251245 0.1556465 0.4408143
0.3274167 0.1894269 0.4206825
0.4266006 0.2294626 0.4254135
0.5401142 0.2602345 0.4511863
0.6625849 0.2828962 0.4765927
0.7825751 0.3015292 0.4956815
0.8924197 0.3181999 0.5095152
0.0856413 0.2436286 0.4471294
0.1442072 0.2447141 0.4500690
0.2387454 0.2474307 0.4574145
0.3445565 0.2639765 0.4419457
0.4401961 0.2942180 0.4398032
0.5519651 0.3172784 0.4632100
0.6742160 0.3339630 0.4854686
0.7932850 0.3486792 0.5016259
0.9018471 0.3627799 0.5134187
0.1365973 0.3595365 0.4650725
0.1815636 0.3603144 0.4652789
0.2635376 0.3627530 0.4667654
0.3658099 0.3676409 0.4738036
0.4635556 0.3869558 0.4634432
0.5745843 0.4016692 0.4834336
0.6964808 0.4122348 0.4989354
0.8129653 0.4233823 0.5099379
0.9185922 0.4351408 0.5187063
0.1733905 0.4858801 0.4849622
0.2098177 0.4864093 0.4855832
0.2838500 0.4878606 0.4872287
0.3836491 0.4907254 0.4902815
0.4960186 0.4953879 0.4948678
0.6117204 0.5024634 0.5013070
0.7268456 0.5112631 0.5086292
0.8367406 0.5213375 0.5163633
0.9373037 0.5320095 0.5240745
0.2435024 0.6104671 0.5025254
0.2700927 0.6108056 0.5032185
0.3299272 0.6117312 0.5051573
0.4177960 0.6136140 0.5092252
0.5195823 0.6175108 0.5159693
0.6264246 0.6250571 0.5160825
0.7382863 0.6319672 0.5238896
0.8442195 0.6407397 0.5331652
0.9434100 0.6493462 0.5400492
0.3123037 0.7316086 0.5268854
0.3323650 0.7319102 0.5276487
0.3802367 0.7327599 0.5297288
0.4552928 0.7345720 0.5337281
0.5475123 0.7380982 0.5393111
0.6472854 0.7443625 0.5422890
0.7537507 0.7515741 0.5389823
0.8606180 0.7576202 0.5431056
0.9565767 0.7647977 0.5541402
0.3722327 0.8467830 0.5530109
0.3883919 0.8470724 0.5537050
0.4282852 0.8478838 0.5555603
0.4938185 0.8495772 0.5589872
0.5781826 0.8526592 0.5636269
0.6727112 0.8577136 0.5672918
0.7722813 0.8644154 0.5666764
0.8742828 0.8709500 0.5625647
0.9715126 0.8763665 0.5646413
0.4250838 0.9518935 0.5783607
0.4387554 0.9521658 0.5789675
0.4732170 0.9529231 0.5805770
0.5316439 0.9544732 0.5835128
0.6094433 0.9571880 0.5875036
0.6990612 0.9614462 0.5912040
0.7941626 0.9672153 0.5924186
0.8905918 0.9736442 0.5897300
0.9842112 0.9794219 0.5855477
0.0083653 0.1218743 0.5435540
0.1097562 0.1204775 0.5493101
0.2229923 0.1258663 0.5534114
0.3333773 0.1636503 0.5325879
0.4345231 0.2137543 0.5190076
0.5360776 0.2597966 0.5301327
0.6455937 0.2952693 0.5561397
0.7582197 0.3217513 0.5828759
0.8653846 0.3422308 0.6045309
0.0367558 0.1693157 0.5482936
0.1211499 0.1690538 0.5530369
0.2284704 0.1720019 0.5587849
0.3390745 0.1981595 0.5409044
0.4398763 0.2406739 0.5252746
0.5401305 0.2825264 0.5346296
0.6490021 0.3150757 0.5599272
0.7614815 0.3393841 0.5860499
0.8685595 0.3583339 0.6070360
0.0899028 0.2566319 0.5574126
0.1475014 0.2572210 0.5605516
0.2415064 0.2586868 0.5685797
0.3518686 0.2707255 0.5598727
0.4532697 0.3009748 0.5408545
0.5505600 0.3355940 0.5460343
0.6579629 0.3625012 0.5697557
0.7702089 0.3823213 0.5942776
0.8770975 0.3980417 0.6134332
0.1479525 0.3667965 0.5706881
0.1885537 0.3676191 0.5718767
0.2661448 0.3697564 0.5764292
0.3685862 0.3736039 0.5842926
0.4754337 0.3899691 0.5674671
0.5690319 0.4171813 0.5656992
0.6745764 0.4374645 0.5873188
0.7869484 0.4516212 0.6085739
0.8934433 0.4633434 0.6241630
0.1929394 0.4883369 0.5928225
0.2267351 0.4888031 0.5930258
0.2972108 0.4901633 0.5935466
0.3925072 0.4933228 0.5954174
0.4987055 0.4987716 0.6030433
0.5953743 0.5173668 0.5928004
0.7009304 0.5308301 0.6117106
0.8140320 0.5397290 0.6263823
0.9189364 0.5483807 0.6363733
0.2297028 0.6150209 0.6125837
0.2575905 0.6154091 0.6130671
0.3195063 0.6164692 0.6143539
0.4095841 0.6185491 0.6167560
0.5157124 0.6219197 0.6203777
0.6286013 0.6267244 0.6251189
0.7407151 0.6333379 0.6311313
0.8486340 0.6409372 0.6375092
0.9479106 0.6490183 0.6438477
0.2964149 0.7362674 0.6288811
0.3180087 0.7365347 0.6293506
0.3690903 0.7372572 0.6306410
0.4486597 0.7386542 0.6332449
0.5467652 0.7409518 0.6378504
0.6514034 0.7451096 0.6448775
0.7557532 0.7525717 0.6448641
0.8610352 0.7587918 0.6516606
0.9566250 0.7662152 0.6597009
0.3645353 0.8499834 0.6494826
0.3815443 0.8502081 0.6500296
0.4233851 0.8508281 0.6515306
0.4918317 0.8520858 0.6545060
0.5796430 0.8543198 0.6593420
0.6767507 0.8582412 0.6654388
0.7753660 0.8647229 0.6682120
0.8761075 0.8715830 0.6649026
0.9730446 0.8768858 0.6680277
0.4221138 0.9540575 0.6711491
0.4362495 0.9542745 0.6716940
0.4718195 0.9548760 0.6731710
0.5319686 0.9561027 0.6760152
0.6117950 0.9582610 0.6803947
0.7029397 0.9618249 0.6856465
0.7977951 0.9672671 0.6891930
0.8928648 0.9739013 0.6881539
0.9858801 0.9798508 0.6843287
0.0121194 0.1559876 0.6528130
0.1118664 0.1547784 0.6574568
0.2252788 0.1538639 0.6666005
0.3414901 0.1778895 0.6549893
0.4487886 0.2245769 0.6317788
0.5484335 0.2742302 0.6250125
0.6475699 0.3183075 0.6382458
0.7494884 0.3526089 0.6625560
0.8493854 0.3783598 0.6874294
0.0416776 0.1947941 0.6568242
0.1237668 0.1943082 0.6608771
0.2306004 0.1939343 0.6698101
0.3457889 0.2109104 0.6610722
0.4534214 0.2498226 0.6381343
0.5524891 0.2950899 0.6297073
0.6507599 0.3364786 0.6418678
0.7522164 0.3688458 0.6657047
0.8519919 0.3931297 0.6901811
0.0940356 0.2727250 0.6652231
0.1506999 0.2729763 0.6682201
0.2441055 0.2735546 0.6761318
0.3558855 0.2814119 0.6749386
0.4648354 0.3075293 0.6540088
0.5629448 0.3446399 0.6417131
0.6590915 0.3807456 0.6512488
0.7594383 0.4090309 0.6739371
0.8589680 0.4300702 0.6974052
0.1522696 0.3769461 0.6770126
0.1917423 0.3775503 0.6787727
0.2687971 0.3790455 0.6840753
0.3711646 0.3819047 0.6925843
0.4827221 0.3949746 0.6802904
0.5813798 0.4224265 0.6627712
0.6741721 0.4524344 0.6679297
0.7728727 0.4754638 0.6888176
0.8722322 0.4920320 0.7105036
0.2091988 0.4938519 0.6942165
0.2396056 0.4944192 0.6946204
0.3044503 0.4960252 0.6962768
0.3947528 0.4991437 0.7019750
0.5012987 0.5037645 0.7101458
0.6067659 0.5197374 0.6929358
0.6962798 0.5442723 0.6913356
0.7934355 0.5619722 0.7103281
0.8932361 0.5737573 0.7291455
0.2469268 0.6172702 0.7185404
0.2734311 0.6175997 0.7187809
0.3332171 0.6185170 0.7193705
0.4213191 0.6204305 0.7203150
0.5241725 0.6241110 0.7223955
0.6312247 0.6298589 0.7300406
0.7246852 0.6474257 0.7197577
0.8224726 0.6595511 0.7368082
0.9237430 0.6669405 0.7499951
0.2846770 0.7405332 0.7367438
0.3069793 0.7408353 0.7371145
0.3593166 0.7416581 0.7381065
0.4401103 0.7432652 0.7399777
0.5394165 0.7458582 0.7428398
0.6477559 0.7495468 0.7466469
0.7579153 0.7543008 0.7512080
0.8633282 0.7603319 0.7566291
0.9608816 0.7667604 0.7620434
0.3464520 0.8549690 0.7511472
0.3645696 0.8551932 0.7514914
0.4088221 0.8557985 0.7524273
0.4806669 0.8569606 0.7542632
0.5727655 0.8587900 0.7573231
0.6757646 0.8613920 0.7621769
0.7794347 0.8656243 0.7691784
0.8781381 0.8727444 0.7690540
0.9736900 0.8781699 0.7747879
0.4103638 0.9580371 0.7678628
0.4252647 0.9582192 0.7682619
0.4626325 0.9587156 0.7693561
0.5255564 0.9596922 0.7715296
0.6088788 0.9613164 0.7751537
0.7040041 0.9638593 0.7805061
0.8018218 0.9679837 0.7868228
0.8959394 0.9744055 0.7893134
0.9877787 0.9806759 0.7861546
0.0167823 0.1881278 0.7560355
0.1141964 0.1870732 0.7599229
0.2268616 0.1845841 0.7696408
0.3458627 0.1967523 0.7680373
0.4593595 0.2354622 0.7461604
0.5622949 0.2848864 0.7272518
0.6586494 0.3325017 0.7263688
0.7524767 0.3735172 0.7406718
0.8441912 0.4053421 0.7622696
0.0467153 0.2208178 0.7595146
0.1263302 0.2202459 0.7630286
0.2323841 0.2188585 0.7719814
0.3494924 0.2276824 0.7722351
0.4631200 0.2597720 0.7517875
0.5660481 0.3045266 0.7321292
0.6618571 0.3494084 0.7300969
0.7551049 0.3886254 0.7436970
0.8465040 0.4191343 0.7649268
0.0979888 0.2906351 0.7672189
0.1536820 0.2906695 0.7700011
0.2464891 0.2907196 0.7773664
0.3584539 0.2949870 0.7819784
0.4723577 0.3160760 0.7656690
0.5756659 0.3517674 0.7446761
0.6702528 0.3910388 0.7397920
0.7620479 0.4264147 0.7515952
0.8526514 0.4539839 0.7719257
0.1557100 0.3887705 0.7783581
0.1946884 0.3891764 0.7802573
0.2714477 0.3901719 0.7856282
0.3734957 0.3920942 0.7948168
0.4869274 0.4025071 0.7879058
0.5922624 0.4272095 0.7668237
0.6855007 0.4594523 0.7571103
0.7748556 0.4898949 0.7658161
0.8641312 0.5134012 0.7847400
0.2154709 0.5018207 0.7927945
0.2443674 0.5023450 0.7937151
0.3071456 0.5037378 0.7966876
0.3968909 0.5062126 0.8037022
0.5036769 0.5101201 0.8120399
0.6137943 0.5234354 0.7978565
0.7077536 0.5483056 0.7817966
0.7939437 0.5740585 0.7862215
0.8815934 0.5932969 0.8035700
0.2664630 0.6212228 0.8138611
0.2906618 0.6216094 0.8140153
0.3460834 0.6227097 0.8145486
0.4286376 0.6250373 0.8163616
0.5262612 0.6289393 0.8225261
0.6337214 0.6340303 0.8305004
0.7354152 0.6492747 0.8131998
0.8187823 0.6710567 0.8115290
0.9051622 0.6861886 0.8275688
0.2990594 0.7426387 0.8373705
0.3206115 0.7428968 0.8376074
0.3716521 0.7436027 0.8382150
0.4512839 0.7450008 0.8392468
0.5497354 0.7473732 0.8405283
0.6557128 0.7513625 0.8425982
0.7604160 0.7571520 0.8499060
0.8481291 0.7733290 0.8399357
0.9355528 0.7839842 0.8548257
0.3373634 0.8587971 0.8533797
0.3558529 0.8590434 0.8536775
0.4008139 0.8597132 0.8544772
0.4733648 0.8610180 0.8559947
0.5658730 0.8631163 0.8583369
0.6693065 0.8660935 0.8614865
0.7760861 0.8699277 0.8653021
0.8802135 0.8744638 0.8695424
0.9757784 0.8797899 0.8742739
0.3921466 0.9629398 0.8658060
0.4078170 0.9631358 0.8660760
0.4469011 0.9636654 0.8668065
0.5122487 0.9646841 0.8682182
0.5984224 0.9662859 0.8704846
0.6972396 0.9684857 0.8738058
0.8006778 0.9712770 0.8786552
0.8998200 0.9754069 0.8853560
0.9897580 0.9819387 0.8851511
0.0219600 0.2172821 0.8500147
0.1166218 0.2163471 0.8533750
0.2283263 0.2139870 0.8620431
0.3483157 0.2182177 0.8676322
0.4660484 0.2480247 0.8513964
0.5735959 0.2942731 0.8278155
0.6711651 0.3426980 0.8160349
0.7620746 0.3868670 0.8197116
0.8478193 0.4236880 0.8337703
0.0516569 0.2456438 0.8530924
0.1288355 0.2450501 0.8561978
0.2340558 0.2435336 0.8642776
0.3516951 0.2467184 0.8706294
0.4691692 0.2715648 0.8559775
0.5769014 0.3131504 0.8325776
0.6742535 0.3587336 0.8199118
0.7647286 0.4011064 0.8227765
0.8500843 0.4366903 0.8363498
0.1016693 0.3088613 0.8601878
0.1563998 0.3087613 0.8627631
0.2485866 0.3084710 0.8696118
0.3603102 0.3101544 0.8777345
0.4769473 0.3265077 0.8673126
0.5853367 0.3589455 0.8448393
0.6823287 0.3985265 0.8300210
0.7717505 0.4369658 0.8307983
0.8561017 0.4697641 0.8431385
0.1588649 0.4013336 0.8708446
0.1974364 0.4015925 0.8727456
0.2738565 0.4022229 0.8779982
0.3755604 0.4033800 0.8875344
0.4896719 0.4114548 0.8854331
0.5996878 0.4330171 0.8662367
0.6969140 0.4646743 0.8481597
0.7847286 0.4978229 0.8453124
0.8673075 0.5267602 0.8555372
0.2187390 0.5106417 0.8842188
0.2471095 0.5110682 0.8853968
0.3093186 0.5121766 0.8888685
0.3990509 0.5141115 0.8961953
0.5057853 0.5173449 0.9050021
0.6179486 0.5287795 0.8946031
0.7177094 0.5516707 0.8742817
0.8040763 0.5793560 0.8663143
0.8841941 0.6043499 0.8736479
0.2760600 0.6271514 0.9016916
0.2988277 0.6275674 0.9020742
0.3515167 0.6287177 0.9033674
0.4312189 0.6309701 0.9069990
0.5280885 0.6343247 0.9149183
0.6359712 0.6389137 0.9225982
0.7420123 0.6519560 0.9073031
0.8291206 0.6741211 0.8928235
0.9063893 0.6957211 0.8964945
0.3192505 0.7453564 0.9244230
0.3393450 0.7456310 0.9245199
0.3874404 0.7463998 0.9247865
0.4632150 0.7479995 0.9253918
0.5568835 0.7508751 0.9271151
0.6576686 0.7553132 0.9331943
0.7627224 0.7605923 0.9407886
0.8578848 0.7747524 0.9240717
0.9328233 0.7935771 0.9224779
0.3485614 0.8607670 0.9453900
0.3666471 0.8609831 0.9456153
0.4108477 0.8615703 0.9462084
0.4826657 0.8627144 0.9472804
0.5748188 0.8645653 0.9487652
0.6781481 0.8672874 0.9503561
0.7833380 0.8713848 0.9523385
0.8825065 0.8769838 0.9590761
0.9619080 0.8913940 0.9497947
0.3859210 0.9662199 0.9590316
0.4017697 0.9664288 0.9592808
0.4412082 0.9669963 0.9599509
0.5069149 0.9680997 0.9612274
0.5932216 0.9698702 0.9632091
0.6918547 0.9723767 0.9658936
0.7951653 0.9756003 0.9691714
0.8968465 0.9794135 0.9728419
0.9916732 0.9835741 0.9766396
