LumaGrade-Vercel/public/luts/fuji-nostalgic-neg.cube
TITLE "FUJIFILM Nostalgic Neg Official-Sample Reference v2"
LUT_3D_SIZE 5
DOMAIN_MIN 0.0 0.0 0.0
DOMAIN_MAX 1.0 1.0 1.0
0.0000000 0.0005056 0.0010264
0.2390316 0.0401221 0.0595853
0.5001501 0.0922111 0.1189676
0.7773884 0.1437614 0.1678469
0.9999585 0.2991108 0.2667925
0.0000047 0.2352608 0.1283890
0.2201515 0.2561658 0.1164246
0.5259953 0.2790023 0.0932694
0.8049879 0.2904114 0.1281766
0.9999402 0.4039258 0.2828368
0.1738538 0.4990131 0.2503359
0.2936786 0.5062825 0.2496135
0.5153950 0.5287594 0.2168711
0.8192942 0.5404497 0.0047908
0.9999650 0.6029802 0.3414972
0.3825316 0.7509565 0.3232285
0.4480649 0.7533821 0.3189485
0.6048203 0.7608940 0.2963951
0.8209413 0.7711394 0.1931636
0.9999890 0.7973418 0.4347244
0.5687632 0.9634421 0.3143704
0.6088789 0.9631353 0.3072155
0.7175313 0.9620104 0.2794940
0.8762220 0.9589428 0.1932834
0.9999983 0.9521287 0.6376672
0.0000025 0.0486930 0.1175688
0.1804608 0.0845757 0.2437573
0.4515811 0.1492421 0.3053660
0.7457847 0.1955618 0.3387007
0.9999233 0.2941736 0.3713096
0.0629145 0.2344412 0.2380320
0.2490070 0.2531192 0.2556371
0.5097735 0.2861217 0.3023238
0.7840973 0.3086416 0.3204067
0.9999255 0.4013710 0.3782534
0.2128507 0.4962622 0.3343329
0.3182687 0.5028000 0.3364684
0.5242811 0.5276214 0.3247657
0.8350447 0.5379123 0.2433481
0.9999162 0.6046009 0.4192128
0.4023042 0.7486475 0.3879787
0.4647373 0.7509130 0.3850708
0.6161152 0.7581923 0.3688706
0.8283572 0.7691739 0.2937363
0.9999938 0.7993871 0.4955141
0.5803529 0.9613764 0.3737191
0.6195231 0.9610162 0.3679944
0.7260015 0.9597681 0.3462521
0.8820457 0.9567098 0.2840375
0.9999975 0.9512701 0.6716119
0.0000055 0.1361027 0.2781584
0.1737085 0.1328752 0.4208336
0.4136030 0.2086461 0.4770430
0.6860027 0.2767246 0.5391417
0.9802193 0.3162702 0.5666842
0.0000136 0.2592918 0.4194881
0.2187434 0.2725129 0.4424121
0.4497503 0.3201083 0.4861728
0.7179313 0.3638772 0.5391452
0.9999713 0.3941453 0.5576686
0.2547674 0.4996561 0.4801650
0.3473048 0.5044413 0.4873121
0.5394048 0.5298543 0.5216639
0.8143644 0.5487845 0.5286627
0.9999913 0.6032340 0.5658344
0.4461435 0.7455697 0.5211671
0.5036550 0.7471068 0.5203745
0.6431445 0.7528272 0.5178872
0.8311980 0.7699910 0.4996392
0.9999524 0.8085183 0.6323562
0.6108052 0.9563858 0.5035770
0.6478663 0.9557922 0.4999358
0.7493248 0.9539037 0.4865030
0.8984298 0.9504065 0.4498683
0.9999941 0.9499943 0.7529861
0.0001667 0.2311896 0.4561539
0.1561996 0.2086777 0.6159890
0.4146228 0.2642180 0.6543355
0.6620596 0.3383196 0.7048548
0.9296234 0.3963647 0.7493348
0.0001317 0.3143282 0.5845977
0.2010907 0.3189898 0.6356766
0.4466270 0.3559748 0.6638137
0.6865605 0.4123001 0.7054477
0.9493348 0.4551718 0.7444154
0.2476783 0.5206928 0.6491596
0.3422239 0.5248196 0.6566020
0.5332536 0.5415072 0.6814871
0.7590079 0.5752191 0.6988376
0.9999516 0.5995354 0.7244090
0.4793090 0.7496703 0.6694942
0.5302113 0.7508336 0.6725648
0.6473177 0.7565700 0.6955763
0.8121489 0.7785436 0.7495911
0.9999708 0.8126907 0.7692827
0.6481377 0.9521989 0.6527940
0.6834547 0.9511161 0.6503958
0.7809788 0.9475797 0.6422985
0.9148367 0.9433907 0.6358375
0.9999843 0.9533579 0.8318880
0.0002122 0.3306296 0.6433017
0.1159542 0.2990776 0.8147348
0.4186470 0.3340982 0.8437766
0.6643649 0.3958007 0.8746639
0.9105737 0.4569437 0.9083679
0.0000897 0.3892556 0.7508564
0.1791088 0.3835704 0.8276765
0.4463743 0.4091849 0.8516533
0.6864683 0.4575382 0.8753026
0.9269144 0.5072809 0.9034370
0.2262915 0.5601502 0.8376309
0.3300864 0.5635583 0.8449476
0.5299908 0.5755846 0.8607170
0.7521049 0.6016653 0.8700589
0.9744416 0.6311008 0.8843795
0.4768833 0.7654144 0.8315760
0.5290068 0.7657316 0.8322836
0.6593344 0.7673092 0.8380980
0.8329253 0.7756957 0.8608021
0.9999655 0.8078523 0.8506251
0.6696993 0.9531460 0.8011853
0.7037592 0.9515988 0.7988733
0.7963898 0.9468794 0.7940818
0.8933942 0.9464232 0.8366620
0.9999905 0.9598330 0.9252406
