LumaGrade-Vercel/public/luts/fuji-nostalgic-neg.cube
TITLE "FUJIFILM Nostalgic Neg Official-Sample Reference v2"
LUT_3D_SIZE 9
DOMAIN_MIN 0.0 0.0 0.0
DOMAIN_MAX 1.0 1.0 1.0
0.0000000 0.0005056 0.0010264
0.1205844 0.0188709 0.0288234
0.2390316 0.0401221 0.0595853
0.3665726 0.0657024 0.0896345
0.5001501 0.0922111 0.1189676
0.6368969 0.1203852 0.1479854
0.7773884 0.1437614 0.1678469
0.9185545 0.1627941 0.1802406
0.9999585 0.2991108 0.2667925
0.0000005 0.1095979 0.0645281
0.0913688 0.1254594 0.0532109
0.2482432 0.1412907 0.0460845
0.3812360 0.1498336 0.0780705
0.5122323 0.1639575 0.1118735
0.6475919 0.1804032 0.1393831
0.7863967 0.1959019 0.1582324
0.9259880 0.2092363 0.1696621
0.9999228 0.3331077 0.2710872
0.0000047 0.2352608 0.1283890
0.0948679 0.2420246 0.1247266
0.2201515 0.2561658 0.1164246
0.3741281 0.2727508 0.0903292
0.5259953 0.2790023 0.0932694
0.6669954 0.2839642 0.1115180
0.8049879 0.2904114 0.1281766
0.9425445 0.2960166 0.1362053
0.9999402 0.4039258 0.2828368
0.0661726 0.3671327 0.1918891
0.1376943 0.3703673 0.1932828
0.2393845 0.3788317 0.1932771
0.3612909 0.3936652 0.1790623
0.5120895 0.4080718 0.1354615
0.6732289 0.4117095 0.0824320
0.8221985 0.4103509 0.0545055
0.9629890 0.4074081 0.0285527
0.9999308 0.4990868 0.3060410
0.1738538 0.4990131 0.2503359
0.2152000 0.5010486 0.2504892
0.2936786 0.5062825 0.2496135
0.3949896 0.5156950 0.2426869
0.5153950 0.5287594 0.2168711
0.6604333 0.5395765 0.1520413
0.8192942 0.5404497 0.0047908
0.9585615 0.5418585 0.0007657
0.9999650 0.6029802 0.3414972
0.2781792 0.6283718 0.2958411
0.3057110 0.6296375 0.2953406
0.3652343 0.6328582 0.2934033
0.4498489 0.6385741 0.2872480
0.5518847 0.6468650 0.2700128
0.6708674 0.6563408 0.2268473
0.8097179 0.6622032 0.1236420
0.9508461 0.6635057 0.0010798
0.9999900 0.7042205 0.3842101
0.3825316 0.7509565 0.3232285
0.4023704 0.7516431 0.3221309
0.4480649 0.7533821 0.3189485
0.5176187 0.7564439 0.3117292
0.6048203 0.7608940 0.2963951
0.7058368 0.7663535 0.2640222
0.8209413 0.7711394 0.1931636
0.9494314 0.7719363 0.0010233
0.9999890 0.7973418 0.4347244
0.4815793 0.8635128 0.3299299
0.4965639 0.8637644 0.3283799
0.5322471 0.8643964 0.3241691
0.5890222 0.8654897 0.3156190
0.6628873 0.8670325 0.2997868
0.7497639 0.8688420 0.2705627
0.8475473 0.8702664 0.2132139
0.9565941 0.8695694 0.0499205
0.9999695 0.8812880 0.5125599
0.5687632 0.9634421 0.3143704
0.5804728 0.9633574 0.3124131
0.6088789 0.9631353 0.3072155
0.6553497 0.9627140 0.2971047
0.7175313 0.9620104 0.2794940
0.7920760 0.9608684 0.2492004
0.8762220 0.9589428 0.1932834
0.9686912 0.9554354 0.0331779
0.9999983 0.9521287 0.6376672
0.0000044 0.0152442 0.0484339
0.0774909 0.0301835 0.1306387
0.2043720 0.0631133 0.1620441
0.3432483 0.0890827 0.1837607
0.4840480 0.1133818 0.2022868
0.6251380 0.1387241 0.2211559
0.7683278 0.1603544 0.2341449
0.9112638 0.1782028 0.2420463
0.9999066 0.2977518 0.3015804
0.0024031 0.1119836 0.1205350
0.1134808 0.1221533 0.1274268
0.2412866 0.1419284 0.1574215
0.3676788 0.1561340 0.1776804
0.5002818 0.1732975 0.1979343
0.6379344 0.1907727 0.2149016
0.7784886 0.2066983 0.2268607
0.9193815 0.2201611 0.2338970
0.9999474 0.3319146 0.3047754
0.0251214 0.2344818 0.1705913
0.1172705 0.2387579 0.1724024
0.2310585 0.2541735 0.1706621
0.3875214 0.2723016 0.1642440
0.5278944 0.2789466 0.1794867
0.6637305 0.2863742 0.1938522
0.8003663 0.2946824 0.2047614
0.9378165 0.3014779 0.2093879
0.9999691 0.4032279 0.3141772
0.0919536 0.3656653 0.2282234
0.1529627 0.3687434 0.2299812
0.2487508 0.3769240 0.2310098
0.3670284 0.3926251 0.2208878
0.5197637 0.4077690 0.1888276
0.6786818 0.4108012 0.1634419
0.8235657 0.4101853 0.1572036
0.9618280 0.4086386 0.1513708
0.9999314 0.4990168 0.3341029
0.1871340 0.4979280 0.2786638
0.2260333 0.4999113 0.2790324
0.3014941 0.5050489 0.2788525
0.4003097 0.5144773 0.2735932
0.5191071 0.5280545 0.2516952
0.6653210 0.5391077 0.1976461
0.8245576 0.5393814 0.1184918
0.9753535 0.5317510 0.0049796
0.9999630 0.6035435 0.3664064
0.2866789 0.6275133 0.3192060
0.3134072 0.6287556 0.3188457
0.3715644 0.6319265 0.3173248
0.4547420 0.6375987 0.3121250
0.5554967 0.6459526 0.2968569
0.6738259 0.6556694 0.2580477
0.8132303 0.6616225 0.1730481
0.9618339 0.6595144 0.0001291
0.9999422 0.7051106 0.4065388
0.3885119 0.7502248 0.3435498
0.4080209 0.7508996 0.3425714
0.4530560 0.7526116 0.3397237
0.5217896 0.7556398 0.3332229
0.6081487 0.7600808 0.3193124
0.7084056 0.7656087 0.2898675
0.8231251 0.7705415 0.2271099
0.9542377 0.7707346 0.0534110
0.9999616 0.7978791 0.4533628
0.4860054 0.8628570 0.3486251
0.5008318 0.8631019 0.3471914
0.5361696 0.8637181 0.3432990
0.5924653 0.8647890 0.3354056
0.6657911 0.8663136 0.3208253
0.7521155 0.8681317 0.2940814
0.8494086 0.8696162 0.2427890
0.9582056 0.8690127 0.1235491
0.9999558 0.8813252 0.5266510
0.5721535 0.9628315 0.3326845
0.5837768 0.9627427 0.3308594
0.6119850 0.9625108 0.3260203
0.6581612 0.9620747 0.3166371
0.7199892 0.9613555 0.3003926
0.7941500 0.9602066 0.2727885
0.8779072 0.9582974 0.2234443
0.9700388 0.9548392 0.1128935
0.9999872 0.9518595 0.6478606
0.0000025 0.0486930 0.1175688
0.0640928 0.0449034 0.2182400
0.1804608 0.0845757 0.2437573
0.3099991 0.1198604 0.2768060
0.4515811 0.1492421 0.3053660
0.5976651 0.1748058 0.3265802
0.7457847 0.1955618 0.3387007
0.8926459 0.2122021 0.3448559
0.9999233 0.2941736 0.3713096
0.0000257 0.1175068 0.1933857
0.0871145 0.1259780 0.2188469
0.2015897 0.1509933 0.2438404
0.3286103 0.1755546 0.2799459
0.4679077 0.1970480 0.3068980
0.6118678 0.2163311 0.3241703
0.7572794 0.2329550 0.3343444
0.9017988 0.2465385 0.3393108
0.9999667 0.3289380 0.3728112
0.0629145 0.2344412 0.2380320
0.1397207 0.2388449 0.2417672
0.2490070 0.2531192 0.2556371
0.3803632 0.2738167 0.2851750
0.5097735 0.2861217 0.3023238
0.6456769 0.2977406 0.3130807
0.7840973 0.3086416 0.3204067
0.9234620 0.3170960 0.3227075
0.9999255 0.4013710 0.3782534
0.1297966 0.3643237 0.2907605
0.1807657 0.3668374 0.2929512
0.2671440 0.3737909 0.2977795
0.3784508 0.3912737 0.2969955
0.5376609 0.4086419 0.2850937
0.6833077 0.4113793 0.2859078
0.8204182 0.4129042 0.2861547
0.9549797 0.4143170 0.2848626
0.9999302 0.4984261 0.3922849
0.2128507 0.4962622 0.3343329
0.2479361 0.4980676 0.3351512
0.3182687 0.5028000 0.3364684
0.4099631 0.5123556 0.3375125
0.5242811 0.5276214 0.3247657
0.6743446 0.5398148 0.2867721
0.8350447 0.5379123 0.2433481
0.9799827 0.5307144 0.2170223
0.9999162 0.6046009 0.4192128
0.3052105 0.6258606 0.3683656
0.3304044 0.6270277 0.3682974
0.3858764 0.6300259 0.3676451
0.4660758 0.6354912 0.3644247
0.5639119 0.6438947 0.3530059
0.6807423 0.6542452 0.3211671
0.8219952 0.6604573 0.2565163
0.9756154 0.6556266 0.1619328
0.9999867 0.7072622 0.4552027
0.4023042 0.7486475 0.3879787
0.4211150 0.7492860 0.3872416
0.4647373 0.7509130 0.3850708
0.5316755 0.7538231 0.3800098
0.6161152 0.7581923 0.3688706
0.7145446 0.7638560 0.3446675
0.8283572 0.7691739 0.2937363
0.9603691 0.7694784 0.1905505
0.9999938 0.7993871 0.4955141
0.4965250 0.8613514 0.3903096
0.5109963 0.8615766 0.3891064
0.5455554 0.8621459 0.3858425
0.6007586 0.8631467 0.3792325
0.6728331 0.8646048 0.3670425
0.7578384 0.8664206 0.3447857
0.8539230 0.8680438 0.3031015
0.9621204 0.8676845 0.2197696
0.9999952 0.8815286 0.5591253
0.5803529 0.9613764 0.3737191
0.5917755 0.9612760 0.3721483
0.6195231 0.9610162 0.3679944
0.6650095 0.9605364 0.3599844
0.7260015 0.9597681 0.3462521
0.7992411 0.9585896 0.3233324
0.8820457 0.9567098 0.2840375
0.9733353 0.9533718 0.2098586
0.9999975 0.9512701 0.6716119
0.0000206 0.0912257 0.1950409
0.0482556 0.0726590 0.3102739
0.1764410 0.1051935 0.3280780
0.2952015 0.1445842 0.3577780
0.4247470 0.1816417 0.3942851
0.5658342 0.2133060 0.4254719
0.7140748 0.2381703 0.4454270
0.8634234 0.2569704 0.4563880
0.9999279 0.2888103 0.4626526
0.0000527 0.1414198 0.2654438
0.0648987 0.1429900 0.3175175
0.1915881 0.1634927 0.3338235
0.3081024 0.1939361 0.3621013
0.4366761 0.2235135 0.3980488
0.5779363 0.2487702 0.4262896
0.7250522 0.2691955 0.4440229
0.8727988 0.2848985 0.4532842
0.9999699 0.3243158 0.4622171
0.0395133 0.2418346 0.3227921
0.1225864 0.2449343 0.3280802
0.2294847 0.2566098 0.3445134
0.3411379 0.2819813 0.3714235
0.4683150 0.3038855 0.4050298
0.6089503 0.3205389 0.4262172
0.7523182 0.3344139 0.4386846
0.8959780 0.3448116 0.4435847
0.9999602 0.3979138 0.4628859
0.1514279 0.3664168 0.3631993
0.1982090 0.3683986 0.3653008
0.2838002 0.3752639 0.3726132
0.3928892 0.3917640 0.3906036
0.5285048 0.4105335 0.4128400
0.6616508 0.4195181 0.4207953
0.7984499 0.4251694 0.4203220
0.9341341 0.4296975 0.4195924
0.9999739 0.4964463 0.4696186
0.2400492 0.4962986 0.4045233
0.2715257 0.4979015 0.4064240
0.3362660 0.5020758 0.4112816
0.4226933 0.5102506 0.4189060
0.5314349 0.5278316 0.4181812
0.6911355 0.5427055 0.3997976
0.8394990 0.5399493 0.3862238
0.9772591 0.5335218 0.3693312
0.9999140 0.6050284 0.4896969
0.3302086 0.6244832 0.4342194
0.3538135 0.6254911 0.4344902
0.4064423 0.6280837 0.4348952
0.4826218 0.6330062 0.4350271
0.5710106 0.6422175 0.4361728
0.6817680 0.6552345 0.4195920
0.8287710 0.6627400 0.3732062
0.9883070 0.6542364 0.3131645
0.9999368 0.7106733 0.5230950
0.4228121 0.7467174 0.4503567
0.4407490 0.7472766 0.4499177
0.4825789 0.7487087 0.4485916
0.5471668 0.7513094 0.4453542
0.6288873 0.7553777 0.4377232
0.7243528 0.7611227 0.4196370
0.8367217 0.7671923 0.3791589
0.9710444 0.7677552 0.3050357
0.9999448 0.8026671 0.5582286
0.5130165 0.8591901 0.4504173
0.5269927 0.8593730 0.4494942
0.5604575 0.8598390 0.4469940
0.6141006 0.8606740 0.4419365
0.6843269 0.8619446 0.4325866
0.7672570 0.8636680 0.4153634
0.8612927 0.8654833 0.3828963
0.9685197 0.8655913 0.3212468
0.9999816 0.8823218 0.6088573
0.5936152 0.9591061 0.4333876
0.6047389 0.9589815 0.4321122
0.6317968 0.9586622 0.4287503
0.6762413 0.9580855 0.4223069
0.7359488 0.9571989 0.4113610
0.8077288 0.9559246 0.3933307
0.8889543 0.9540533 0.3631623
0.9787891 0.9509096 0.3103058
0.9999792 0.9505181 0.7083361
0.0000055 0.1361027 0.2781584
0.0192168 0.1102472 0.4042518
0.1737085 0.1328752 0.4208336
0.2929573 0.1689242 0.4437009
0.4136030 0.2086461 0.4770430
0.5448943 0.2456884 0.5112590
0.6860027 0.2767246 0.5391417
0.8321599 0.3008079 0.5583565
0.9802193 0.3162702 0.5666842
0.0000704 0.1740410 0.3402100
0.0406471 0.1676131 0.4125697
0.1862755 0.1835089 0.4279990
0.3045531 0.2120912 0.4488417
0.4238241 0.2458596 0.4801478
0.5545971 0.2776021 0.5127029
0.6951292 0.3043234 0.5393087
0.8405510 0.3250281 0.5570502
0.9876695 0.3379904 0.5639414
0.0000136 0.2592918 0.4194881
0.1022381 0.2626086 0.4282377
0.2187434 0.2725129 0.4424121
0.3333529 0.2932533 0.4604819
0.4497503 0.3201083 0.4861728
0.5788483 0.3442792 0.5156419
0.7179313 0.3638772 0.5391452
0.8616900 0.3783383 0.5527247
0.9999713 0.3941453 0.5576686
0.1443980 0.3738075 0.4456096
0.1907665 0.3755542 0.4483559
0.2730065 0.3805848 0.4568365
0.3781569 0.3939007 0.4749222
0.4911118 0.4180859 0.4974512
0.6191279 0.4361051 0.5225245
0.7589304 0.4472223 0.5349992
0.8988604 0.4548115 0.5410361
0.9999479 0.4933337 0.5557931
0.2547674 0.4996561 0.4801650
0.2846853 0.5010007 0.4821300
0.3473048 0.5044413 0.4873121
0.4347614 0.5127695 0.4989986
0.5394048 0.5298543 0.5216639
0.6783136 0.5449569 0.5334966
0.8143644 0.5487845 0.5286627
0.9524573 0.5461572 0.5114997
0.9999913 0.6032340 0.5658344
0.3541278 0.6251934 0.5064294
0.3766478 0.6260166 0.5069044
0.4236593 0.6286248 0.5116301
0.4930945 0.6334068 0.5199039
0.5767101 0.6413272 0.5302818
0.6819040 0.6572819 0.5285086
0.8409094 0.6678090 0.5013358
0.9897867 0.6581140 0.4724220
0.9999716 0.7133164 0.5958228
0.4461435 0.7455697 0.5211671
0.4633359 0.7460031 0.5209738
0.5036550 0.7471068 0.5203745
0.5662833 0.7491058 0.5188403
0.6431445 0.7528272 0.5178872
0.7261049 0.7603814 0.5195950
0.8311980 0.7699910 0.4996392
0.9730830 0.7718302 0.4448834
0.9999524 0.8085183 0.6323562
0.5334112 0.8570285 0.5203825
0.5468847 0.8571384 0.5197190
0.5792359 0.8574196 0.5179345
0.6312772 0.8579350 0.5143622
0.6995283 0.8587780 0.5077928
0.7799704 0.8601297 0.4954870
0.8711016 0.8620522 0.4711128
0.9770102 0.8629784 0.4229006
0.9999529 0.8845129 0.6698846
0.6108052 0.9563858 0.5035770
0.6215909 0.9562184 0.5025722
0.6478663 0.9557922 0.4999358
0.6911186 0.9550337 0.4949250
0.7493248 0.9539037 0.4865030
0.8193133 0.9523835 0.4727582
0.8984298 0.9504065 0.4498683
0.9861419 0.9474961 0.4102065
0.9999941 0.9499943 0.7529861
0.0000875 0.1828990 0.3655447
0.0000421 0.1650039 0.4720030
0.1674139 0.1680823 0.5173987
0.2932759 0.1974487 0.5369475
0.4123343 0.2350809 0.5632438
0.5367342 0.2738902 0.5933477
0.6689679 0.3092494 0.6231143
0.8077513 0.3385921 0.6479252
0.9511146 0.3595431 0.6632658
0.0000174 0.2127172 0.4191881
0.0028276 0.1992449 0.5091836
0.1791855 0.2112911 0.5243878
0.3034735 0.2353261 0.5427891
0.4220306 0.2680612 0.5662365
0.5453939 0.3026506 0.5946147
0.6766460 0.3343924 0.6235561
0.8148723 0.3605513 0.6473256
0.9576394 0.3789331 0.6615918
0.0000322 0.2834989 0.5029541
0.0816580 0.2848431 0.5258258
0.2099072 0.2932187 0.5392722
0.3298146 0.3104234 0.5544768
0.4465671 0.3361126 0.5723434
0.5668701 0.3642912 0.5971661
0.6957290 0.3897887 0.6241863
0.8327225 0.4098594 0.6452973
0.9740034 0.4230953 0.6568557
0.1263280 0.3895135 0.5397842
0.1778441 0.3914901 0.5436127
0.2666030 0.3968947 0.5532728
0.3743332 0.4081033 0.5674276
0.4873755 0.4275031 0.5809843
0.6030592 0.4502324 0.5999581
0.7288400 0.4690649 0.6233703
0.8639180 0.4819645 0.6399345
0.9999836 0.4911584 0.6469419
0.2555433 0.5068088 0.5598917
0.2844099 0.5079073 0.5619340
0.3448464 0.5107755 0.5674677
0.4277987 0.5165651 0.5789112
0.5304884 0.5297470 0.5976419
0.6430452 0.5512958 0.6145907
0.7714151 0.5639317 0.6282709
0.9106968 0.5675160 0.6271270
0.9999663 0.6001928 0.6436662
0.3661150 0.6289464 0.5832060
0.3861510 0.6298015 0.5851356
0.4317039 0.6319934 0.5901184
0.4994571 0.6359542 0.5992340
0.5840414 0.6444360 0.6154959
0.6814001 0.6606902 0.6428869
0.8231407 0.6703133 0.6411630
0.9607380 0.6674272 0.6213015
0.9999626 0.7115291 0.6628751
0.4667819 0.7464748 0.5946057
0.4834928 0.7467814 0.5944911
0.5229213 0.7475440 0.5941607
0.5781298 0.7499630 0.6005431
0.6457782 0.7542535 0.6129367
0.7232486 0.7607959 0.6265914
0.8225032 0.7739142 0.6238289
0.9785769 0.7789414 0.5874955
0.9999465 0.8151476 0.7094454
0.5544260 0.8558246 0.5938467
0.5675110 0.8558382 0.5933564
0.5990233 0.8558676 0.5920655
0.6499223 0.8559112 0.5895854
0.7168174 0.8560063 0.5852787
0.7901548 0.8575804 0.5845548
0.8656959 0.8624422 0.5872536
0.9633435 0.8676918 0.5642535
0.9999587 0.8902540 0.7322531
0.6299042 0.9538327 0.5779343
0.6403846 0.9536022 0.5771403
0.6659562 0.9530144 0.5750748
0.7081441 0.9519673 0.5712129
0.7650044 0.9504122 0.5648716
0.8332897 0.9483718 0.5547550
0.9100707 0.9459745 0.5379839
0.9949362 0.9431966 0.5080575
0.9999831 0.9501965 0.8004575
0.0001667 0.2311896 0.4561539
0.0000914 0.2206915 0.5365796
0.1561996 0.2086777 0.6159890
0.2920723 0.2312528 0.6344848
0.4146228 0.2642180 0.6543355
0.5364441 0.3015568 0.6780815
0.6620596 0.3383196 0.7048548
0.7932689 0.3708788 0.7301730
0.9296234 0.3963647 0.7493348
0.0001678 0.2553917 0.5022695
0.0000932 0.2453333 0.5770047
0.1683247 0.2451807 0.6226139
0.3016654 0.2644735 0.6395539
0.4237125 0.2935224 0.6573819
0.5445838 0.3273793 0.6794239
0.6690638 0.3611535 0.7051920
0.7995361 0.3909914 0.7296086
0.9352642 0.4141324 0.7480244
0.0001317 0.3143282 0.5845977
0.0487382 0.3119689 0.6239887
0.2010907 0.3189898 0.6356766
0.3268080 0.3333070 0.6495756
0.4466270 0.3559748 0.6638137
0.5648014 0.3839558 0.6822560
0.6865605 0.4123001 0.7054477
0.8151484 0.4368548 0.7277979
0.9493348 0.4551718 0.7444154
0.1071609 0.4099020 0.6361058
0.1659086 0.4117314 0.6398904
0.2606566 0.4166201 0.6486714
0.3708981 0.4262362 0.6605896
0.4854324 0.4424602 0.6719230
0.5991688 0.4644455 0.6853586
0.7166241 0.4869111 0.7040860
0.8419125 0.5052315 0.7234059
0.9735538 0.5173422 0.7370632
0.2476783 0.5206928 0.6491596
0.2781509 0.5218260 0.6512163
0.3422239 0.5248196 0.6566020
0.4294402 0.5308577 0.6681928
0.5332536 0.5415072 0.6814871
0.6438396 0.5581068 0.6900543
0.7590079 0.5752191 0.6988376
0.8800652 0.5876457 0.7145105
0.9999516 0.5995354 0.7244090
0.3704972 0.6354820 0.6607015
0.3902127 0.6360983 0.6622177
0.4342071 0.6377622 0.6668948
0.4997605 0.6407899 0.6754638
0.5802091 0.6459929 0.6894155
0.6792051 0.6575340 0.7077048
0.7902541 0.6747898 0.7171148
0.9175582 0.6807687 0.7179670
0.9999483 0.7076583 0.7237312
0.4793090 0.7496703 0.6694942
0.4955798 0.7498554 0.6693254
0.5302113 0.7508336 0.6725648
0.5816412 0.7530809 0.6816704
0.6473177 0.7565700 0.6955763
0.7249738 0.7641842 0.7171403
0.8121489 0.7785436 0.7495911
0.9550769 0.7814290 0.7331209
0.9999708 0.8126907 0.7692827
0.5718768 0.8564119 0.6678937
0.5846902 0.8563366 0.6674500
0.6156510 0.8561321 0.6663039
0.6659439 0.8557251 0.6642010
0.7228451 0.8569117 0.6723823
0.7848249 0.8597650 0.6893965
0.8538711 0.8639291 0.7063611
0.9453616 0.8731498 0.7023725
0.9999691 0.9011658 0.8100657
0.6481377 0.9521989 0.6527940
0.6583910 0.9518949 0.6521225
0.6834547 0.9511161 0.6503958
0.7249257 0.9497119 0.6472471
0.7809788 0.9475797 0.6422985
0.8482920 0.9446873 0.6348980
0.9148367 0.9433907 0.6358375
0.9814792 0.9446153 0.6394251
0.9999843 0.9533579 0.8318880
0.0002232 0.2805901 0.5489437
0.0000423 0.2730340 0.6141743
0.1387806 0.2526395 0.7159316
0.2893262 0.2698952 0.7323776
0.4171737 0.2972532 0.7484946
0.5394665 0.3309939 0.7667248
0.6616176 0.3665997 0.7884147
0.7871533 0.4000234 0.8105420
0.9166699 0.4281518 0.8296864
0.0000667 0.3006914 0.5887845
0.0001639 0.2929798 0.6510818
0.1534377 0.2836333 0.7213053
0.2988184 0.2988848 0.7364600
0.4256127 0.3233190 0.7513467
0.5470544 0.3541902 0.7682458
0.6682681 0.3872581 0.7887148
0.7929591 0.4183998 0.8098944
0.9217209 0.4445026 0.8283908
0.0002102 0.3500785 0.6669133
0.0001356 0.3436476 0.7211111
0.1910423 0.3493714 0.7318617
0.3234992 0.3611749 0.7448130
0.4468612 0.3804614 0.7574421
0.5658846 0.4060663 0.7715865
0.6849261 0.4342202 0.7889300
0.8074264 0.4608041 0.8078981
0.9342775 0.4826736 0.8248717
0.0837852 0.4340826 0.7321702
0.1526866 0.4356829 0.7356372
0.2539678 0.4399413 0.7435702
0.3668722 0.4482135 0.7545114
0.4829778 0.4620057 0.7651686
0.5984109 0.4815011 0.7750521
0.7136309 0.5039170 0.7876495
0.8321642 0.5249840 0.8032479
0.9556728 0.5413640 0.8178905
0.2367563 0.5389732 0.7435097
0.2689728 0.5400562 0.7457823
0.3359127 0.5428760 0.7513736
0.4275768 0.5481640 0.7601556
0.5333107 0.5569207 0.7692571
0.6440411 0.5703699 0.7755501
0.7542149 0.5873947 0.7825961
0.8669380 0.6033228 0.7940996
0.9857035 0.6140807 0.8059617
0.3642350 0.6475466 0.7477256
0.3852476 0.6480772 0.7486026
0.4330852 0.6494569 0.7509483
0.5045991 0.6521015 0.7558409
0.5891849 0.6573156 0.7686762
0.6890038 0.6657869 0.7798504
0.7961161 0.6781552 0.7822143
0.9084073 0.6887592 0.7807576
0.9999548 0.7080908 0.7891682
0.4818314 0.7554965 0.7476884
0.4975871 0.7555734 0.7475654
0.5348734 0.7557418 0.7472430
0.5852712 0.7571287 0.7549625
0.6492012 0.7593491 0.7671993
0.7236639 0.7629304 0.7840205
0.8169582 0.7718975 0.8018424
0.9242736 0.7835006 0.8030022
0.9999603 0.8053022 0.8103978
0.5820972 0.8588043 0.7425702
0.5946169 0.8586424 0.7421013
0.6249231 0.8582131 0.7408905
0.6712326 0.8578872 0.7419202
0.7217768 0.8593323 0.7558982
0.7813397 0.8614355 0.7749682
0.8496650 0.8671782 0.8016794
0.9250287 0.8785544 0.8384413
0.9999739 0.8981654 0.8632975
0.6622614 0.9519997 0.7269990
0.6723380 0.9516306 0.7263585
0.6970178 0.9506823 0.7247216
0.7380006 0.9489614 0.7217798
0.7936836 0.9463060 0.7172989
0.8478908 0.9453833 0.7277010
0.9019131 0.9458581 0.7490361
0.9611565 0.9466461 0.7685643
0.9999920 0.9570092 0.8700278
0.0002122 0.3306296 0.6433017
0.0001259 0.3244670 0.6984641
0.1159542 0.2990776 0.8147348
0.2849262 0.3121923 0.8295705
0.4186470 0.3340982 0.8437766
0.5429636 0.3631718 0.8583359
0.6643649 0.3958007 0.8746639
0.7864652 0.4281255 0.8919765
0.9105737 0.4569437 0.9083679
0.0001829 0.3475010 0.6781778
0.0002694 0.3409889 0.7318797
0.1350091 0.3254874 0.8189774
0.2946228 0.3373829 0.8328515
0.4265493 0.3572388 0.8462518
0.5499608 0.3840247 0.8598770
0.6706678 0.4144861 0.8749838
0.7919605 0.4448684 0.8913206
0.9152602 0.4719516 0.9070351
0.0000897 0.3892556 0.7508564
0.0002783 0.3829687 0.8000441
0.1791088 0.3835704 0.8276765
0.3194772 0.3931716 0.8397372
0.4463743 0.4091849 0.8516533
0.5675969 0.4314679 0.8629847
0.6864683 0.4575382 0.8753026
0.8056793 0.4838952 0.8893330
0.9269144 0.5072809 0.9034370
0.0502137 0.4616695 0.8276783
0.1368206 0.4630288 0.8308117
0.2462078 0.4666476 0.8380245
0.3625050 0.4736530 0.8481681
0.4808038 0.4852536 0.8580208
0.5981598 0.5020072 0.8660919
0.7137010 0.5225497 0.8743558
0.8291928 0.5437551 0.8847898
0.9467543 0.5622407 0.8963623
0.2262915 0.5601502 0.8376309
0.2604031 0.5610984 0.8397897
0.3300864 0.5635583 0.8449476
0.4237123 0.5681374 0.8527220
0.5299908 0.5755846 0.8607170
0.6412040 0.5868026 0.8661872
0.7521049 0.6016653 0.8700589
0.8622803 0.6176710 0.8759839
0.9744416 0.6311008 0.8843795
0.3562729 0.6633735 0.8387897
0.3777599 0.6638931 0.8399582
0.4266523 0.6652342 0.8429290
0.5000651 0.6676993 0.8480453
0.5910261 0.6716451 0.8545001
0.6932261 0.6777839 0.8592887
0.7990015 0.6870684 0.8600493
0.9031532 0.6983364 0.8610004
0.9999768 0.7128667 0.8633861
0.4768833 0.7654144 0.8315760
0.4923577 0.7655026 0.8317587
0.5290068 0.7657316 0.8322836
0.5868127 0.7661733 0.8334635
0.6593344 0.7673092 0.8380980
0.7389873 0.7705409 0.8518524
0.8329253 0.7756957 0.8608021
0.9346596 0.7828488 0.8568794
0.9999655 0.8078523 0.8506251
0.5838334 0.8632445 0.8195095
0.5959915 0.8630044 0.8190765
0.6254089 0.8623750 0.8179677
0.6732642 0.8611883 0.8159777
0.7252161 0.8611933 0.8255550
0.7836886 0.8617139 0.8417030
0.8499243 0.8627148 0.8612153
0.9357162 0.8680312 0.8780611
0.9999771 0.8884779 0.8865823
0.6696993 0.9531460 0.8011853
0.6795673 0.9527127 0.8005352
0.7037592 0.9515988 0.7988733
0.7439994 0.9495739 0.7958837
0.7963898 0.9468794 0.7940818
0.8421822 0.9466531 0.8129610
0.8933942 0.9464232 0.8366620
0.9511681 0.9492311 0.8673519
0.9999905 0.9598330 0.9252406
