LumaGrade-Vercel/public/luts/fuji-nostalgic-neg.cube
TITLE "FUJIFILM Nostalgic Neg Official-Sample Reference v2"
LUT_3D_SIZE 33
DOMAIN_MIN 0.0 0.0 0.0
DOMAIN_MAX 1.0 1.0 1.0
0.0000000 0.0005056 0.0010264
0.0348797 0.0073046 0.0112462
0.0646086 0.0112098 0.0168918
0.0925589 0.0149232 0.0225691
0.1205844 0.0188709 0.0288234
0.1492662 0.0233187 0.0359385
0.1785887 0.0283116 0.0438013
0.2085227 0.0338965 0.0517082
0.2390316 0.0401221 0.0595853
0.2700755 0.0466444 0.0674360
0.3016123 0.0532390 0.0752643
0.3337387 0.0596908 0.0827834
0.3665726 0.0657024 0.0896345
0.3996666 0.0719458 0.0966682
0.4329844 0.0784392 0.1038961
0.4664905 0.0851931 0.1113271
0.5001501 0.0922111 0.1189676
0.5339292 0.0994910 0.1268218
0.5678730 0.1068770 0.1346646
0.6022313 0.1138065 0.1416586
0.6368969 0.1203852 0.1479854
0.6717972 0.1266586 0.1537334
0.7068776 0.1326421 0.1589434
0.7420899 0.1383415 0.1636407
0.7773884 0.1437614 0.1678469
0.8127266 0.1489111 0.1715884
0.8480516 0.1538191 0.1749139
0.8832973 0.1585529 0.1779186
0.9185545 0.1627941 0.1802406
0.9538253 0.1664235 0.1817511
0.9890787 0.1693960 0.1824090
0.9999580 0.2319741 0.2194175
0.9999585 0.2991108 0.2667925
0.0000015 0.0278435 0.0178803
0.0148711 0.0366449 0.0159318
0.0507172 0.0420253 0.0143863
0.0902798 0.0463223 0.0173429
0.1249505 0.0505616 0.0242204
0.1545578 0.0529311 0.0312131
0.1838740 0.0560525 0.0392695
0.2135216 0.0598145 0.0477667
0.2436726 0.0640842 0.0561317
0.2743571 0.0687625 0.0643901
0.3055564 0.0737805 0.0725609
0.3372338 0.0790898 0.0806622
0.3695934 0.0843030 0.0881706
0.4024866 0.0894935 0.0953011
0.4356170 0.0950130 0.1026230
0.4689486 0.1008599 0.1101446
0.5024460 0.1070295 0.1178716
0.5360741 0.1135141 0.1258080
0.5699407 0.1200590 0.1335396
0.6042245 0.1262598 0.1404217
0.6388079 0.1322128 0.1466687
0.6736245 0.1379365 0.1523520
0.7086217 0.1434321 0.1575066
0.7437519 0.1486959 0.1621556
0.7789695 0.1537255 0.1663196
0.8142277 0.1585251 0.1700257
0.8494720 0.1631215 0.1733281
0.8846442 0.1675561 0.1762987
0.9198428 0.1715059 0.1785475
0.9550564 0.1748827 0.1799813
0.9902541 0.1776395 0.1805578
0.9999823 0.2400964 0.2197635
0.9999013 0.3052529 0.2675626
0.0000010 0.0528304 0.0307097
0.0074511 0.0608816 0.0273466
0.0345212 0.0653932 0.0256990
0.0749616 0.0709852 0.0227937
0.1165556 0.0757895 0.0231648
0.1538275 0.0790966 0.0281685
0.1860998 0.0808937 0.0351072
0.2169391 0.0831397 0.0435819
0.2474990 0.0859911 0.0522919
0.2782440 0.0893974 0.0609314
0.3093466 0.0932785 0.0694604
0.3408576 0.0975648 0.0778823
0.3727752 0.1022022 0.0862135
0.4054374 0.1066756 0.0936462
0.4384072 0.1114275 0.1010934
0.4715792 0.1165420 0.1087329
0.5049214 0.1220102 0.1165706
0.5384004 0.1278217 0.1246106
0.5722134 0.1336051 0.1321692
0.6064204 0.1391620 0.1389435
0.6409187 0.1445484 0.1451107
0.6756475 0.1497656 0.1507282
0.7105562 0.1548048 0.1558260
0.7455982 0.1596559 0.1604250
0.7807283 0.1643117 0.1645453
0.8158993 0.1687732 0.1682154
0.8510541 0.1730678 0.1714974
0.8861491 0.1772009 0.1744216
0.9212834 0.1808610 0.1765884
0.9564341 0.1839846 0.1779358
0.9915704 0.1865236 0.1784199
0.9999601 0.2490119 0.2202376
0.9999839 0.3118056 0.2682598
0.0000036 0.0806132 0.0474396
0.0018065 0.0874438 0.0419792
0.0261077 0.0901438 0.0408540
0.0620450 0.0948519 0.0383733
0.1016549 0.1006469 0.0342315
0.1435830 0.1058567 0.0320867
0.1823041 0.1086511 0.0339968
0.2172912 0.1104269 0.0398246
0.2500537 0.1122371 0.0477742
0.2818685 0.1144826 0.0563943
0.3134353 0.1172398 0.0651803
0.3450899 0.1204795 0.0739434
0.3769802 0.1241494 0.0826253
0.4091941 0.1281631 0.0911395
0.4420398 0.1321136 0.0987789
0.4750596 0.1364558 0.1066024
0.5082359 0.1411755 0.1146134
0.5415775 0.1462145 0.1227142
0.5753406 0.1511583 0.1300406
0.6094551 0.1559979 0.1366868
0.6438473 0.1607400 0.1427558
0.6784635 0.1653720 0.1482909
0.7132564 0.1698772 0.1533167
0.7481813 0.1742400 0.1578520
0.7831935 0.1784491 0.1619168
0.8182454 0.1825036 0.1655423
0.8532743 0.1864376 0.1688096
0.8882711 0.1901853 0.1716475
0.9233171 0.1934862 0.1736978
0.9583809 0.1962934 0.1749215
0.9934320 0.1985576 0.1752726
0.9999164 0.2611964 0.2209572
0.9999073 0.3211884 0.2695181
0.0000005 0.1095979 0.0645281
0.0000166 0.1153312 0.0591857
0.0214636 0.1177495 0.0576722
0.0557318 0.1208356 0.0562420
0.0913688 0.1254594 0.0532109
0.1299115 0.1310881 0.0483472
0.1709556 0.1360479 0.0437440
0.2110281 0.1392838 0.0426885
0.2482432 0.1412907 0.0460845
0.2829962 0.1429622 0.0525516
0.3162856 0.1448347 0.0605609
0.3488793 0.1471115 0.0692104
0.3812360 0.1498336 0.0780705
0.4136021 0.1529819 0.0869581
0.4461923 0.1564251 0.0955730
0.4791643 0.1599920 0.1036292
0.5122323 0.1639575 0.1118735
0.5455578 0.1681157 0.1197998
0.5792811 0.1722339 0.1269169
0.6133097 0.1763354 0.1334241
0.6475919 0.1804032 0.1393831
0.6820836 0.1844145 0.1448247
0.7167429 0.1883467 0.1497683
0.7515283 0.1921805 0.1542305
0.7863967 0.1959019 0.1582324
0.8213000 0.1995097 0.1618111
0.8561687 0.2030470 0.1650739
0.8910535 0.2063423 0.1677666
0.9259880 0.2092363 0.1696621
0.9609416 0.2116815 0.1707193
0.9958836 0.2136285 0.1708890
0.9999963 0.2763257 0.2217580
0.9999228 0.3331077 0.2710872
0.0000061 0.1396681 0.0812551
0.0000365 0.1443851 0.0763098
0.0189933 0.1467555 0.0743932
0.0533678 0.1490491 0.0736186
0.0874422 0.1524425 0.0718906
0.1220740 0.1570467 0.0684747
0.1596241 0.1623807 0.0631248
0.1998986 0.1672750 0.0572740
0.2404595 0.1708243 0.0537261
0.2792182 0.1731380 0.0542765
0.3157350 0.1748588 0.0586113
0.3505349 0.1765427 0.0653990
0.3842764 0.1784841 0.0734939
0.4174582 0.1807975 0.0822006
0.4503969 0.1835070 0.0911578
0.4833987 0.1864835 0.0998739
0.5165949 0.1896478 0.1081535
0.5500891 0.1928949 0.1156725
0.5838474 0.1962145 0.1225725
0.6178408 0.1995846 0.1289259
0.6520427 0.2029756 0.1347633
0.6864237 0.2063583 0.1401026
0.7209515 0.2097058 0.1449571
0.7555903 0.2129961 0.1493418
0.7903004 0.2162140 0.1532796
0.8250330 0.2193615 0.1568208
0.8597323 0.2224568 0.1600408
0.8944891 0.2252742 0.1625504
0.9292943 0.2277344 0.1642484
0.9641178 0.2297901 0.1650901
0.9989299 0.2313922 0.1650224
0.9999352 0.2945333 0.2230846
0.9999500 0.3475536 0.2731218
0.0000001 0.1707121 0.0975179
0.0000248 0.1747124 0.0927875
0.0191505 0.1767273 0.0911339
0.0538456 0.1785724 0.0907430
0.0873018 0.1812253 0.0898142
0.1199085 0.1848471 0.0878182
0.1539021 0.1894365 0.0841077
0.1907017 0.1945711 0.0784511
0.2302259 0.1993904 0.0718451
0.2707771 0.2031489 0.0665208
0.3104513 0.2057556 0.0645276
0.3483548 0.2076286 0.0664234
0.3845381 0.2092586 0.0714667
0.4194414 0.2109870 0.0785358
0.4535145 0.2129885 0.0867510
0.4871242 0.2153133 0.0954752
0.5208699 0.2176553 0.1032263
0.5547473 0.2200692 0.1102572
0.5887102 0.2226175 0.1168479
0.6227889 0.2252683 0.1229862
0.6569936 0.2279873 0.1286636
0.6913190 0.2307418 0.1338769
0.7257490 0.2335026 0.1386287
0.7602588 0.2362459 0.1429299
0.7948149 0.2389570 0.1468075
0.8293623 0.2416519 0.1503507
0.8639152 0.2442490 0.1534252
0.8985384 0.2465768 0.1557081
0.9332045 0.2485892 0.1571579
0.9678852 0.2502392 0.1577250
0.9999137 0.2564378 0.1628825
0.9999182 0.3151030 0.2247225
0.9999915 0.3643145 0.2756763
0.0000682 0.2026055 0.1132589
0.0000350 0.2060751 0.1086535
0.0227294 0.2074556 0.1079482
0.0572666 0.2090110 0.1077988
0.0898626 0.2111997 0.1073482
0.1212797 0.2141455 0.1062619
0.1531113 0.2179376 0.1040310
0.1866582 0.2225130 0.1000955
0.2228608 0.2275036 0.0942478
0.2616958 0.2322502 0.0871969
0.3019695 0.2361433 0.0806780
0.3420793 0.2389992 0.0766442
0.3809548 0.2410622 0.0761752
0.4182918 0.2427291 0.0791688
0.4542950 0.2443285 0.0847210
0.4895235 0.2459228 0.0911338
0.5242980 0.2475810 0.0976961
0.5589175 0.2492610 0.1038347
0.5933776 0.2510756 0.1098011
0.6277590 0.2530240 0.1155216
0.6621252 0.2550773 0.1209098
0.6965091 0.2572046 0.1259161
0.7309215 0.2593771 0.1305166
0.7653558 0.2615714 0.1347103
0.7997877 0.2637775 0.1385325
0.8341792 0.2659993 0.1420510
0.8686252 0.2680611 0.1448629
0.9031248 0.2698925 0.1468601
0.9376548 0.2714477 0.1479938
0.9721903 0.2726806 0.1482066
0.9999629 0.2848998 0.1627030
0.9999233 0.3376757 0.2267693
0.9999335 0.3832640 0.2789678
0.0000047 0.2352608 0.1283890
0.0043391 0.2378860 0.1248038
0.0305640 0.2388045 0.1248634
0.0637436 0.2401534 0.1248755
0.0948679 0.2420246 0.1247266
0.1251604 0.2445078 0.1242041
0.1555707 0.2476892 0.1229631
0.1869440 0.2516072 0.1205302
0.2201515 0.2561658 0.1164246
0.2558564 0.2610443 0.1104649
0.2940646 0.2657218 0.1031687
0.3339227 0.2696968 0.0958830
0.3741281 0.2727508 0.0903292
0.4136331 0.2749884 0.0877010
0.4521205 0.2765986 0.0876484
0.4895111 0.2778673 0.0897599
0.5259953 0.2790023 0.0932694
0.5618391 0.2801069 0.0974266
0.5972082 0.2812702 0.1019926
0.6322173 0.2825581 0.1067692
0.6669954 0.2839642 0.1115180
0.7016273 0.2854702 0.1160879
0.7361627 0.2870543 0.1203919
0.7706219 0.2886991 0.1243992
0.8049879 0.2904114 0.1281766
0.8393378 0.2920803 0.1314198
0.8737222 0.2936010 0.1338773
0.9081298 0.2949282 0.1354931
0.9425445 0.2960166 0.1362053
0.9769473 0.2968208 0.1359419
0.9999932 0.3144234 0.1627642
0.9999078 0.3619294 0.2293647
0.9999402 0.4039258 0.2828368
0.0000748 0.2685622 0.1426487
0.0166307 0.2698526 0.1417737
0.0433125 0.2706693 0.1418976
0.0730899 0.2718604 0.1420219
0.1021937 0.2734973 0.1420733
0.1311488 0.2756467 0.1419125
0.1603367 0.2783779 0.1413085
0.1901903 0.2817461 0.1399201
0.2212661 0.2857542 0.1373158
0.2541952 0.2902903 0.1330845
0.2894667 0.2950745 0.1270702
0.3271001 0.2996841 0.1196613
0.3665397 0.3036791 0.1117497
0.4069154 0.3067536 0.1042345
0.4471728 0.3089321 0.0983410
0.4866643 0.3104115 0.0946836
0.5251645 0.3114310 0.0932200
0.5627330 0.3121885 0.0934375
0.5994995 0.3128484 0.0949136
0.6355340 0.3135786 0.0976378
0.6710567 0.3143942 0.1009511
0.7062040 0.3153074 0.1045327
0.7410702 0.3163165 0.1081757
0.7757015 0.3174268 0.1118126
0.8101777 0.3185839 0.1151962
0.8446101 0.3196699 0.1178943
0.8790124 0.3206412 0.1198144
0.9133880 0.3214537 0.1208698
0.9477320 0.3220630 0.1209705
0.9820339 0.3224248 0.1200158
0.9999238 0.3447829 0.1633485
0.9999915 0.3873800 0.2323707
0.9999587 0.4260865 0.2874124
0.0138984 0.3014364 0.1578204
0.0373496 0.3021079 0.1581746
0.0605143 0.3028733 0.1585433
0.0854386 0.3039813 0.1590097
0.1116319 0.3054796 0.1594600
0.1390143 0.3073744 0.1595403
0.1669455 0.3097644 0.1593542
0.1955372 0.3127005 0.1586623
0.2250586 0.3162134 0.1571368
0.2559214 0.3202818 0.1543896
0.2886159 0.3247856 0.1500534
0.3236830 0.3294315 0.1436756
0.3611462 0.3338503 0.1354169
0.4005265 0.3376746 0.1259629
0.4409865 0.3406650 0.1163370
0.4816346 0.3427814 0.1075861
0.5218072 0.3441465 0.1004409
0.5611688 0.3449539 0.0951397
0.5996489 0.3453842 0.0914990
0.6371048 0.3457293 0.0901707
0.6737240 0.3460824 0.0905561
0.7097008 0.3464813 0.0920085
0.7451536 0.3469681 0.0942085
0.7802077 0.3475353 0.0967676
0.8150384 0.3480865 0.0990064
0.8497047 0.3485883 0.1007067
0.8842453 0.3490027 0.1016927
0.9186836 0.3492889 0.1018094
0.9530306 0.3494049 0.1009050
0.9872884 0.3493079 0.0988145
0.9999917 0.3754104 0.1639603
0.9999916 0.4139390 0.2361615
0.9999158 0.4495456 0.2928555
0.0398669 0.3341367 0.1746569
0.0604531 0.3347403 0.1749919
0.0788423 0.3354270 0.1753471
0.1003138 0.3364187 0.1758104
0.1239408 0.3377637 0.1763430
0.1490109 0.3395016 0.1768643
0.1751497 0.3416729 0.1772454
0.2024989 0.3442724 0.1770522
0.2308545 0.3473561 0.1761405
0.2603871 0.3509316 0.1741734
0.2914072 0.3549550 0.1707681
0.3242951 0.3592974 0.1655519
0.3593515 0.3637267 0.1582971
0.3966158 0.3679285 0.1490700
0.4357515 0.3715825 0.1383146
0.4761011 0.3744604 0.1267882
0.5168968 0.3764879 0.1153538
0.5574894 0.3777337 0.1047279
0.5974714 0.3783477 0.0953012
0.6365645 0.3785557 0.0876446
0.6745146 0.3786670 0.0830668
0.7115897 0.3787128 0.0805151
0.7479345 0.3787553 0.0795178
0.7837612 0.3787647 0.0791715
0.8191790 0.3787427 0.0790166
0.8542755 0.3786741 0.0786583
0.8891169 0.3785328 0.0777573
0.9237505 0.3782858 0.0760072
0.9582077 0.3778960 0.0731029
0.9925071 0.3773241 0.0686988
0.9999674 0.4063914 0.1652040
0.9999775 0.4412506 0.2406630
0.9999129 0.4739504 0.2990523
0.0661726 0.3671327 0.1918891
0.0820098 0.3676742 0.1921755
0.0973217 0.3682888 0.1924745
0.1161544 0.3691732 0.1928567
0.1376943 0.3703673 0.1932828
0.1611769 0.3719013 0.1936781
0.1861082 0.3738051 0.1939282
0.2122119 0.3761072 0.1938694
0.2393845 0.3788317 0.1932771
0.2677506 0.3819737 0.1917819
0.2973554 0.3855395 0.1891429
0.3284289 0.3894795 0.1850241
0.3612909 0.3936652 0.1790623
0.3961903 0.3978863 0.1710084
0.4331707 0.4018699 0.1608373
0.4719791 0.4053359 0.1488141
0.5120895 0.4080718 0.1354615
0.5528434 0.4099844 0.1214223
0.5936272 0.4111034 0.1072761
0.6339920 0.4115436 0.0933886
0.6732289 0.4117095 0.0824320
0.7115605 0.4116079 0.0735141
0.7491065 0.4113036 0.0661288
0.7859516 0.4108712 0.0599468
0.8221985 0.4103509 0.0545055
0.8579474 0.4097560 0.0492496
0.8932850 0.4090812 0.0435504
0.9282812 0.4083076 0.0367045
0.9629890 0.4074081 0.0285527
0.9974464 0.4063499 0.0187813
0.9999368 0.4374364 0.1668685
0.9999909 0.4690387 0.2458037
0.9999308 0.4990868 0.3060410
0.0928080 0.4001765 0.2080313
0.1055579 0.4006569 0.2082244
0.1184756 0.4012019 0.2084255
0.1349656 0.4019857 0.2086806
0.1544269 0.4030427 0.2089604
0.1761607 0.4043984 0.2092087
0.1996369 0.4060778 0.2093400
0.2244982 0.4081047 0.2092311
0.2505385 0.4105004 0.2087120
0.2776832 0.4132796 0.2075577
0.3059753 0.4164435 0.2054826
0.3355367 0.4199713 0.2021888
0.3665432 0.4238085 0.1973904
0.3992782 0.4278270 0.1906912
0.4339458 0.4318358 0.1818214
0.4705863 0.4355951 0.1706779
0.5090030 0.4388590 0.1573741
0.5487675 0.4414323 0.1422192
0.5893107 0.4432154 0.1256238
0.6300457 0.4442214 0.1079945
0.6702211 0.4446831 0.0911181
0.7097326 0.4446557 0.0747235
0.7485030 0.4442401 0.0584877
0.7864974 0.4435464 0.0420616
0.8237604 0.4426586 0.0259152
0.8603672 0.4416269 0.0117338
0.8962046 0.4406330 0.0006247
0.9304741 0.4404532 0.0004040
0.9642535 0.4403327 0.0004844
0.9976143 0.4402458 0.0002427
0.9999525 0.4683405 0.1687152
0.9999577 0.4971553 0.2517016
0.9999304 0.5247670 0.3138704
0.1198963 0.4331964 0.2230275
0.1304246 0.4336248 0.2231581
0.1414202 0.4341104 0.2232923
0.1558468 0.4348084 0.2234592
0.1733168 0.4357487 0.2236347
0.1932571 0.4369532 0.2237748
0.2151688 0.4384428 0.2238129
0.2386677 0.4402375 0.2236539
0.2634886 0.4423557 0.2231669
0.2894777 0.4448124 0.2221774
0.3165836 0.4476145 0.2204611
0.3448498 0.4507546 0.2177399
0.3744025 0.4542001 0.2136886
0.4054271 0.4578813 0.2079565
0.4380174 0.4617083 0.2004080
0.4723893 0.4655008 0.1906953
0.5086308 0.4690342 0.1785537
0.5465764 0.4720949 0.1639820
0.5858665 0.4745083 0.1471136
0.6260698 0.4761479 0.1279705
0.6663913 0.4771214 0.1077954
0.7065764 0.4774173 0.0859164
0.7462980 0.4771438 0.0616561
0.7853637 0.4764200 0.0328555
0.8236916 0.4753522 0.0046204
0.8594390 0.4752563 0.0004614
0.8942807 0.4752858 0.0004459
0.9285807 0.4752729 0.0006666
0.9624101 0.4752163 0.0005648
0.9957368 0.4751831 0.0006532
0.9999578 0.4990142 0.1707414
0.9999633 0.5253360 0.2581000
0.9999505 0.5507563 0.3224249
0.1469635 0.4661573 0.2370956
0.1558683 0.4665401 0.2371779
0.1653555 0.4669737 0.2372602
0.1780501 0.4675967 0.2373580
0.1937333 0.4684352 0.2374507
0.2119655 0.4695083 0.2375029
0.2323143 0.4708338 0.2374614
0.2544086 0.4724287 0.2372511
0.2779605 0.4743089 0.2367691
0.3027697 0.4764880 0.2358790
0.3287211 0.4789753 0.2344038
0.3557816 0.4817715 0.2321212
0.3839941 0.4848626 0.2287621
0.4134675 0.4882116 0.2240173
0.4443549 0.4917490 0.2175579
0.4768122 0.4953669 0.2090738
0.5109345 0.4989219 0.1983412
0.5467980 0.5022141 0.1850793
0.5842876 0.5050478 0.1691502
0.6230971 0.5072663 0.1505396
0.6628009 0.5087734 0.1291996
0.7029315 0.5095458 0.1048091
0.7430594 0.5096256 0.0762025
0.7828479 0.5090988 0.0391767
0.8217643 0.5082397 0.0006405
0.8572877 0.5086288 0.0006337
0.8922535 0.5088619 0.0005652
0.9266583 0.5089894 0.0006069
0.9605294 0.5090401 0.0006189
0.9938628 0.5090614 0.0008398
0.9999672 0.5293123 0.1726504
0.9999885 0.5534256 0.2649030
0.9999235 0.5769105 0.3317440
0.1738538 0.4990131 0.2503359
0.1815327 0.4993554 0.2503798
0.1898255 0.4997430 0.2504208
0.2010805 0.5002997 0.2504632
0.2152000 0.5010486 0.2504892
0.2318620 0.5020063 0.2504694
0.2507109 0.5031882 0.2503606
0.2714114 0.5046091 0.2501026
0.2936786 0.5062825 0.2496135
0.3172910 0.5082210 0.2487854
0.3420943 0.5104341 0.2474787
0.3680013 0.5129267 0.2455175
0.3949896 0.5156950 0.2426869
0.4230935 0.5187224 0.2387381
0.4524072 0.5219698 0.2333815
0.4831260 0.5253519 0.2262090
0.5153950 0.5287594 0.2168711
0.5493151 0.5320500 0.2050470
0.5848965 0.5350578 0.1904618
0.6220211 0.5376147 0.1728808
0.6604333 0.5395765 0.1520413
0.6997690 0.5408480 0.1274600
0.7396137 0.5413945 0.0979197
0.7795670 0.5412396 0.0596063
0.8192942 0.5404497 0.0047908
0.8551587 0.5409286 0.0004722
0.8901647 0.5413902 0.0007934
0.9246860 0.5416587 0.0001386
0.9585615 0.5418585 0.0007657
0.9919289 0.5419449 0.0008817
0.9999989 0.5591086 0.1740492
0.9999303 0.5813356 0.2721967
0.9999650 0.6029802 0.3414972
0.2004265 0.5317190 0.2628363
0.2071513 0.5320252 0.2628504
0.2144831 0.5323721 0.2628593
0.2245379 0.5328701 0.2628588
0.2373009 0.5335398 0.2628333
0.2525444 0.5343959 0.2627583
0.2699857 0.5354519 0.2625987
0.2893345 0.5367208 0.2623063
0.3103231 0.5382148 0.2618169
0.3327236 0.5399458 0.2610484
0.3563547 0.5419247 0.2598982
0.3811322 0.5441516 0.2581900
0.4070047 0.5466234 0.2557280
0.4339682 0.5493290 0.2522826
0.4620704 0.5522423 0.2475816
0.4914033 0.5553168 0.2413134
0.5220858 0.5584799 0.2331360
0.5542379 0.5616291 0.2226909
0.5879434 0.5646336 0.2096173
0.6232104 0.5673437 0.1935530
0.6599400 0.5696073 0.1740963
0.6979169 0.5712919 0.1506749
0.7368287 0.5723042 0.1221784
0.7763083 0.5726018 0.0857436
0.8159868 0.5721938 0.0299808
0.8531719 0.5722577 0.0003067
0.8881615 0.5728898 0.0003200
0.9226435 0.5733470 0.0001296
0.9565502 0.5736703 0.0004533
0.9899369 0.5738422 0.0003702
0.9999455 0.5883821 0.1750353
0.9999600 0.6088220 0.2793879
0.9999250 0.6289017 0.3518506
0.2264049 0.5642454 0.2747634
0.2323654 0.5645203 0.2747589
0.2389101 0.5648315 0.2747472
0.2479575 0.5652779 0.2747184
0.2595503 0.5658777 0.2746568
0.2735364 0.5666435 0.2745393
0.2897007 0.5675865 0.2743332
0.3078035 0.5687174 0.2739938
0.3276099 0.5700456 0.2734618
0.3489093 0.5715797 0.2726602
0.3715265 0.5733268 0.2714898
0.3953284 0.5752912 0.2698253
0.4202268 0.5774737 0.2675102
0.4461800 0.5798682 0.2643523
0.4731920 0.5824594 0.2601195
0.5013098 0.5852177 0.2545384
0.5306157 0.5880950 0.2472946
0.5612130 0.5910197 0.2380374
0.5932034 0.5938950 0.2263844
0.6266565 0.5966005 0.2119211
0.6615783 0.5990001 0.1941759
0.6978849 0.6009555 0.1725353
0.7353933 0.6023444 0.1460017
0.7738337 0.6030765 0.1124513
0.8128815 0.6031043 0.0653612
0.8515180 0.6027128 0.0005755
0.8862895 0.6034890 0.0008888
0.9206262 0.6040989 0.0009513
0.9545309 0.6045118 0.0000094
0.9878441 0.6048034 0.0002302
0.9999899 0.6169599 0.1745617
0.9999505 0.6358620 0.2866497
0.9999531 0.6544572 0.3623829
0.2521415 0.5965027 0.2859033
0.2575083 0.5967456 0.2858618
0.2634309 0.5970204 0.2858093
0.2716662 0.5974146 0.2857237
0.2822930 0.5979440 0.2855895
0.2952129 0.5986195 0.2853854
0.3102631 0.5994511 0.2850823
0.3272463 0.6004475 0.2846416
0.3459571 0.6016170 0.2840123
0.3662000 0.6029669 0.2831290
0.3878031 0.6045031 0.2819082
0.4106248 0.6062300 0.2802447
0.4345593 0.6081491 0.2780073
0.4595384 0.6102576 0.2750343
0.4855331 0.6125460 0.2711287
0.5125528 0.6149955 0.2660543
0.5406428 0.6175741 0.2595326
0.5698767 0.6202324 0.2512408
0.6003441 0.6229008 0.2408108
0.6321315 0.6254877 0.2278238
0.6652969 0.6278818 0.2117911
0.6998440 0.6299587 0.1920958
0.7357008 0.6315922 0.1678340
0.7727102 0.6326690 0.1373591
0.8106380 0.6331021 0.0966460
0.8491971 0.6328409 0.0281744
0.8848864 0.6331974 0.0001667
0.9189208 0.6339059 0.0004986
0.9525684 0.6344478 0.0003095
0.9857418 0.6348309 0.0003108
0.9999458 0.6449243 0.1733531
0.9999263 0.6623675 0.2938654
0.9999766 0.6795875 0.3731631
0.2781792 0.6283718 0.2958411
0.2830395 0.6285851 0.2957664
0.2884246 0.6288265 0.2956773
0.2959477 0.6291727 0.2955407
0.3057110 0.6296375 0.2953406
0.3176582 0.6302304 0.2950574
0.3316696 0.6309598 0.2946647
0.3475868 0.6318334 0.2941281
0.3652343 0.6328582 0.2934033
0.3844363 0.6340402 0.2924337
0.4050296 0.6353846 0.2911480
0.4268722 0.6368953 0.2894565
0.4498489 0.6385741 0.2872480
0.4738747 0.6404198 0.2843853
0.4988969 0.6424266 0.2807006
0.5248959 0.6445823 0.2759908
0.5518847 0.6468650 0.2700128
0.5799060 0.6492410 0.2624785
0.6090257 0.6516605 0.2530499
0.6393217 0.6540559 0.2413305
0.6708674 0.6563408 0.2268473
0.7037113 0.6584118 0.2090080
0.7378551 0.6601545 0.1869913
0.7732359 0.6614535 0.1594574
0.8097179 0.6622032 0.1236420
0.8470968 0.6623206 0.0710543
0.8840416 0.6621467 0.0000429
0.9176264 0.6628792 0.0000737
0.9508461 0.6635057 0.0010798
0.9837750 0.6639414 0.0001791
0.9999692 0.6722100 0.1707445
0.9999890 0.6882546 0.3007830
0.9999900 0.7042205 0.3842101
0.3043672 0.6598007 0.3045602
0.3087926 0.6599868 0.3044557
0.3137113 0.6601974 0.3043334
0.3206085 0.6604993 0.3041505
0.3296017 0.6609046 0.3038905
0.3406659 0.6614214 0.3035347
0.3537169 0.6620570 0.3030587
0.3686304 0.6628178 0.3024316
0.3852590 0.6637098 0.3016141
0.4034482 0.6647381 0.3005566
0.4230476 0.6659071 0.2991969
0.4439198 0.6672200 0.2974579
0.4659468 0.6686788 0.2952439
0.4890339 0.6702829 0.2924373
0.5131124 0.6720288 0.2888941
0.5381415 0.6739082 0.2844394
0.5641086 0.6759062 0.2788618
0.5910291 0.6779991 0.2719074
0.6189427 0.6801516 0.2632732
0.6479083 0.6823141 0.2525965
0.6779934 0.6844212 0.2394375
0.7092608 0.6863912 0.2232447
0.7417507 0.6881278 0.2032747
0.7754630 0.6895258 0.1783984
0.8103424 0.6904785 0.1465542
0.8462700 0.6908879 0.1027072
0.8830668 0.6906745 0.0233686
0.9168866 0.6910955 0.0002419
0.9496039 0.6917098 0.0006657
0.9820546 0.6921917 0.0005254
0.9999721 0.6989021 0.1676532
0.9999698 0.7136063 0.3081476
0.9999923 0.7283204 0.3956327
0.3305705 0.6907395 0.3120432
0.3346194 0.6909004 0.3119116
0.3391310 0.6910825 0.3117592
0.3454768 0.6913435 0.3115339
0.3537830 0.6916938 0.3112190
0.3640479 0.6921403 0.3107962
0.3762158 0.6926893 0.3102427
0.3901911 0.6933462 0.3095302
0.4058526 0.6941159 0.3086233
0.4230666 0.6950028 0.3074778
0.4416974 0.6960105 0.3060390
0.4616157 0.6971418 0.3042392
0.4827054 0.6983982 0.3019953
0.5048674 0.6997798 0.2992052
0.5280233 0.7012841 0.2957444
0.5521174 0.7029055 0.2914610
0.5771181 0.7046334 0.2861709
0.6030180 0.7064509 0.2796513
0.6298335 0.7083326 0.2716331
0.6576017 0.7102423 0.2617901
0.6863747 0.7121311 0.2497223
0.7162114 0.7139357 0.2349260
0.7471653 0.7155787 0.2167320
0.7792697 0.7169705 0.1941673
0.8125230 0.7180136 0.1656000
0.8468755 0.7186094 0.1276045
0.8822230 0.7186663 0.0690697
0.9168530 0.7186021 0.0002598
0.9489218 0.7191468 0.0000496
0.9807385 0.7196216 0.0010835
0.9999728 0.7250371 0.1648728
0.9999439 0.7384019 0.3161309
0.9999854 0.7518752 0.4076492
0.3566642 0.7211402 0.3182721
0.3603850 0.7212778 0.3181157
0.3645395 0.7214334 0.3179356
0.3703975 0.7216564 0.3176715
0.3780896 0.7219558 0.3173059
0.3876316 0.7223372 0.3168210
0.3989899 0.7228060 0.3161950
0.4120930 0.7233668 0.3154018
0.4268429 0.7240235 0.3144089
0.4431254 0.7247798 0.3131764
0.4608202 0.7256387 0.3116554
0.4798082 0.7266023 0.3097859
0.4999779 0.7276721 0.3074947
0.5212304 0.7288481 0.3046922
0.5434819 0.7301286 0.3012692
0.5666671 0.7315094 0.2970931
0.5907407 0.7329830 0.2920024
0.6156780 0.7345370 0.2858011
0.6414758 0.7361528 0.2782507
0.6681505 0.7378037 0.2690599
0.6957364 0.7394530 0.2578686
0.7242798 0.7410525 0.2442213
0.7538320 0.7425413 0.2275174
0.7844385 0.7438462 0.2069069
0.8161267 0.7448834 0.1810426
0.8488936 0.7455622 0.1473756
0.8826944 0.7457911 0.0993257
0.9174365 0.7454847 0.0046819
0.9488450 0.7458811 0.0003824
0.9799671 0.7462691 0.0010100
0.9999890 0.7506452 0.1635408
0.9999763 0.7626392 0.3250072
0.9999687 0.7748865 0.4205939
0.3825316 0.7509565 0.3232285
0.3859644 0.7510723 0.3230492
0.3898038 0.7512034 0.3228436
