LumaGrade-Vercel/public/luts/fuji-classic-chrome.cube
TITLE "FUJI Classic Chrome Reference"
LUT_3D_SIZE 33
DOMAIN_MIN 0.0 0.0 0.0
DOMAIN_MAX 1.0 1.0 1.0
0.0031414 0.0062307 0.0122439
0.0230537 0.0082504 0.0142556
0.0462962 0.0103287 0.0161933
0.0723697 0.0131165 0.0186624
0.0991734 0.0167065 0.0216731
0.1266649 0.0211760 0.0252250
0.1547830 0.0266071 0.0293273
0.1834644 0.0330828 0.0339968
0.2126469 0.0406806 0.0392560
0.2422695 0.0488213 0.0449067
0.2722729 0.0571655 0.0506875
0.3025985 0.0656829 0.0565955
0.3331890 0.0743473 0.0626209
0.3639876 0.0831350 0.0687556
0.3949381 0.0920244 0.0749921
0.4259847 0.1009951 0.0813230
0.4570721 0.1100276 0.0877406
0.4881453 0.1191031 0.0942366
0.5191497 0.1282032 0.1008018
0.5500313 0.1373091 0.1074248
0.5807406 0.1463955 0.1140784
0.6112250 0.1554429 0.1207465
0.6414305 0.1644334 0.1274167
0.6713031 0.1733495 0.1340759
0.7007893 0.1821736 0.1407107
0.7298353 0.1908882 0.1473068
0.7583878 0.1994756 0.1538496
0.7863933 0.2079184 0.1603241
0.8137985 0.2161990 0.1667145
0.8405502 0.2242997 0.1730050
0.8665952 0.2322030 0.1791792
0.8918804 0.2398911 0.1852203
0.9163529 0.2473464 0.1911112
0.0037163 0.0312719 0.0186544
0.0239097 0.0334982 0.0191125
0.0477593 0.0353926 0.0206270
0.0732572 0.0382787 0.0234427
0.0998484 0.0418879 0.0262522
0.1273032 0.0460350 0.0294679
0.1553949 0.0507633 0.0332722
0.1840407 0.0560503 0.0376970
0.2131818 0.0618511 0.0426824
0.2427618 0.0681144 0.0479248
0.2727238 0.0747885 0.0533776
0.3030108 0.0818237 0.0590134
0.3335661 0.0891736 0.0648108
0.3643327 0.0967953 0.0707530
0.3952545 0.1046492 0.0768255
0.4262754 0.1126989 0.0830157
0.4573397 0.1209106 0.0893117
0.4883924 0.1292531 0.0957018
0.5193783 0.1376970 0.1021744
0.5502437 0.1462135 0.1087143
0.5809391 0.1547697 0.1152926
0.6114108 0.1633397 0.1218939
0.6416049 0.1718994 0.1285043
0.6714672 0.1804260 0.1351101
0.7009441 0.1888972 0.1416967
0.7299817 0.1972914 0.1482494
0.7585265 0.2055877 0.1547530
0.7865250 0.2137655 0.1611918
0.8139238 0.2218045 0.1675499
0.8406697 0.2296849 0.1738110
0.8667095 0.2373871 0.1799584
0.8919899 0.2448916 0.1859751
0.9164581 0.2521789 0.1918431
0.0058495 0.0571850 0.0245070
0.0261656 0.0588712 0.0253102
0.0495671 0.0605829 0.0251572
0.0757388 0.0624069 0.0264964
0.1018457 0.0649739 0.0299778
0.1285089 0.0683030 0.0338893
0.1562127 0.0720669 0.0377683
0.1847024 0.0762532 0.0419784
0.2137633 0.0809058 0.0464994
0.2432888 0.0860254 0.0513258
0.2732066 0.0915904 0.0564248
0.3034547 0.0975688 0.0617613
0.3339746 0.1039239 0.0673054
0.3647091 0.1106173 0.0730319
0.3956016 0.1176105 0.0789199
0.4265959 0.1248657 0.0849510
0.4576362 0.1323466 0.0911091
0.4886670 0.1400182 0.0973789
0.5196332 0.1478474 0.1037460
0.5504814 0.1558002 0.1101906
0.5811617 0.1638404 0.1166833
0.6116197 0.1719386 0.1232082
0.6418014 0.1800668 0.1297505
0.6716524 0.1881985 0.1362951
0.7011190 0.1963084 0.1428267
0.7301472 0.2043717 0.1493297
0.7586835 0.2123647 0.1557884
0.7866742 0.2202645 0.1621865
0.8140660 0.2280486 0.1685077
0.8408054 0.2356952 0.1747351
0.8668392 0.2431828 0.1808518
0.8921142 0.2504905 0.1868406
0.9165778 0.2575971 0.1926817
0.0099218 0.0839936 0.0318194
0.0306048 0.0851717 0.0327484
0.0529746 0.0865423 0.0329578
0.0779269 0.0882020 0.0325619
0.1044984 0.0899437 0.0338265
0.1313054 0.0922161 0.0375388
0.1582866 0.0952639 0.0424883
0.1860771 0.0988272 0.0471305
0.2147578 0.1027286 0.0514934
0.2440917 0.1069859 0.0559446
0.2738989 0.1116338 0.0606394
0.3040728 0.1166775 0.0656000
0.3345363 0.1221045 0.0708105
0.3652242 0.1278924 0.0762457
0.3960764 0.1340132 0.0818805
0.4270350 0.1404359 0.0876913
0.4580433 0.1471282 0.0936571
0.4890451 0.1540569 0.0997585
0.5199850 0.1611894 0.1059773
0.5508107 0.1684899 0.1122867
0.5814707 0.1759224 0.1186585
0.6119103 0.1834559 0.1250756
0.6420751 0.1910603 0.1315215
0.6719108 0.1987067 0.1379796
0.7013634 0.2063673 0.1444333
0.7303789 0.2140150 0.1508660
0.7589035 0.2216238 0.1572610
0.7868835 0.2291685 0.1636014
0.8142655 0.2366247 0.1698701
0.8409960 0.2439686 0.1760497
0.8670217 0.2511769 0.1821229
0.8922892 0.2582271 0.1880720
0.9167466 0.2650955 0.1938739
0.0164006 0.1115134 0.0407754
0.0373836 0.1123850 0.0416950
0.0584932 0.1134271 0.0422147
0.0816624 0.1148626 0.0421332
0.1070560 0.1165092 0.0414863
0.1340290 0.1182070 0.0425771
0.1614310 0.1202933 0.0461316
0.1888693 0.1230772 0.0513165
0.2168183 0.1264425 0.0565161
0.2455513 0.1301777 0.0613140
0.2750088 0.1341931 0.0658919
0.3049821 0.1385161 0.0705499
0.3353201 0.1431719 0.0754134
0.3659214 0.1481649 0.0805105
0.3967083 0.1534861 0.0858343
0.4276142 0.1591178 0.0913658
0.4585779 0.1650370 0.0970830
0.4895410 0.1712175 0.1029638
0.5204468 0.1776307 0.1089859
0.5512436 0.1842426 0.1151148
0.5818775 0.1910214 0.1213256
0.6122934 0.1979367 0.1275988
0.6424366 0.2049585 0.1339155
0.6722526 0.2120573 0.1402575
0.7016872 0.2192044 0.1466065
0.7306861 0.2263716 0.1529446
0.7591956 0.2335315 0.1592539
0.7871619 0.2406574 0.1655164
0.8145312 0.2477235 0.1717143
0.8412500 0.2547045 0.1778296
0.8672649 0.2615756 0.1838440
0.8925227 0.2683130 0.1897395
0.9169724 0.2748900 0.1954864
0.0256901 0.1396934 0.0505877
0.0465147 0.1403684 0.0513798
0.0656873 0.1411761 0.0519797
0.0872518 0.1423394 0.0522934
0.1110134 0.1438321 0.0519376
0.1368674 0.1454755 0.0511136
0.1642374 0.1471502 0.0518790
0.1921233 0.1491213 0.0551415
0.2200511 0.1516833 0.0602830
0.2482428 0.1548446 0.0659042
0.2770284 0.1584274 0.0712138
0.3064862 0.1622932 0.0761495
0.3365062 0.1663996 0.0809221
0.3669088 0.1707733 0.0857708
0.3975637 0.1754313 0.0907960
0.4283757 0.1803758 0.0960253
0.4592681 0.1855986 0.1014560
0.4901740 0.1910842 0.1070730
0.5210335 0.1968110 0.1128509
0.5517916 0.2027516 0.1187556
0.5823916 0.2088798 0.1247644
0.6127773 0.2151685 0.1308558
0.6428933 0.2215899 0.1370086
0.6726846 0.2281158 0.1432026
0.7020967 0.2347182 0.1494177
0.7310752 0.2413693 0.1556345
0.7595659 0.2480416 0.1618338
0.7875150 0.2547079 0.1679963
0.8148685 0.2613418 0.1741031
0.8415728 0.2679171 0.1801353
0.8675745 0.2744084 0.1860741
0.8928200 0.2807908 0.1919004
0.9172609 0.2870342 0.1975731
0.0381580 0.1684819 0.0607519
0.0571210 0.1690234 0.0614347
0.0743383 0.1696677 0.0620300
0.0943183 0.1706080 0.0625349
0.1166230 0.1718760 0.0626334
0.1409806 0.1734125 0.0620383
0.1672848 0.1750593 0.0610669
0.1950277 0.1767242 0.0615327
0.2233123 0.1786236 0.0645860
0.2517038 0.1810087 0.0695015
0.2801849 0.1839732 0.0753689
0.3090597 0.1873954 0.0811455
0.3384813 0.1911327 0.0865395
0.3684379 0.1950960 0.0916105
0.3988030 0.1992686 0.0965637
0.4294223 0.2036716 0.1015868
0.4601807 0.2083159 0.1067598
0.4909889 0.2132006 0.1121062
0.5217761 0.2183139 0.1176126
0.5524767 0.2236398 0.1232618
0.5830290 0.2291590 0.1290344
0.6133741 0.2348497 0.1349092
0.6434548 0.2406880 0.1408645
0.6732148 0.2466488 0.1468787
0.7025989 0.2527064 0.1529302
0.7315521 0.2588344 0.1589980
0.7600199 0.2650066 0.1650616
0.7879480 0.2711964 0.1711004
0.8152823 0.2773776 0.1770945
0.8419692 0.2835244 0.1830237
0.8679547 0.2896111 0.1888683
0.8931859 0.2956118 0.1946063
0.9176170 0.3014936 0.2001837
0.0527737 0.1978264 0.0712398
0.0688804 0.1982726 0.0718336
0.0842524 0.1988005 0.0723944
0.1026474 0.1995724 0.0729708
0.1235686 0.2006338 0.0733497
0.1465804 0.2019862 0.0732348
0.1715074 0.2035586 0.0724366
0.1982370 0.2052128 0.0713471
0.2263172 0.2068768 0.0715783
0.2549335 0.2087312 0.0744795
0.2837362 0.2109792 0.0790551
0.3125168 0.2137635 0.0849988
0.3415107 0.2170201 0.0911432
0.3709019 0.2206226 0.0969908
0.4007381 0.2244684 0.1024682
0.4309668 0.2284990 0.1076719
0.4614592 0.2327102 0.1127886
0.4920851 0.2371148 0.1179546
0.5227421 0.2417167 0.1232276
0.5533458 0.2465123 0.1286277
0.5838231 0.2514916 0.1341530
0.6141080 0.2566399 0.1397911
0.6441389 0.2619391 0.1455241
0.6738568 0.2673686 0.1513319
0.7032043 0.2729061 0.1571929
0.7321254 0.2785283 0.1630858
0.7605645 0.2842107 0.1689887
0.7884669 0.2899287 0.1748803
0.8157780 0.2956573 0.1807394
0.8424436 0.3013714 0.1865450
0.8684099 0.3070459 0.1922764
0.8936259 0.3126532 0.1978999
0.9180453 0.3181609 0.2033626
0.0677092 0.2276738 0.0820351
0.0815287 0.2280496 0.0825570
0.0952303 0.2284918 0.0830755
0.1120833 0.2291373 0.0836650
0.1316409 0.2300309 0.0841885
0.1534041 0.2311961 0.0844209
0.1770770 0.2326180 0.0841062
0.2025343 0.2342210 0.0831402
0.2296561 0.2358852 0.0819605
0.2580369 0.2375535 0.0820087
0.2869296 0.2393790 0.0847948
0.3160747 0.2415235 0.0890006
0.3451368 0.2441486 0.0948755
0.3742634 0.2472406 0.1012637
0.4036347 0.2507002 0.1075116
0.4333370 0.2544245 0.1134080
0.4633646 0.2583388 0.1189603
0.4936477 0.2624016 0.1242657
0.5240628 0.2666135 0.1294860
0.5544922 0.2709830 0.1347331
0.5848405 0.2755111 0.1400572
0.6150272 0.2801922 0.1454752
0.6449811 0.2850156 0.1509852
0.6746367 0.2899666 0.1565757
0.7039327 0.2950278 0.1622300
0.7328101 0.3001796 0.1679284
0.7612116 0.3054008 0.1736502
0.7890810 0.3106692 0.1793738
0.8163630 0.3159618 0.1850777
0.8430026 0.3212551 0.1907401
0.8689457 0.3265250 0.1963383
0.8941457 0.3317407 0.2018178
0.9185509 0.3368756 0.2071466
0.0828706 0.2579706 0.0931267
0.0948516 0.2582927 0.0935903
0.1070799 0.2586699 0.0940669
0.1224777 0.2592192 0.0946427
0.1406973 0.2599805 0.0952311
0.1612511 0.2609833 0.0956731
0.1837747 0.2622381 0.0957523
0.2080576 0.2637183 0.0952579
0.2340003 0.2653481 0.0941575
0.2614765 0.2670238 0.0929143
0.2901193 0.2686994 0.0928216
0.3192494 0.2705040 0.0954569
0.3486532 0.2725735 0.0993731
0.3779607 0.2750610 0.1050656
0.4072164 0.2779947 0.1115683
0.4365773 0.2813041 0.1181214
0.4661486 0.2848947 0.1243868
0.4959546 0.2886875 0.1302907
0.5259577 0.2926279 0.1358796
0.5560784 0.2966870 0.1412494
0.5862012 0.3008662 0.1465368
0.6162203 0.3051695 0.1518295
0.6460469 0.3095945 0.1571681
0.6756037 0.3141339 0.1625659
0.7048211 0.3187762 0.1680211
0.7336346 0.3235069 0.1735225
0.7619831 0.3283088 0.1790541
0.7898076 0.3331629 0.1845971
0.8170509 0.3380491 0.1901310
0.8436569 0.3429461 0.1956347
0.8695740 0.3478287 0.2010692
0.8947539 0.3526684 0.2063844
0.9191415 0.3574430 0.2115617
0.0981881 0.2886628 0.1045049
0.1086798 0.2889428 0.1049210
0.1196276 0.2892697 0.1053590
0.1336848 0.2897443 0.1059097
0.1506150 0.2904014 0.1065192
0.1699845 0.2912703 0.1070776
0.1914120 0.2923711 0.1074207
0.2146242 0.2937035 0.1073493
0.2394641 0.2952333 0.1066986
0.2658444 0.2968870 0.1054952
0.2936341 0.2985748 0.1042129
0.3224986 0.3002594 0.1040151
0.3518255 0.3020485 0.1064661
0.3814116 0.3040630 0.1101857
0.4109222 0.3064310 0.1155982
0.4402955 0.3092129 0.1220743
0.4696482 0.3123675 0.1288165
0.4990857 0.3158157 0.1353886
0.5286543 0.3194795 0.1416283
0.5583416 0.3232981 0.1475258
0.5880950 0.3272298 0.1531353
0.6178326 0.3312524 0.1585430
0.6474473 0.3353661 0.1638614
0.6768425 0.3395710 0.1691601
0.7059346 0.3438624 0.1744718
0.7346491 0.3482314 0.1798072
0.7629178 0.3526659 0.1851637
0.7906770 0.3571511 0.1905304
0.8178659 0.3616704 0.1958921
0.8444275 0.3662039 0.2012229
0.8703126 0.3707257 0.2064686
0.8954652 0.3752149 0.2116064
0.9198291 0.3796505 0.2166183
0.1136059 0.3196963 0.1161601
0.1228795 0.3199427 0.1165369
0.1327224 0.3202296 0.1169405
0.1455657 0.3206451 0.1174621
0.1612764 0.3212193 0.1180693
0.1794941 0.3219792 0.1186866
0.1998556 0.3229475 0.1191939
0.2220590 0.3241361 0.1194294
0.2458940 0.3255362 0.1192165
0.2712371 0.3271086 0.1184341
0.2980066 0.3287836 0.1171554
0.3260693 0.3304827 0.1158506
0.3551186 0.3321753 0.1155658
0.3846074 0.3339501 0.1177846
0.4143088 0.3359218 0.1213947
0.4439711 0.3381867 0.1264607
0.4734300 0.3408284 0.1328058
0.5027607 0.3438301 0.1396316
0.5320570 0.3471301 0.1464327
0.5613758 0.3506566 0.1529669
0.5907243 0.3543468 0.1591635
0.6200688 0.3581531 0.1650395
0.6493494 0.3620418 0.1706470
0.6784850 0.3659947 0.1760597
0.7073768 0.3700097 0.1813689
0.7359351 0.3740839 0.1866304
0.7640804 0.3782106 0.1918705
0.7917406 0.3823798 0.1970975
0.8188497 0.3865783 0.2023046
0.8453526 0.3907855 0.2074481
0.8711902 0.3949834 0.2125061
0.8963032 0.3991541 0.2174636
0.9206337 0.4032791 0.2223043
0.1290765 0.3510164 0.1280812
0.1373441 0.3512356 0.1284252
0.1462360 0.3514902 0.1287985
0.1579920 0.3518581 0.1292906
0.1725673 0.3523655 0.1298834
0.1896791 0.3530365 0.1305250
0.2090027 0.3538935 0.1311279
0.2302352 0.3549531 0.1315670
0.2531346 0.3562199 0.1316883
0.2775344 0.3576781 0.1313390
0.3033323 0.3592858 0.1304377
0.3304473 0.3609777 0.1290948
0.3587429 0.3626859 0.1277743
0.3879362 0.3643850 0.1274189
0.4175431 0.3661477 0.1293773
0.4472906 0.3680866 0.1329810
0.4770462 0.3702636 0.1376655
0.5065490 0.3727777 0.1437952
0.5358341 0.3756314 0.1506033
0.5649758 0.3787804 0.1575449
0.5940323 0.3821623 0.1643131
0.6230232 0.3857159 0.1707774
0.6519311 0.3893907 0.1769127
0.6807100 0.3931483 0.1827457
0.7092970 0.3969603 0.1883220
0.7376138 0.4008100 0.1937016
0.7655687 0.4046932 0.1989580
0.7930781 0.4086041 0.2041335
0.8200737 0.4125295 0.2092181
0.8464871 0.4164569 0.2142092
0.8722522 0.4203729 0.2191047
0.8973059 0.4242628 0.2238969
0.9215871 0.4281106 0.2285742
0.1445740 0.3825672 0.1402417
0.1520034 0.3827638 0.1405567
0.1600772 0.3829917 0.1409019
0.1708672 0.3833203 0.1413634
0.1843996 0.3837728 0.1419325
0.2004648 0.3843704 0.1425740
0.2187854 0.3851340 0.1432247
0.2390750 0.3860816 0.1437901
0.2610804 0.3872241 0.1441453
0.2846039 0.3885597 0.1441480
0.3095098 0.3900677 0.1436718
0.3357083 0.3917051 0.1426711
0.3631172 0.3934113 0.1412851
0.3915987 0.3951273 0.1399643
0.4208910 0.3968320 0.1395585
0.4505680 0.3985844 0.1412528
0.4803096 0.4004945 0.1448706
0.5100882 0.4025987 0.1492156
0.5395867 0.4049975 0.1550642
0.5687939 0.4077102 0.1617627
0.5977610 0.4107083 0.1687533
0.6265396 0.4139402 0.1756816
0.6551558 0.4173493 0.1823642
0.6836037 0.4208850 0.1887328
0.7118502 0.4245057 0.1947841
0.7398429 0.4281792 0.2005458
0.7675187 0.4318804 0.2060520
0.7948107 0.4355883 0.2113183
0.8216351 0.4392951 0.2163965
0.8479115 0.4429934 0.2213241
0.8735660 0.4466737 0.2261200
0.8985297 0.4503244 0.2307910
0.9227371 0.4539325 0.2353355
0.1600961 0.4142903 0.1525951
0.1668186 0.4144679 0.1528851
0.1741847 0.4146736 0.1532054
0.1841163 0.4149697 0.1536383
0.1966947 0.4153766 0.1541816
0.2117753 0.4159133 0.1548118
0.2291307 0.4165988 0.1554834
0.2485022 0.4174508 0.1561253
0.2696399 0.4184828 0.1566392
0.2923301 0.4197007 0.1569043
0.3164089 0.4210973 0.1567929
0.3417615 0.4226482 0.1562044
0.3683058 0.4243106 0.1551248
0.3959571 0.4260285 0.1537147
0.4245773 0.4277508 0.1524071
0.4539230 0.4294597 0.1519685
0.4836161 0.4312034 0.1534392
0.5133129 0.4330853 0.1570071
0.5430390 0.4351301 0.1611050
0.5724808 0.4374251 0.1666242
0.6015707 0.4400050 0.1731336
0.6303360 0.4428547 0.1800839
0.6588171 0.4459336 0.1870915
0.6870404 0.4491918 0.1939298
0.7150073 0.4525803 0.2004893
0.7426973 0.4560556 0.2067263
0.7700748 0.4595791 0.2126191
0.7970841 0.4631224 0.2181910
0.8236609 0.4666631 0.2234727
0.8497342 0.4701840 0.2284987
0.8752241 0.4736765 0.2333147
0.9000538 0.4771319 0.2379528
0.9241515 0.4805402 0.2424297
0.1756092 0.4461305 0.1651219
0.1817303 0.4462922 0.1653905
0.1884821 0.4464791 0.1656890
0.1976521 0.4467479 0.1660957
0.2093629 0.4471167 0.1666131
0.2235254 0.4476024 0.1672260
0.2399609 0.4482222 0.1679018
0.2584431 0.4489928 0.1685870
0.2787360 0.4499286 0.1692051
0.3006219 0.4510390 0.1696574
0.3239191 0.4523250 0.1698300
0.3484887 0.4537753 0.1696114
0.3742306 0.4553630 0.1689258
0.4010663 0.4570460 0.1677866
0.4289085 0.4587732 0.1663692
0.4576197 0.4605000 0.1650870
0.4869725 0.4622114 0.1646304
0.5166292 0.4639471 0.1659135
0.5462400 0.4658011 0.1693731
0.5758414 0.4677965 0.1733209
0.6051713 0.4699981 0.1784772
0.6340990 0.4724539 0.1847318
0.6626289 0.4751596 0.1915591
0.6907877 0.4780850 0.1985628
0.7186033 0.4811849 0.2054626
0.7460837 0.4844123 0.2120999
0.7732130 0.4877248 0.2184084
0.7999566 0.4910861 0.2243711
0.8262659 0.4944660 0.2299975
0.8520830 0.4978399 0.2353091
0.8773438 0.5011873 0.2403307
0.9019808 0.5044912 0.2450872
0.9259199 0.5077406 0.2496116
0.1910805 0.4780327 0.1778027
0.1966863 0.4781807 0.1780528
0.2029028 0.4783517 0.1783320
0.2113972 0.4785973 0.1787152
0.2223220 0.4789338 0.1792075
0.2356344 0.4793764 0.1798000
0.2512001 0.4799406 0.1804696
0.2688271 0.4806419 0.1811761
0.2882993 0.4814944 0.1818601
0.3094041 0.4825092 0.1824423
0.3319514 0.4836918 0.1828261
0.3557846 0.4850392 0.1829069
0.3807836 0.4865365 0.1825899
0.4068582 0.4881553 0.1818226
0.4339314 0.4898549 0.1806415
0.4619133 0.4915890 0.1792320
0.4906674 0.4933184 0.1779854
0.5199807 0.4950304 0.1775235
0.5495496 0.4967579 0.1786496
0.5790315 0.4985841 0.1819490
0.6084390 0.5005375 0.1858447
0.6376001 0.5026547 0.1906174
0.6663192 0.5049940 0.1965539
0.6945860 0.5075570 0.2031425
0.7224119 0.5103220 0.2099870
0.7498119 0.5132537 0.2168088
0.7767900 0.5163110 0.2234341
0.8033343 0.5194540 0.2297688
0.8294163 0.5226464 0.2357723
0.8549942 0.5258572 0.2414368
0.8800159 0.5290599 0.2467723
0.9044224 0.5322325 0.2517963
0.9281506 0.5353563 0.2565286
0.2064791 0.5099416 0.1906168
0.2116401 0.5100779 0.1908508
0.2173886 0.5102352 0.1911129
0.2252831 0.5104609 0.1914747
0.2354976 0.5107698 0.1919434
0.2480268 0.5111757 0.1925144
0.2627758 0.5116924 0.1931715
0.2795861 0.5123344 0.1938848
0.2982648 0.5131149 0.1946082
0.3186104 0.5140456 0.1952783
0.3404319 0.5151345 0.1958151
0.3635624 0.5163833 0.1961264
0.3878654 0.5177855 0.1961182
0.4132346 0.5193236 0.1957128
0.4395862 0.5209683 0.1948790
0.4668434 0.5226809 0.1936724
0.4949138 0.5244192 0.1922838
0.5236624 0.5261491 0.1910817
0.5528892 0.5278596 0.1906254
0.5823196 0.5295782 0.1916202
0.6116311 0.5313757 0.1947035
0.6407959 0.5332870 0.1985645
0.6697407 0.5353230 0.2029204
0.6982187 0.5375464 0.2084247
0.7261890 0.5399684 0.2146698
0.7536482 0.5425751 0.2212731
0.7806018 0.5453384 0.2279470
0.8070509 0.5482227 0.2344972
0.8329845 0.5511909 0.2408058
0.8583785 0.5542083 0.2468104
0.8831959 0.5572437 0.2524855
0.9073900 0.5602698 0.2578277
0.9309067 0.5632636 0.2628458
0.2217755 0.5418018 0.2035420
0.2265501 0.5419280 0.2037618
0.2318877 0.5420734 0.2040089
0.2392488 0.5422820 0.2043514
0.2488221 0.5425672 0.2047980
0.2606324 0.5429414 0.2053473
0.2746187 0.5434174 0.2059884
0.2906540 0.5440082 0.2066991
0.3085698 0.5447265 0.2074436
0.3281793 0.5455837 0.2081713
0.3492963 0.5465887 0.2088166
0.3717497 0.5477465 0.2093009
0.3953918 0.5490556 0.2095380
0.4201018 0.5505063 0.2094455
0.4457834 0.5520793 0.2089625
0.4723570 0.5537452 0.2080768
0.4997451 0.5554672 0.2068594
0.5278533 0.5572071 0.2055021
0.5565530 0.5589338 0.2043361
0.5856573 0.5606375 0.2038564
0.6149170 0.5623402 0.2046787
0.6440324 0.5641023 0.2074325
0.6729181 0.5659666 0.2112072
0.7015759 0.5679293 0.2152271
0.7297564 0.5700445 0.2202753
0.7573803 0.5723324 0.2261310
0.7844304 0.5747858 0.2324320
0.8109025 0.5773825 0.2388911
0.8367922 0.5800926 0.2453011
0.8620876 0.5828828 0.2515257
0.8867665 0.5857202 0.2574832
0.9107955 0.5885745 0.2631311
0.9341323 0.5914185 0.2684523
0.2369412 0.5735580 0.2165550
0.2413784 0.5736752 0.2167624
0.2463537 0.5738104 0.2169961
0.2532396 0.5740041 0.2173211
0.2622343 0.5742687 0.2177473
0.2733863 0.5746155 0.2182754
0.2866635 0.5750563 0.2188986
0.3019674 0.5756029 0.2196006
0.3191537 0.5762670 0.2203537
0.3380523 0.5770598 0.2211174
0.3584858 0.5779906 0.2218381
0.3802835 0.5790658 0.2224498
0.4032917 0.5802872 0.2228765
0.4273783 0.5816507 0.2230397
0.4524359 0.5831439 0.2228665
0.4783786 0.5847453 0.2223040
0.5051295 0.5864256 0.2213537
0.5326102 0.5881500 0.2200956
0.5607246 0.5898837 0.2187178
0.5893422 0.5916002 0.2175380
0.6182855 0.5932910 0.2170037
0.6473267 0.5949745 0.2176557
0.6761963 0.5967005 0.2200521
0.7047537 0.5985171 0.2237276
0.7330506 0.6004139 0.2275168
0.7608753 0.6024280 0.2320951
0.7880998 0.6045892 0.2375259
0.8146946 0.6068949 0.2434725
0.8406453 0.6093287 0.2496550
0.8659414 0.6118656 0.2558608
0.8905682 0.6144761 0.2619404
0.9145035 0.6171303 0.2677965
0.9377162 0.6197991 0.2733711
0.2519490 0.6051546 0.2296314
0.2560898 0.6052641 0.2298277
0.2607446 0.6053902 0.2300494
0.2672064 0.6055709 0.2303587
0.2756787 0.6058175 0.2307660
0.2862289 0.6061404 0.2312738
0.2988489 0.6065505 0.2318785
0.3134657 0.6070585 0.2325680
0.3299582 0.6076755 0.2333206
0.3481750 0.6084117 0.2341023
0.3679503 0.6092764 0.2348679
0.3891180 0.6102765 0.2355607
0.4115224 0.6114160 0.2361137
0.4350250 0.6126939 0.2364537
0.4595073 0.6141031 0.2365081
0.4848704 0.6156293 0.2362159
0.5110312 0.6172506 0.2355446
0.5379135 0.6189383 0.2345101
0.5654374 0.6206598 0.2332016
0.5935053 0.6223838 0.2318039
0.6219890 0.6240870 0.2306122
0.6507207 0.6257620 0.2300274
0.6794914 0.6274242 0.2305245
0.7080584 0.6291142 0.2325899
0.7362450 0.6308813 0.2361026
0.7641105 0.6327176 0.2397609
0.7915192 0.6346373 0.2438712
0.8182890 0.6366788 0.2488519
0.8443785 0.6388434 0.2544013
0.8697641 0.6411190 0.2602525
0.8944283 0.6434852 0.2661934
0.9183526 0.6459167 0.2720668
0.9415134 0.6483861 0.2777636
0.2667992 0.6365338 0.2427128
0.2706797 0.6366363 0.2428972
0.2750513 0.6367544 0.2431058
0.2811356 0.6369233 0.2433973
0.2891389 0.6371537 0.2437821
0.2991433 0.6374553 0.2442639
0.3111607 0.6378378 0.2448404
0.3251409 0.6383112 0.2455028
0.3409838 0.6388857 0.2462337
0.3585551 0.6395710 0.2470065
0.3777011 0.6403759 0.2477840
0.3982625 0.6413080 0.2485188
0.4200843 0.6423721 0.2491532
0.4430242 0.6435696 0.2496222
0.4669560 0.6448971 0.2498578
0.4917718 0.6463454 0.2497959
0.5173799 0.6478986 0.2493876
0.5437004 0.6495342 0.2486137
0.5706574 0.6512245 0.2475028
0.5981692 0.6529394 0.2461506
0.6261371 0.6546504 0.2447371
0.6544354 0.6563374 0.2435353
0.6829051 0.6579938 0.2429042
0.7113535 0.6596322 0.2432601
0.7395613 0.6612862 0.2450260
0.7673339 0.6630020 0.2483100
0.7947135 0.6647785 0.2518568
0.8216320 0.6666129 0.2555894
0.8478900 0.6685415 0.2601036
0.8734215 0.6705716 0.2652226
0.8981945 0.6726948 0.2706959
0.9221845 0.6748946 0.2763167
0.9453687 0.6771492 0.2819250
0.2815633 0.6676321 0.2556524
0.2852124 0.6677283 0.2558252
0.2893307 0.6678391 0.2560208
0.2950752 0.6679975 0.2562948
0.3026528 0.6682135 0.2566575
0.3121564 0.6684959 0.2571132
0.3236148 0.6688540 0.2576614
0.3369969 0.6692968 0.2582959
0.3522223 0.6698338 0.2590030
0.3691736 0.6704741 0.2597612
0.3877102 0.6712261 0.2605399
0.4076811 0.6720974 0.2612990
0.4289348 0.6730933 0.2619893
0.4513275 0.6742169 0.2625539
0.4747285 0.6754671 0.2629306
0.4990224 0.6768384 0.2630573
0.5241096 0.6783197 0.2628792
0.5499035 0.6798940 0.2623587
0.5763264 0.6815387 0.2614891
0.6033020 0.6832273 0.2603094
0.6307468 0.6849318 0.2589200
0.6585615 0.6866269 0.2574946
0.6866230 0.6882947 0.2562848
0.7147803 0.6899296 0.2556114
0.7428550 0.6915418 0.2558388
0.7706481 0.6931590 0.2573331
0.7979622 0.6948225 0.2603284
0.8248055 0.6965386 0.2637608
0.8511574 0.6982957 0.2672341
0.8768456 0.7001177 0.2712739
0.9017642 0.7020202 0.2759386
0.9258738 0.7039974 0.2809961
0.9491437 0.7060361 0.2862486
0.2962216 0.6983932 0.2684159
0.2996633 0.6984838 0.2685783
0.3035537 0.6985880 0.2687624
0.3089906 0.6987371 0.2690206
0.3161801 0.6989403 0.2693631
0.3252234 0.6992058 0.2697949
0.3361629 0.6995421 0.2703166
0.3489843 0.6999579 0.2709240
0.3636246 0.7004616 0.2716065
0.3799828 0.7010620 0.2723467
0.3979317 0.7017670 0.2731191
0.4173293 0.7025840 0.2738899
0.4380295 0.7035186 0.2746170
0.4598896 0.7045747 0.2752506
0.4827762 0.7057531 0.2757353
0.5065686 0.7070506 0.2760130
0.5311605 0.7084599 0.2760281
0.5564587 0.7099684 0.2757349
0.5823805 0.7115582 0.2751071
0.6088493 0.7132070 0.2741488
0.6357880 0.7148897 0.2729080
0.6631116 0.7165803 0.2714877
0.6907202 0.7182564 0.2700543
0.7184936 0.7199022 0.2688388
0.7462879 0.7215127 0.2681272
0.7739379 0.7230964 0.2682376
0.8012616 0.7246758 0.2694855
0.8280714 0.7262858 0.2721371
0.8543280 0.7279408 0.2754523
0.8800416 0.7296264 0.2787759
0.9050990 0.7313481 0.2823537
0.9293479 0.7331296 0.2865489
0.9527409 0.7349676 0.2911619
0.3107447 0.7287618 0.2809810
0.3140001 0.7288474 0.2811340
0.3176849 0.7289459 0.2813077
0.3228430 0.7290866 0.2815516
