LumaGrade-Vercel/public/luts/fuji-classic-chrome.cube
TITLE "FUJI Classic Chrome Reference"
LUT_3D_SIZE 5
DOMAIN_MIN 0.0 0.0 0.0
DOMAIN_MAX 1.0 1.0 1.0
0.0031414 0.0062307 0.0122439
0.2126469 0.0406806 0.0392560
0.4570721 0.1100276 0.0877406
0.7007893 0.1821736 0.1407107
0.9163529 0.2473464 0.1911112
0.0677092 0.2276738 0.0820351
0.2296561 0.2358852 0.0819605
0.4633646 0.2583388 0.1189603
0.7039327 0.2950278 0.1622300
0.9185509 0.3368756 0.2071466
0.1910805 0.4780327 0.1778027
0.2882993 0.4814944 0.1818601
0.4906674 0.4933184 0.1779854
0.7224119 0.5103220 0.2099870
0.9281506 0.5353563 0.2565286
0.3107447 0.7287618 0.2809810
0.3751422 0.7307116 0.2840222
0.5384794 0.7382624 0.2888445
0.7499884 0.7511032 0.2811761
0.9561149 0.7638405 0.2970515
0.4184968 0.9509594 0.3717948
0.4659125 0.9523032 0.3739793
0.6012676 0.9574622 0.3794480
0.7887998 0.9676760 0.3797557
0.9813450 0.9792950 0.3696911
0.0041267 0.0229379 0.2110856
0.1939373 0.0823715 0.2035595
0.4428388 0.1357070 0.2478216
0.6995663 0.1859604 0.2715801
0.9186511 0.2443309 0.2975421
0.0587316 0.2312683 0.2368876
0.2328408 0.2365318 0.2414508
0.4682970 0.2563540 0.2554483
0.7086357 0.2912699 0.2778851
0.9222134 0.3331376 0.3055872
0.1946688 0.4784613 0.2840698
0.2926491 0.4812989 0.2889069
0.4921575 0.4933355 0.2885836
0.7218356 0.5109021 0.3127343
0.9295257 0.5348407 0.3401999
0.3139281 0.7287631 0.3560471
0.3782648 0.7305734 0.3590793
0.5406634 0.7379745 0.3646979
0.7509072 0.7510603 0.3585346
0.9565303 0.7638306 0.3724973
0.4209575 0.9509106 0.4290319
0.4683044 0.9522022 0.4311755
0.6033039 0.9572503 0.4367637
0.7899613 0.9675139 0.4378870
0.9820093 0.9792582 0.4288057
0.0057971 0.0868981 0.4314215
0.2183143 0.1050844 0.4311557
0.4211827 0.1997208 0.4195215
0.6582404 0.2610008 0.4730144
0.8888345 0.2998191 0.5078562
0.0856413 0.2436286 0.4471294
0.2387454 0.2474307 0.4574145
0.4401961 0.2942180 0.4398032
0.6742160 0.3339630 0.4854686
0.9018471 0.3627799 0.5134187
0.1733905 0.4858801 0.4849622
0.2838500 0.4878606 0.4872287
0.4960186 0.4953879 0.4948678
0.7268456 0.5112631 0.5086292
0.9373037 0.5320095 0.5240745
0.3123037 0.7316086 0.5268854
0.3802367 0.7327599 0.5297288
0.5475123 0.7380982 0.5393111
0.7537507 0.7515741 0.5389823
0.9565767 0.7647977 0.5541402
0.4250838 0.9518935 0.5783607
0.4732170 0.9529231 0.5805770
0.6094433 0.9571880 0.5875036
0.7941626 0.9672153 0.5924186
0.9842112 0.9794219 0.5855477
0.0121194 0.1559876 0.6528130
0.2252788 0.1538639 0.6666005
0.4487886 0.2245769 0.6317788
0.6475699 0.3183075 0.6382458
0.8493854 0.3783598 0.6874294
0.0940356 0.2727250 0.6652231
0.2441055 0.2735546 0.6761318
0.4648354 0.3075293 0.6540088
0.6590915 0.3807456 0.6512488
0.8589680 0.4300702 0.6974052
0.2091988 0.4938519 0.6942165
0.3044503 0.4960252 0.6962768
0.5012987 0.5037645 0.7101458
0.6962798 0.5442723 0.6913356
0.8932361 0.5737573 0.7291455
0.2846770 0.7405332 0.7367438
0.3593166 0.7416581 0.7381065
0.5394165 0.7458582 0.7428398
0.7579153 0.7543008 0.7512080
0.9608816 0.7667604 0.7620434
0.4103638 0.9580371 0.7678628
0.4626325 0.9587156 0.7693561
0.6088788 0.9613164 0.7751537
0.8018218 0.9679837 0.7868228
0.9877787 0.9806759 0.7861546
0.0219600 0.2172821 0.8500147
0.2283263 0.2139870 0.8620431
0.4660484 0.2480247 0.8513964
0.6711651 0.3426980 0.8160349
0.8478193 0.4236880 0.8337703
0.1016693 0.3088613 0.8601878
0.2485866 0.3084710 0.8696118
0.4769473 0.3265077 0.8673126
0.6823287 0.3985265 0.8300210
0.8561017 0.4697641 0.8431385
0.2187390 0.5106417 0.8842188
0.3093186 0.5121766 0.8888685
0.5057853 0.5173449 0.9050021
0.7177094 0.5516707 0.8742817
0.8841941 0.6043499 0.8736479
0.3192505 0.7453564 0.9244230
0.3874404 0.7463998 0.9247865
0.5568835 0.7508751 0.9271151
0.7627224 0.7605923 0.9407886
0.9328233 0.7935771 0.9224779
0.3859210 0.9662199 0.9590316
0.4412082 0.9669963 0.9599509
0.5932216 0.9698702 0.9632091
0.7951653 0.9756003 0.9691714
0.9916732 0.9835741 0.9766396
