LumaGrade-Vercel/public/luts/gold-200.cube
TITLE "Kodak Gold 200 Spectral Print"
LUT_3D_SIZE 9
0.0531094 0.0595012 0.0671819
0.0792973 0.0632429 0.0674998
0.3344228 0.0837609 0.0602981
0.5979110 0.0845363 0.0466451
0.7046022 0.0872493 0.0544903
0.7411389 0.0863761 0.0599787
0.7562152 0.0881981 0.0622396
0.7648017 0.0921213 0.0635263
0.7752879 0.0996407 0.0650968
0.0506424 0.0613596 0.0675186
0.0569564 0.0625494 0.0676128
0.1817916 0.0781040 0.0673756
0.4542634 0.0873170 0.0505446
0.6565846 0.0917393 0.0472542
0.7298749 0.0908473 0.0582881
0.7568567 0.0928344 0.0623357
0.7707214 0.0986035 0.0644130
0.7816108 0.1058593 0.0660434
0.0419367 0.0849221 0.0712158
0.0606538 0.0873092 0.0710044
0.1175018 0.0940215 0.0707992
0.3285329 0.1129895 0.0624300
0.5759032 0.1093772 0.0506758
0.6942871 0.1114701 0.0529382
0.7595838 0.1127485 0.0627445
0.7890412 0.1189842 0.0671553
0.8059383 0.1283969 0.0696823
0.0171446 0.1626972 0.0773626
0.0303861 0.1641156 0.0776155
0.1389219 0.1831982 0.0757588
0.2823520 0.2002436 0.0679172
0.4864788 0.2196014 0.0463271
0.7052711 0.2257939 0.0584510
0.7909713 0.2274984 0.0674439
0.8304226 0.2359263 0.0733401
0.8529844 0.2434076 0.0767073
0.0059342 0.2775858 0.0730207
0.0060843 0.2802650 0.0727928
0.2010018 0.3162557 0.0600989
0.3039452 0.3469100 0.0450579
0.5040238 0.3732479 0.0262523
0.6689435 0.3931254 0.0530902
0.8179672 0.4061058 0.0714798
0.8862592 0.4123796 0.0816673
0.9119367 0.4200595 0.0854909
0.0135093 0.3852262 0.0532847
0.0138036 0.3886552 0.0526353
0.1683418 0.4353065 0.0248936
0.4299363 0.4924667 0.0243275
0.5506105 0.5178132 0.0316364
0.6954266 0.5435628 0.0531095
0.8128641 0.5608823 0.0714417
0.9078016 0.5727790 0.0848757
0.9554630 0.5783522 0.0919651
0.0219982 0.4719778 0.0471573
0.0225016 0.4765012 0.0469073
0.1274973 0.5171922 0.0273081
0.4713070 0.5864955 0.0366755
0.6061775 0.6215174 0.0432933
0.7335599 0.6436155 0.0588411
0.8269174 0.6619610 0.0728166
0.9087629 0.6751584 0.0850186
0.9600765 0.6832805 0.0926506
0.0498312 0.5498994 0.0489707
0.0698729 0.5549752 0.0446904
0.1274112 0.5770975 0.0353162
0.4587141 0.6489956 0.0461076
0.7115167 0.7037985 0.0569101
0.7447121 0.7167462 0.0605145
0.8569317 0.7348815 0.0772959
0.9171655 0.7487310 0.0862691
0.9676484 0.7583542 0.0937757
0.1096726 0.6160142 0.0756775
0.1226276 0.6205027 0.0727220
0.1608914 0.6345494 0.0591039
0.4417886 0.6924855 0.0592218
0.7111669 0.7491420 0.0619714
0.8176556 0.7731950 0.0714332
0.8424829 0.7838444 0.0751403
0.9357345 0.7997538 0.0890316
0.9702200 0.8112733 0.0941577
0.0528834 0.0596269 0.0678476
0.0640712 0.0612189 0.0680091
0.2943594 0.0830992 0.0633095
0.6161621 0.0875882 0.0457947
0.7157763 0.0884969 0.0561703
0.7427016 0.0888384 0.0602132
0.7582017 0.0904741 0.0625373
0.7669578 0.0945890 0.0638493
0.7782744 0.1028527 0.0655440
0.0506268 0.0621769 0.0679523
0.0615137 0.0639101 0.0681154
0.2191577 0.0824689 0.0668788
0.5126699 0.0866693 0.0508652
0.6618398 0.0941239 0.0480476
0.7361578 0.0943309 0.0592313
0.7622439 0.0972564 0.0631431
0.7753290 0.1030653 0.0651030
0.7850556 0.1095088 0.0665589
0.0489079 0.0884354 0.0722950
0.0604921 0.0904975 0.0723963
0.1364120 0.1011984 0.0722750
0.3415885 0.1190180 0.0630963
0.5723853 0.1188552 0.0526799
0.7049573 0.1176680 0.0545437
0.7691648 0.1214296 0.0641799
0.7988178 0.1276154 0.0686177
0.8137776 0.1357398 0.0708539
0.0307465 0.1789910 0.0801409
0.0659244 0.1854234 0.0795380
0.1647407 0.1958617 0.0765832
0.2936714 0.2179240 0.0685051
0.5294456 0.2403092 0.0502480
0.7148964 0.2469507 0.0600350
0.8003714 0.2498484 0.0688498
0.8383480 0.2563752 0.0745232
0.8619937 0.2673878 0.0780508
0.0073867 0.3022119 0.0758757
0.0082222 0.3152466 0.0731816
0.2118299 0.3447441 0.0574830
0.3398832 0.3692461 0.0485610
0.5089618 0.3993255 0.0262951
0.7035794 0.4198390 0.0567301
0.8319523 0.4310489 0.0735685
0.8934662 0.4356908 0.0827409
0.9188197 0.4408829 0.0865152
0.0163974 0.4173457 0.0595948
0.0534635 0.4340424 0.0528050
0.2183851 0.4719457 0.0288320
0.4724329 0.5128322 0.0274182
0.5277402 0.5336107 0.0316737
0.6960416 0.5617076 0.0532021
0.8303621 0.5781971 0.0745779
0.9131376 0.5889299 0.0856699
0.9589195 0.5936986 0.0924788
0.0303239 0.5037369 0.0582759
0.0851122 0.5172940 0.0456349
0.1893588 0.5487537 0.0315114
0.5008445 0.6101944 0.0402297
0.6353061 0.6357943 0.0465829
0.7084711 0.6556016 0.0550719
0.8217065 0.6754825 0.0720383
0.9178573 0.6882968 0.0863721
0.9627149 0.6962587 0.0930426
0.0654316 0.5733439 0.0751266
0.1130095 0.5863550 0.0618065
0.2027390 0.6131046 0.0409517
0.4938521 0.6718816 0.0501719
0.7261068 0.7168530 0.0595085
0.7577531 0.7276305 0.0624699
0.8375426 0.7459012 0.0744030
0.9095111 0.7615765 0.0851299
0.9710448 0.7709023 0.0942803
0.0965572 0.6360131 0.1382283
0.1457146 0.6456386 0.1285167
0.2320650 0.6687905 0.1039868
0.4724644 0.7143869 0.0760680
0.7274379 0.7657939 0.0655043
0.8270710 0.7858658 0.0729698
0.8500881 0.7960622 0.0762751
0.9231520 0.8140253 0.0871600
0.9642041 0.8262872 0.0932639
0.0427256 0.0670579 0.1236764
0.0619488 0.0687550 0.1155334
0.1970782 0.0833034 0.1039644
0.5524283 0.0882351 0.0670121
0.6971149 0.0983555 0.0564958
0.7474245 0.1047131 0.0609216
0.7701625 0.1119183 0.0643293
0.7802664 0.1168448 0.0658422
0.7920217 0.1252025 0.0676012
0.0445572 0.0707778 0.1029694
0.0687869 0.0729216 0.0955606
0.2985334 0.0948463 0.0858254
0.5253271 0.0995561 0.0688020
0.6944667 0.1032851 0.0592243
0.7524933 0.1136207 0.0616816
0.7741600 0.1164043 0.0649280
0.7862615 0.1214648 0.0667394
0.8027592 0.1331981 0.0692070
0.0384502 0.1049903 0.1079001
0.0542974 0.1071920 0.1051773
0.1532952 0.1188328 0.0990040
0.3795869 0.1390834 0.0857261
0.6366965 0.1394469 0.0695679
0.7551246 0.1371619 0.0666751
0.7913372 0.1436219 0.0674988
0.8161666 0.1510281 0.0712109
0.8362010 0.1843772 0.0742029
0.0175776 0.2173587 0.1175474
0.0430335 0.2189147 0.1178127
0.1427254 0.2310083 0.1120939
0.3082640 0.2568876 0.0998356
0.5570245 0.2814194 0.0709397
0.7104056 0.2857707 0.0774336
0.8138049 0.2936567 0.0799271
0.8603851 0.3012601 0.0842247
0.8805388 0.3139202 0.0843540
0.0813505 0.3649971 0.1194454
0.1179023 0.3722854 0.1194383
0.2140495 0.3871033 0.1087018
0.3147416 0.4100397 0.1003833
0.5490004 0.4444649 0.0677198
0.7310815 0.4613530 0.0641738
0.8329629 0.4688467 0.0857945
0.9020656 0.4765036 0.0920222
0.9305318 0.4826991 0.0965918
0.2258230 0.5020526 0.0995975
0.2536622 0.5079666 0.0964540
0.2992172 0.5195986 0.0917349
0.4340378 0.5445567 0.0747954
0.5546789 0.5698175 0.0749836
0.7074393 0.5961446 0.0549168
0.8401693 0.6130080 0.0756015
0.9200532 0.6214352 0.0911926
0.9632326 0.6258771 0.0970229
0.0328385 0.5594404 0.1599302
0.1077104 0.5720333 0.1497234
0.2402726 0.5982884 0.1223742
0.4889676 0.6434493 0.0880791
0.6624320 0.6736470 0.0730336
0.7084307 0.6961333 0.0993355
0.8307515 0.7122239 0.0733892
0.9251831 0.7251700 0.0874621
0.9712147 0.7328387 0.0943056
0.0424562 0.6248592 0.2054904
0.0838566 0.6392365 0.1971937
0.2741219 0.6721458 0.1712887
0.5064929 0.7159148 0.1200314
0.7123242 0.7503436 0.1148536
0.7816389 0.7675181 0.1179786
0.8258402 0.7850733 0.1425110
0.9115140 0.7979696 0.1287645
0.9730728 0.8065072 0.1161905
0.1471787 0.6976734 0.2598610
0.2272686 0.7072205 0.2516588
0.3520163 0.7306679 0.2317766
0.5268800 0.7634735 0.1959030
0.7158537 0.7980463 0.1646978
0.8447812 0.8199182 0.1603925
0.8609000 0.8317161 0.1921892
0.9054638 0.8467411 0.2222556
0.9602502 0.8569080 0.2300110
0.0448295 0.0680328 0.3627307
0.0696407 0.0698890 0.3508258
0.1915667 0.0931025 0.3235942
0.4256752 0.1068201 0.3001065
0.6652498 0.1110614 0.2355886
0.7442456 0.1226967 0.2189636
0.7847041 0.1029990 0.1593778
0.8108478 0.1175700 0.1884573
0.8290516 0.1564004 0.2339503
0.0460887 0.0818822 0.3686917
0.0752378 0.0839267 0.3411205
0.4164827 0.1201445 0.2367860
0.5697154 0.1158338 0.2142996
0.7211496 0.1123044 0.1961256
0.7613549 0.1323742 0.2216919
0.7959173 0.1214093 0.1684191
0.8215882 0.1461257 0.1991346
0.8390718 0.1883038 0.2266678
0.0391817 0.1360464 0.2934386
0.0333961 0.1444165 0.2923433
0.1996135 0.1627624 0.2683046
0.4408738 0.1807024 0.2444906
0.6296651 0.1849832 0.2168687
0.7748124 0.1968748 0.2231759
0.8314855 0.2119387 0.1945145
0.8520135 0.2388085 0.2033375
0.8619456 0.2574431 0.2028645
0.0205008 0.2686933 0.3189742
0.0320506 0.2739999 0.3137278
0.1500382 0.2978902 0.3023674
0.3537393 0.3210087 0.2831360
0.5834646 0.3452816 0.2638603
0.7701779 0.3535567 0.2327120
0.8596482 0.3655353 0.2237878
0.8932667 0.3777508 0.2148530
0.9041274 0.3885810 0.2048481
0.0588010 0.4289173 0.3348232
0.0584071 0.4372015 0.3337880
0.1575138 0.4567493 0.3377265
0.3414281 0.4812592 0.3157259
0.5221059 0.5102642 0.2925203
0.7419047 0.5321405 0.2710321
0.8535296 0.5396022 0.2587024
0.9152173 0.5451193 0.2475307
0.9426905 0.5515532 0.2393768
0.0323809 0.5561001 0.3634381
0.0786437 0.5650179 0.3659451
0.2118745 0.5831232 0.3689837
0.3732376 0.6108024 0.3514419
0.4997656 0.6369043 0.3453672
0.7191904 0.6652153 0.3178767
0.8485026 0.6812317 0.3046099
0.9252484 0.6812130 0.2706257
0.9575360 0.6859053 0.2738468
0.2607006 0.6800891 0.3946439
0.3078449 0.6881832 0.3955480
0.3788812 0.7003248 0.3926539
0.4842271 0.7175688 0.3826137
0.5776783 0.7366159 0.3828700
0.6988565 0.7592462 0.3802584
0.8378407 0.7777628 0.3618833
0.9309854 0.7864671 0.3448512
0.9656933 0.7885033 0.3299400
0.4515026 0.7669396 0.4222752
0.4885470 0.7735657 0.4201021
0.5293996 0.7815864 0.4205802
0.5791609 0.7924520 0.4232039
0.6722347 0.8090587 0.4177625
0.7500996 0.8217060 0.4085676
0.8135756 0.8370032 0.4231220
0.9055822 0.8502756 0.4127193
0.9623052 0.8568073 0.4046257
0.4009820 0.7966474 0.4859479
0.4359859 0.8023895 0.4824924
0.5061989 0.8142154 0.4741891
0.6108329 0.8324859 0.4606278
0.6830631 0.8460744 0.4581679
0.7944388 0.8639792 0.4490624
0.8511744 0.8772100 0.4668136
0.8910234 0.8885182 0.4881809
0.9514136 0.8948570 0.4695749
0.0798546 0.0397653 0.5732219
0.0838950 0.0535141 0.5701526
0.1996004 0.0970567 0.5464894
0.4155553 0.1130028 0.5560497
0.5956719 0.1321827 0.5396914
0.7669820 0.1302217 0.4343163
0.8097130 0.1415566 0.4457269
0.8280788 0.1716356 0.4750341
0.8342850 0.1844765 0.4045040
0.0755189 0.0778597 0.5858234
0.0877169 0.0934155 0.5722062
0.1999432 0.1138303 0.5712252
0.5747507 0.1463264 0.5227866
0.6674641 0.1678571 0.5082080
0.7909309 0.1520143 0.4473363
0.8205321 0.1719487 0.4418384
0.8466621 0.2168719 0.4702848
0.8529849 0.2323023 0.4199645
0.0423202 0.1811883 0.5852197
0.1345064 0.1804123 0.5431557
0.2591519 0.2140215 0.5425633
0.5168438 0.2417563 0.5198746
0.7258989 0.2540823 0.4940660
0.8197766 0.2687135 0.4860845
0.8523304 0.2911141 0.4960242
0.8732567 0.3083379 0.4787900
0.8846087 0.3315626 0.4489027
0.0936284 0.3238110 0.5828860
0.0763422 0.3392640 0.5878040
0.1775894 0.3646350 0.5883783
0.4128163 0.4006871 0.5815274
0.6307862 0.4186082 0.5449924
0.7631885 0.4298068 0.5145813
0.8492782 0.4468738 0.5201496
0.9096466 0.4593478 0.5082869
0.9241911 0.4775560 0.4837242
0.0411194 0.4839582 0.6160378
0.0626795 0.4913138 0.6150300
0.1405460 0.5119516 0.6163317
0.3593537 0.5575518 0.6113332
0.5715966 0.5843679 0.5944120
0.7391487 0.6039549 0.5756726
0.8691823 0.6120659 0.5472475
0.9318947 0.6185802 0.5309957
0.9542004 0.6274198 0.5187085
0.0464867 0.6254712 0.6450457
0.0466933 0.6302329 0.6431621
0.2605986 0.6510408 0.6398113
0.4079073 0.6796134 0.6410610
0.5895083 0.7063112 0.6243038
0.6937042 0.7218720 0.6017355
0.8609545 0.7372222 0.5756207
0.9239560 0.7445680 0.5711413
0.9605097 0.7428070 0.5537837
0.1434852 0.7089186 0.6521709
0.1864972 0.7143368 0.6529229
0.2538019 0.7279716 0.6555654
0.3546259 0.7536223 0.6571940
0.5500292 0.7830854 0.6428421
0.6599954 0.8025897 0.6334610
0.8205273 0.8233204 0.6115778
0.9157590 0.8332579 0.5969846
0.9587221 0.8359694 0.5860645
0.3601628 0.8015199 0.6743391
0.3906670 0.8062167 0.6748915
0.4511542 0.8160205 0.6762248
0.5315208 0.8292732 0.6720488
0.6351368 0.8457192 0.6591207
0.7057593 0.8580788 0.6526243
0.8001518 0.8738911 0.6481814
0.9059175 0.8869168 0.6324407
0.9582844 0.8916749 0.6176640
0.5004095 0.8506075 0.6873460
0.5302280 0.8556785 0.6865405
0.6005675 0.8678089 0.6842913
0.6507254 0.8759584 0.6801202
0.7056571 0.8846374 0.6740932
0.7634785 0.8946061 0.6715848
0.8156104 0.9042519 0.6726213
0.8872842 0.9148738 0.6647643
0.9491594 0.9222293 0.6520351
0.0936595 0.1180797 0.6905485
0.0889233 0.1324903 0.6957235
0.2193994 0.1613013 0.6950730
0.4227680 0.1897787 0.7041641
0.6304590 0.1941429 0.7010067
0.7367549 0.2212452 0.6918545
0.8323513 0.2192466 0.6190293
0.8604463 0.2574009 0.6404132
0.8753915 0.2913159 0.6329715
0.0803948 0.1652402 0.7066493
0.0995648 0.1793315 0.7031882
0.2388484 0.1875644 0.7159075
0.4234844 0.2257521 0.7239183
0.7156746 0.2347550 0.6790337
0.7799267 0.2508666 0.6866593
0.8476176 0.2434388 0.6107785
0.8699979 0.2888221 0.6283846
0.8865880 0.3335786 0.6415650
0.0612772 0.2670929 0.7355855
0.1265606 0.2729690 0.7338345
0.2150911 0.2800778 0.7232005
0.6705009 0.3112835 0.6710068
0.7463298 0.3258130 0.6625562
0.8394493 0.3424266 0.6526146
0.8844382 0.3707227 0.6498193
0.8937894 0.3802164 0.6354009
0.9114930 0.4309177 0.6599503
0.1316269 0.3778624 0.7114266
0.1504151 0.3877846 0.7175500
0.1201475 0.4211887 0.7379251
0.4658391 0.4629725 0.7273518
0.7046142 0.4931728 0.7146403
0.8491406 0.5069965 0.6947882
0.8919044 0.5100712 0.6759793
0.9217746 0.5318851 0.6817850
0.9368550 0.5513886 0.6809645
0.0621288 0.5368735 0.7554767
0.1180264 0.5479130 0.7576512
0.2423091 0.5736880 0.7617396
0.3728438 0.6043479 0.7635848
0.6443043 0.6420701 0.7508858
0.7656202 0.6491560 0.7221900
0.8643662 0.6602437 0.7030951
0.9195486 0.6727587 0.7016729
0.9561505 0.6793168 0.6956278
0.1693455 0.6453899 0.7714601
0.1697291 0.6526582 0.7726189
0.1892186 0.6721601 0.7774500
0.3678685 0.7086280 0.7782612
0.5989063 0.7423869 0.7695198
0.7324129 0.7594194 0.7563593
0.8474985 0.7731740 0.7411387
0.9226047 0.7804686 0.7281781
0.9638738 0.7819386 0.7100784
0.2255602 0.7609454 0.7994273
0.2584784 0.7636247 0.7978712
0.3349987 0.7711714 0.7937083
0.4903187 0.7992721 0.7927466
0.6446046 0.8235245 0.7879840
0.7572430 0.8402821 0.7768534
0.8295084 0.8509261 0.7621258
0.9181700 0.8597958 0.7438675
0.9638713 0.8631483 0.7326229
0.3504778 0.8167368 0.7981332
0.3711658 0.8221010 0.7991160
0.4154898 0.8333109 0.8010760
0.5055414 0.8469235 0.8017133
0.6128826 0.8635766 0.7979282
0.7047827 0.8776263 0.7854886
0.7809317 0.8907516 0.7794168
0.8874247 0.9058167 0.7666960
0.9545782 0.9124089 0.7543132
0.4317123 0.8592431 0.8122691
0.4536131 0.8626187 0.8124243
0.5049301 0.8707683 0.8128745
0.5850035 0.8839295 0.8138337
0.6689908 0.8976001 0.8097275
0.7540928 0.9112583 0.8020488
0.8113743 0.9210111 0.7980817
0.8724054 0.9307805 0.7923948
0.9449385 0.9393877 0.7798151
0.0655383 0.2338008 0.7782359
0.0911746 0.2467211 0.7840589
0.2475817 0.2755480 0.8002574
0.4457486 0.3053043 0.8189308
0.6333824 0.3325895 0.8227624
0.7904575 0.3310277 0.8090192
0.8381889 0.3575351 0.8164936
0.8882477 0.3594214 0.7713457
0.9071243 0.4160128 0.8008671
0.0743064 0.2737977 0.7880486
0.1453809 0.2861056 0.7930905
0.2488856 0.3104018 0.8121855
0.4421450 0.3412672 0.8278442
0.6320176 0.3643407 0.8301466
0.8238788 0.3597929 0.8002502
0.8555165 0.3896106 0.8157273
0.8945187 0.3797911 0.7611018
0.9145353 0.4455906 0.7969917
0.1309309 0.3606913 0.8065010
0.1733654 0.3693273 0.8128480
0.2261360 0.3984129 0.8353181
0.4263381 0.4261170 0.8453801
0.7821755 0.4393462 0.8180444
0.8633426 0.4360858 0.7845107
0.8964652 0.4667326 0.7998348
0.9166564 0.4714724 0.7748278
0.9293396 0.5071014 0.7821782
0.1393047 0.4503782 0.8174048
0.1682382 0.4563845 0.8207213
0.3717666 0.5019736 0.8337921
0.5883134 0.5326168 0.8313257
0.7515017 0.5562651 0.8223772
0.8595278 0.5742416 0.8201158
0.9175032 0.5820881 0.8061714
0.9435467 0.6058445 0.8087092
0.9457129 0.6011044 0.7930965
0.0771837 0.5755264 0.8413952
0.1087892 0.5866925 0.8464766
0.2758667 0.6079716 0.8517815
0.4435056 0.6503868 0.8631369
0.6552581 0.6825763 0.8594504
0.8246973 0.7042009 0.8512554
0.9062302 0.7127976 0.8406073
0.9369760 0.7119681 0.8210254
0.9589897 0.7221042 0.8207051
0.2449025 0.6917567 0.8668965
0.2676545 0.7026794 0.8712341
0.3157832 0.7284256 0.8806645
0.4481338 0.7480680 0.8804744
0.6286238 0.7761631 0.8772327
0.7836092 0.7974932 0.8672726
0.8645933 0.8036516 0.8524646
0.9228224 0.8097209 0.8398116
0.9553259 0.8168227 0.8364689
0.2246026 0.7752795 0.8857915
0.2186058 0.7816747 0.8879929
0.2925880 0.7919658 0.8883062
0.4131960 0.8098190 0.8887540
0.6234609 0.8420246 0.8853926
0.7544222 0.8616037 0.8803871
0.8445782 0.8736970 0.8731058
0.9134124 0.8821368 0.8641592
0.9549285 0.8872666 0.8592505
0.4075910 0.8450831 0.8996000
0.4219453 0.8473475 0.8992746
0.4593816 0.8526678 0.8980763
0.5578178 0.8693390 0.8973879
0.6782010 0.8887213 0.8955781
0.7804545 0.9048725 0.8919207
0.8560634 0.9163145 0.8855127
0.9086479 0.9239669 0.8786160
0.9488513 0.9283956 0.8680522
0.5497249 0.8898697 0.9004387
0.5558128 0.8908966 0.8997431
0.5908995 0.8966711 0.9000907
0.6406702 0.9048971 0.9005486
0.6971029 0.9142296 0.9011705
0.7686893 0.9257814 0.8981732
0.8343170 0.9359062 0.8912553
0.8832747 0.9435803 0.8853678
0.9321232 0.9508817 0.8800403
0.1170882 0.3587335 0.8266245
0.1547935 0.3716925 0.8344640
0.2341467 0.4085427 0.8635317
0.4493898 0.4446544 0.8858327
0.6474032 0.4619267 0.8899032
0.7781049 0.4824775 0.8920926
0.8804803 0.4810676 0.8815480
0.9004042 0.5118054 0.8915380
0.9279454 0.5146304 0.8712463
0.1483116 0.3878525 0.8359414
0.1815795 0.4005016 0.8432015
0.2295572 0.4427430 0.8775291
0.4621787 0.4704973 0.8916197
0.6460139 0.4941307 0.8966979
0.7779982 0.5071481 0.8970515
0.8944559 0.5030400 0.8798658
0.9084021 0.5329204 0.8931824
0.9317594 0.5302233 0.8682002
0.1673436 0.4581578 0.8599738
0.1945413 0.4694886 0.8700796
0.2124641 0.5034032 0.8958768
0.4474243 0.5346511 0.9051654
0.6414784 0.5582290 0.9095563
0.8724223 0.5652105 0.8972358
0.9157763 0.5508031 0.8751742
0.9315315 0.5853760 0.8912966
0.9406116 0.5697946 0.8624215
0.1025185 0.5465219 0.8821188
0.1101600 0.5600996 0.8931323
0.2146184 0.5802778 0.9040735
0.5095781 0.6118535 0.9105734
0.8545893 0.6271381 0.8917530
0.9052078 0.6502817 0.8942549
0.9169930 0.6616158 0.8997517
0.9503010 0.6663247 0.8877861
0.9603996 0.6855172 0.8893320
0.1315997 0.6279111 0.8980115
0.2363345 0.6343022 0.8977796
0.3754885 0.6693774 0.9113489
0.4302056 0.6850226 0.9166468
0.6970394 0.7219462 0.9166922
0.8406921 0.7436939 0.9152943
0.9256909 0.7557123 0.9114388
0.9599947 0.7604809 0.9051437
0.9689892 0.7663822 0.9015328
0.2575549 0.7188018 0.9125296
0.2893057 0.7273510 0.9161977
0.3196548 0.7541013 0.9282869
0.5046943 0.7811030 0.9314117
0.6595529 0.8057354 0.9322646
0.7985723 0.8265094 0.9308679
0.8937633 0.8393143 0.9283913
0.9413334 0.8424761 0.9205998
0.9639439 0.8426319 0.9100720
0.3430540 0.8135275 0.9382668
0.3854289 0.8191981 0.9389437
0.4591967 0.8299976 0.9399181
0.5460135 0.8449235 0.9411532
0.6368684 0.8604003 0.9413288
0.7814205 0.8828669 0.9392846
0.8734709 0.8951237 0.9345687
0.9230030 0.8999733 0.9288467
0.9555698 0.9034389 0.9226432
0.4098371 0.8547411 0.9430053
0.4260825 0.8573470 0.9431490
0.4643188 0.8636519 0.9434475
0.5344735 0.8759865 0.9445893
0.6431201 0.8940133 0.9450199
0.7728849 0.9143894 0.9436685
0.8590524 0.9274592 0.9417692
0.9121376 0.9348630 0.9385846
0.9490941 0.9395226 0.9342534
0.5667410 0.9001837 0.9506057
0.5760095 0.9017096 0.9505143
0.5980086 0.9053444 0.9502371
0.6311007 0.9108318 0.9495928
0.7176737 0.9249609 0.9493894
0.8082360 0.9397145 0.9490893
0.8709651 0.9494391 0.9473786
0.9169713 0.9564124 0.9445847
0.9494100 0.9610692 0.9421977
0.1565020 0.4697552 0.8657082
0.1802756 0.4833058 0.8752146
0.1516080 0.5274168 0.9079528
0.4539168 0.5684131 0.9238055
0.6604998 0.5891744 0.9299995
0.7899805 0.6054777 0.9330813
0.8742999 0.6191181 0.9346542
0.9317530 0.6117604 0.9275194
0.9399037 0.6397316 0.9356162
0.1772540 0.4938595 0.8756710
0.1621118 0.5094734 0.8841356
0.1901151 0.5526362 0.9149490
0.4664257 0.5857259 0.9273553
0.6625805 0.6029611 0.9324891
0.7896187 0.6292594 0.9372517
0.8734842 0.6322904 0.9369181
0.9381076 0.6268911 0.9274800
0.9433495 0.6543633 0.9373809
0.1093905 0.5542889 0.8982508
0.1122053 0.5711070 0.9104276
0.3076347 0.5956710 0.9210591
0.4817611 0.6277328 0.9354073
0.6544866 0.6557848 0.9417725
0.7869057 0.6711817 0.9442902
0.9218958 0.6742957 0.9397025
0.9472558 0.6635751 0.9286720
0.9546322 0.6918905 0.9389941
0.0937130 0.6156207 0.9128081
0.1112018 0.6291040 0.9209158
0.3030410 0.6516641 0.9299740
0.4600254 0.6852121 0.9450521
0.6672438 0.7035522 0.9479207
0.8971276 0.7139794 0.9423659
0.9520769 0.7224634 0.9354218
0.9507504 0.7317789 0.9411840
0.9657887 0.7358198 0.9346508
0.1033835 0.6724871 0.9224731
0.2008029 0.6791049 0.9249723
0.3136609 0.7005351 0.9353216
0.6729199 0.7546510 0.9494110
0.8109705 0.7718528 0.9488011
0.8949356 0.7914643 0.9505356
0.9301996 0.7944184 0.9468318
0.9628921 0.8041095 0.9467611
0.9735876 0.8060606 0.9426500
0.3117616 0.7629969 0.9463314
0.3169404 0.7712227 0.9504805
0.3942336 0.7841267 0.9536778
0.5096965 0.8033481 0.9573844
0.6874540 0.8311669 0.9605102
0.8142086 0.8513455 0.9613793
0.9125755 0.8655710 0.9602879
0.9599165 0.8710737 0.9571790
0.9767435 0.8737245 0.9547800
0.3545814 0.8278175 0.9604370
0.3952400 0.8333133 0.9612996
0.4811969 0.8458822 0.9631154
0.5971466 0.8653763 0.9660507
0.6916733 0.8808156 0.9672801
0.7855477 0.8962517 0.9679455
0.8860631 0.9112021 0.9678665
0.9424227 0.9188086 0.9655674
0.9657462 0.9198482 0.9609755
0.5240102 0.8803922 0.9685063
0.5436789 0.8838426 0.9690507
0.5859165 0.8910765 0.9700100
0.6383290 0.8998641 0.9708031
0.6979023 0.9099302 0.9714493
0.7779059 0.9232543 0.9717610
0.8786644 0.9388448 0.9709589
0.9263106 0.9449136 0.9682390
0.9550939 0.9482624 0.9659616
0.5664455 0.9050146 0.9715512
0.5767342 0.9067314 0.9717014
0.6008462 0.9107687 0.9720176
0.6386310 0.9172106 0.9725139
0.6872094 0.9256718 0.9731652
0.7922381 0.9427458 0.9737684
0.8712648 0.9552211 0.9734581
0.9209231 0.9625853 0.9724982
0.9489197 0.9664683 0.9708576
