LumaGrade-Vercel/public/luts/gold-200.cube
TITLE "Kodak Gold 200 Spectral Print"
LUT_3D_SIZE 5
0.0531094 0.0595012 0.0671819
0.3344228 0.0837609 0.0602981
0.7046022 0.0872493 0.0544903
0.7562152 0.0881981 0.0622396
0.7752879 0.0996407 0.0650968
0.0419367 0.0849221 0.0712158
0.1175018 0.0940215 0.0707992
0.5759032 0.1093772 0.0506758
0.7595838 0.1127485 0.0627445
0.8059383 0.1283969 0.0696823
0.0059342 0.2775858 0.0730207
0.2010018 0.3162557 0.0600989
0.5040238 0.3732479 0.0262523
0.8179672 0.4061058 0.0714798
0.9119367 0.4200595 0.0854909
0.0219982 0.4719778 0.0471573
0.1274973 0.5171922 0.0273081
0.6061775 0.6215174 0.0432933
0.8269174 0.6619610 0.0728166
0.9600765 0.6832805 0.0926506
0.1096726 0.6160142 0.0756775
0.1608914 0.6345494 0.0591039
0.7111669 0.7491420 0.0619714
0.8424829 0.7838444 0.0751403
0.9702200 0.8112733 0.0941577
0.0427256 0.0670579 0.1236764
0.1970782 0.0833034 0.1039644
0.6971149 0.0983555 0.0564958
0.7701625 0.1119183 0.0643293
0.7920217 0.1252025 0.0676012
0.0384502 0.1049903 0.1079001
0.1532952 0.1188328 0.0990040
0.6366965 0.1394469 0.0695679
0.7913372 0.1436219 0.0674988
0.8362010 0.1843772 0.0742029
0.0813505 0.3649971 0.1194454
0.2140495 0.3871033 0.1087018
0.5490004 0.4444649 0.0677198
0.8329629 0.4688467 0.0857945
0.9305318 0.4826991 0.0965918
0.0328385 0.5594404 0.1599302
0.2402726 0.5982884 0.1223742
0.6624320 0.6736470 0.0730336
0.8307515 0.7122239 0.0733892
0.9712147 0.7328387 0.0943056
0.1471787 0.6976734 0.2598610
0.3520163 0.7306679 0.2317766
0.7158537 0.7980463 0.1646978
0.8609000 0.8317161 0.1921892
0.9602502 0.8569080 0.2300110
0.0798546 0.0397653 0.5732219
0.1996004 0.0970567 0.5464894
0.5956719 0.1321827 0.5396914
0.8097130 0.1415566 0.4457269
0.8342850 0.1844765 0.4045040
0.0423202 0.1811883 0.5852197
0.2591519 0.2140215 0.5425633
0.7258989 0.2540823 0.4940660
0.8523304 0.2911141 0.4960242
0.8846087 0.3315626 0.4489027
0.0411194 0.4839582 0.6160378
0.1405460 0.5119516 0.6163317
0.5715966 0.5843679 0.5944120
0.8691823 0.6120659 0.5472475
0.9542004 0.6274198 0.5187085
0.1434852 0.7089186 0.6521709
0.2538019 0.7279716 0.6555654
0.5500292 0.7830854 0.6428421
0.8205273 0.8233204 0.6115778
0.9587221 0.8359694 0.5860645
0.5004095 0.8506075 0.6873460
0.6005675 0.8678089 0.6842913
0.7056571 0.8846374 0.6740932
0.8156104 0.9042519 0.6726213
0.9491594 0.9222293 0.6520351
0.0655383 0.2338008 0.7782359
0.2475817 0.2755480 0.8002574
0.6333824 0.3325895 0.8227624
0.8381889 0.3575351 0.8164936
0.9071243 0.4160128 0.8008671
0.1309309 0.3606913 0.8065010
0.2261360 0.3984129 0.8353181
0.7821755 0.4393462 0.8180444
0.8964652 0.4667326 0.7998348
0.9293396 0.5071014 0.7821782
0.0771837 0.5755264 0.8413952
0.2758667 0.6079716 0.8517815
0.6552581 0.6825763 0.8594504
0.9062302 0.7127976 0.8406073
0.9589897 0.7221042 0.8207051
0.2246026 0.7752795 0.8857915
0.2925880 0.7919658 0.8883062
0.6234609 0.8420246 0.8853926
0.8445782 0.8736970 0.8731058
0.9549285 0.8872666 0.8592505
0.5497249 0.8898697 0.9004387
0.5908995 0.8966711 0.9000907
0.6971029 0.9142296 0.9011705
0.8343170 0.9359062 0.8912553
0.9321232 0.9508817 0.8800403
0.1565020 0.4697552 0.8657082
0.1516080 0.5274168 0.9079528
0.6604998 0.5891744 0.9299995
0.8742999 0.6191181 0.9346542
0.9399037 0.6397316 0.9356162
0.1093905 0.5542889 0.8982508
0.3076347 0.5956710 0.9210591
0.6544866 0.6557848 0.9417725
0.9218958 0.6742957 0.9397025
0.9546322 0.6918905 0.9389941
0.1033835 0.6724871 0.9224731
0.3136609 0.7005351 0.9353216
0.8109705 0.7718528 0.9488011
0.9301996 0.7944184 0.9468318
0.9735876 0.8060606 0.9426500
0.3545814 0.8278175 0.9604370
0.4811969 0.8458822 0.9631154
0.6916733 0.8808156 0.9672801
0.8860631 0.9112021 0.9678665
0.9657462 0.9198482 0.9609755
0.5664455 0.9050146 0.9715512
0.6008462 0.9107687 0.9720176
0.6872094 0.9256718 0.9731652
0.8712648 0.9552211 0.9734581
0.9489197 0.9664683 0.9708576
