LumaGrade-Vercel/public/luts/gold-200.cube
TITLE "Kodak Gold 200 Spectral Print"
LUT_3D_SIZE 33
0.0531094 0.0595012 0.0671819
0.0531094 0.0595012 0.0671819
0.0549317 0.0597534 0.0671953
0.0618164 0.0607310 0.0672736
0.0792973 0.0632429 0.0674998
0.1149305 0.0680966 0.0677295
0.1743766 0.0748989 0.0672155
0.2471120 0.0806949 0.0650660
0.3344228 0.0837609 0.0602981
0.4206413 0.0823270 0.0528960
0.4959552 0.0822019 0.0503175
0.5535606 0.0775922 0.0502191
0.5979110 0.0845363 0.0466451
0.6348543 0.0897019 0.0439695
0.6645249 0.0888341 0.0484528
0.6879213 0.0879066 0.0519798
0.7046022 0.0872493 0.0544903
0.7171722 0.0867782 0.0563801
0.7269623 0.0864825 0.0578508
0.7346230 0.0863522 0.0590009
0.7411389 0.0863761 0.0599787
0.7464723 0.0865982 0.0607788
0.7504650 0.0870076 0.0613775
0.7535520 0.0875599 0.0618403
0.7562152 0.0881981 0.0622396
0.7585547 0.0889360 0.0625902
0.7607006 0.0898322 0.0629118
0.7627537 0.0908981 0.0632195
0.7648017 0.0921213 0.0635263
0.7668841 0.0934819 0.0638383
0.7692966 0.0951933 0.0641996
0.7721784 0.0973365 0.0646312
0.7752879 0.0996407 0.0650968
0.0531094 0.0595012 0.0671819
0.0531094 0.0595012 0.0671819
0.0532347 0.0595185 0.0671827
0.0559902 0.0599015 0.0672049
0.0621997 0.0607859 0.0672785
0.0800817 0.0633545 0.0675087
0.1244860 0.0693118 0.0677279
0.1931396 0.0766641 0.0668169
0.2773592 0.0822531 0.0636946
0.3694478 0.0837406 0.0576566
0.4509308 0.0844006 0.0503834
0.5237182 0.0804251 0.0502781
0.5744493 0.0808755 0.0486950
0.6182125 0.0878696 0.0447984
0.6521447 0.0894181 0.0465836
0.6786467 0.0884898 0.0505824
0.6988304 0.0877559 0.0536220
0.7130394 0.0872753 0.0557589
0.7240319 0.0869861 0.0574107
0.7325411 0.0869061 0.0586884
0.7396385 0.0869965 0.0597536
0.7455951 0.0872454 0.0606472
0.7501913 0.0876673 0.0613365
0.7535363 0.0882159 0.0618380
0.7563859 0.0888555 0.0622652
0.7589311 0.0896482 0.0626466
0.7612588 0.0906058 0.0629955
0.7634491 0.0917270 0.0633236
0.7655891 0.0929877 0.0636443
0.7678517 0.0944779 0.0639832
0.7705513 0.0964239 0.0643875
0.7735246 0.0986350 0.0648328
0.7765572 0.1008722 0.0652869
0.0530076 0.0595421 0.0671897
0.0529319 0.0595749 0.0671959
0.0531362 0.0595960 0.0671961
0.0546331 0.0598043 0.0672070
0.0620560 0.0608608 0.0672911
0.0769042 0.0630003 0.0674860
0.1000143 0.0662344 0.0676933
0.1489434 0.0723328 0.0675892
0.2214246 0.0791286 0.0660259
0.3186639 0.0837687 0.0613614
0.4130385 0.0828534 0.0537222
0.4923970 0.0828343 0.0503401
0.5521771 0.0783544 0.0502381
0.5974002 0.0847939 0.0468302
0.6345415 0.0901471 0.0439221
0.6641216 0.0893040 0.0483919
0.6882338 0.0885541 0.0520268
0.7060041 0.0880252 0.0547011
0.7191972 0.0877478 0.0566844
0.7294050 0.0876819 0.0582176
0.7374192 0.0877868 0.0594206
0.7442107 0.0880373 0.0604395
0.7495951 0.0884336 0.0612471
0.7534564 0.0889717 0.0618260
0.7566140 0.0896639 0.0622993
0.7594004 0.0905198 0.0627170
0.7619309 0.0915389 0.0630962
0.7642620 0.0926993 0.0634454
0.7665516 0.0940379 0.0637885
0.7691666 0.0958025 0.0641802
0.7720553 0.0978891 0.0646128
0.7750123 0.1000679 0.0650556
0.7779065 0.1021835 0.0654889
0.0521901 0.0599963 0.0672737
0.0520985 0.0600997 0.0672916
0.0525305 0.0602516 0.0673087
0.0541593 0.0604326 0.0673124
0.0580102 0.0609622 0.0673476
0.0704664 0.0627257 0.0675038
0.0977800 0.0665465 0.0677684
0.1396171 0.0718745 0.0677534
0.1894246 0.0771263 0.0669985
0.2579772 0.0822000 0.0646932
0.3441798 0.0848590 0.0596879
0.4353823 0.0853551 0.0508890
0.5156281 0.0822751 0.0503373
0.5689187 0.0806668 0.0494205
0.6131933 0.0878871 0.0453104
0.6478482 0.0904348 0.0459344
0.6754037 0.0898148 0.0500936
0.6971154 0.0893156 0.0533639
0.7124038 0.0890483 0.0556634
0.7243036 0.0889523 0.0574515
0.7335386 0.0890132 0.0588381
0.7412821 0.0892171 0.0600002
0.7478904 0.0895948 0.0609914
0.7529529 0.0901601 0.0617505
0.7566797 0.0909200 0.0623092
0.7599138 0.0918465 0.0627939
0.7627813 0.0929168 0.0632236
0.7654421 0.0941861 0.0636222
0.7682576 0.0958758 0.0640440
0.7712223 0.0978697 0.0644880
0.7741749 0.0999573 0.0649302
0.7770045 0.1019930 0.0653539
0.7796281 0.1038661 0.0657466
0.0506424 0.0613596 0.0675186
0.0507110 0.0615148 0.0675420
0.0518621 0.0618883 0.0675813
0.0535764 0.0621088 0.0675889
0.0569564 0.0625494 0.0676128
0.0644491 0.0635822 0.0676949
0.0822212 0.0660784 0.0678978
0.1262835 0.0719462 0.0680565
0.1817916 0.0781040 0.0673756
0.2375045 0.0827358 0.0657276
0.3014284 0.0860787 0.0626565
0.3777786 0.0870052 0.0571968
0.4542634 0.0873170 0.0505446
0.5249671 0.0837103 0.0502264
0.5784116 0.0833491 0.0486720
0.6224719 0.0904936 0.0446330
0.6565846 0.0917393 0.0472542
0.6836745 0.0912550 0.0513401
0.7040120 0.0909157 0.0544015
0.7185454 0.0907956 0.0565864
0.7298749 0.0908473 0.0582881
0.7386726 0.0910991 0.0596087
0.7461270 0.0915164 0.0607270
0.7522491 0.0920892 0.0616450
0.7568567 0.0928344 0.0623357
0.7604701 0.0937511 0.0628773
0.7640254 0.0950616 0.0634100
0.7674568 0.0967237 0.0639241
0.7707214 0.0986035 0.0644130
0.7737736 0.1005409 0.0648701
0.7765948 0.1024245 0.0652925
0.7791554 0.1041665 0.0656759
0.7816108 0.1058593 0.0660434
0.0487572 0.0640512 0.0679892
0.0489541 0.0642945 0.0680233
0.0510603 0.0647953 0.0680611
0.0525041 0.0654126 0.0681350
0.0566846 0.0657465 0.0681269
0.0628139 0.0665302 0.0681778
0.0757936 0.0682913 0.0683110
0.0966949 0.0711068 0.0684579
0.1498933 0.0777699 0.0682835
0.2198373 0.0845711 0.0667019
0.2887495 0.0888538 0.0636738
0.3522596 0.0904843 0.0593897
0.4164381 0.0897928 0.0534671
0.4772916 0.0896408 0.0503109
0.5398869 0.0861992 0.0500607
0.5845131 0.0861029 0.0487493
0.6277077 0.0930583 0.0448570
0.6629730 0.0939858 0.0482186
0.6903871 0.0936744 0.0523511
0.7101709 0.0935432 0.0553277
0.7245733 0.0936254 0.0574920
0.7357184 0.0939082 0.0591653
0.7444347 0.0943777 0.0604731
0.7519614 0.0951070 0.0616019
0.7581946 0.0961529 0.0625363
0.7629817 0.0974768 0.0632536
0.7670524 0.0989584 0.0638635
0.7706544 0.1005127 0.0644030
0.7738222 0.1020799 0.0648774
0.7765721 0.1035898 0.0652891
0.7790810 0.1050800 0.0656647
0.7815922 0.1066869 0.0660406
0.7842370 0.1084906 0.0664364
0.0466565 0.0693301 0.0688780
0.0469344 0.0696600 0.0689195
0.0490124 0.0701179 0.0689399
0.0534498 0.0712574 0.0690381
0.0546124 0.0720050 0.0691349
0.0635917 0.0723913 0.0690777
0.0738805 0.0736921 0.0691534
0.0931216 0.0761698 0.0692498
0.1224672 0.0798677 0.0692271
0.1840016 0.0865342 0.0682069
0.2566553 0.0922408 0.0655333
0.3343587 0.0955842 0.0608595
0.4051535 0.0957932 0.0547345
0.4577278 0.0951025 0.0505426
0.5118505 0.0935472 0.0503386
0.5547146 0.0913080 0.0501812
0.5997367 0.0915362 0.0487773
0.6367979 0.0974343 0.0453730
0.6679006 0.0978927 0.0489621
0.6966179 0.0977795 0.0532890
0.7169682 0.0979144 0.0563494
0.7317986 0.0984643 0.0585769
0.7432348 0.0992220 0.0602931
0.7523397 0.1001531 0.0616586
0.7600576 0.1011984 0.0628155
0.7660782 0.1023256 0.0637175
0.7704325 0.1034908 0.0643697
0.7740496 0.1046696 0.0649114
0.7771914 0.1059057 0.0653818
0.7800373 0.1072621 0.0658078
0.7827774 0.1088090 0.0662180
0.7856440 0.1106377 0.0666470
0.7888365 0.1128607 0.0671247
0.0446540 0.0759164 0.0699232
0.0448729 0.0761103 0.0699426
0.0466819 0.0764914 0.0699444
0.0522835 0.0773719 0.0699681
0.0572890 0.0786400 0.0700783
0.0601924 0.0794794 0.0701598
0.0766665 0.0807630 0.0700448
0.0911909 0.0825843 0.0699976
0.1207227 0.0864620 0.0699085
0.1551136 0.0905910 0.0694617
0.2139933 0.0967418 0.0678934
0.2908646 0.1024656 0.0642715
0.3789801 0.1055773 0.0577371
0.4440409 0.1052409 0.0509615
0.5031149 0.1028124 0.0507513
0.5460413 0.1014250 0.0505449
0.5813943 0.0997566 0.0503813
0.6166490 0.0992981 0.0496234
0.6517312 0.1047713 0.0465211
0.6811577 0.1046766 0.0509608
0.7052162 0.1045488 0.0545826
0.7247576 0.1046272 0.0575196
0.7398235 0.1049215 0.0597813
0.7510973 0.1054060 0.0614723
0.7599778 0.1061324 0.0628035
0.7674098 0.1069946 0.0639170
0.7731529 0.1080448 0.0647772
0.7775250 0.1093221 0.0654318
0.7815002 0.1108564 0.0660268
0.7853121 0.1127125 0.0665973
0.7890446 0.1148698 0.0671558
0.7927933 0.1172992 0.0677166
0.7966024 0.1199416 0.0682864
0.0419367 0.0849221 0.0712158
0.0422205 0.0848952 0.0711502
0.0437569 0.0853203 0.0711124
0.0497326 0.0856958 0.0709791
0.0606538 0.0873092 0.0710044
0.0643268 0.0887812 0.0711151
0.0739097 0.0897995 0.0711038
0.0965584 0.0912912 0.0709128
0.1175018 0.0940215 0.0707992
0.1530340 0.0983538 0.0703186
0.1942370 0.1028250 0.0692993
0.2450184 0.1075028 0.0673497
0.3285329 0.1129895 0.0624300
0.4114957 0.1152933 0.0551084
0.4811634 0.1144874 0.0522584
0.5374780 0.1118843 0.0513232
0.5759032 0.1093772 0.0506758
0.6094037 0.1078790 0.0504940
0.6416023 0.1080126 0.0496498
0.6671686 0.1113327 0.0488517
0.6942871 0.1114701 0.0529382
0.7175844 0.1115312 0.0564420
0.7343792 0.1116631 0.0589643
0.7475448 0.1119415 0.0609396
0.7595838 0.1127485 0.0627445
0.7691519 0.1137741 0.0641780
0.7773253 0.1151796 0.0654019
0.7838400 0.1169726 0.0663770
0.7890412 0.1189842 0.0671553
0.7937596 0.1211661 0.0678612
0.7980933 0.1234826 0.0685093
0.8021156 0.1259025 0.0691108
0.8059383 0.1283969 0.0696823
0.0378930 0.0973941 0.0725041
0.0382490 0.0973305 0.0724766
0.0393972 0.0978201 0.0725017
0.0455921 0.0980831 0.0724311
0.0576716 0.0993615 0.0724288
0.0718330 0.1021932 0.0725622
0.0758181 0.1037443 0.0726694
0.0954345 0.1053255 0.0725043
0.1278000 0.1086908 0.0721167
0.1511644 0.1118859 0.0717450
0.1925691 0.1168499 0.0706553
0.2328170 0.1208447 0.0690895
0.2820547 0.1251037 0.0665309
0.3675209 0.1302988 0.0601648
0.4428653 0.1323188 0.0522104
0.5204275 0.1315856 0.0536362
0.5680832 0.1297028 0.0527323
0.6068475 0.1272582 0.0518893
0.6417112 0.1247905 0.0510889
0.6700953 0.1226723 0.0504188
0.6945401 0.1224925 0.0529763
0.7153313 0.1232423 0.0561034
0.7359621 0.1237310 0.0592019
0.7520104 0.1241096 0.0616092
0.7645525 0.1245749 0.0634889
0.7743942 0.1251390 0.0649630
0.7835657 0.1261450 0.0663360
0.7919305 0.1275238 0.0675876
0.7981980 0.1290213 0.0685250
0.8032468 0.1308703 0.0692799
0.8077374 0.1328563 0.0699512
0.8117897 0.1349454 0.0705569
0.8158292 0.1373905 0.0711605
0.0316046 0.1139004 0.0743071
0.0320241 0.1137844 0.0742882
0.0329128 0.1143585 0.0743182
0.0391466 0.1141701 0.0742223
0.0529583 0.1145742 0.0740986
0.0761109 0.1174260 0.0740455
0.0865506 0.1212012 0.0742059
0.0922396 0.1240670 0.0743464
0.1295139 0.1254621 0.0735700
0.1635280 0.1286410 0.0727273
0.1912255 0.1325019 0.0719065
0.2305903 0.1368285 0.0702818
0.2789280 0.1413141 0.0676550
0.3283099 0.1452329 0.0642125
0.4065290 0.1498864 0.0569025
0.4792143 0.1519706 0.0513861
0.5481272 0.1519036 0.0553838
0.5973518 0.1506010 0.0543341
0.6370290 0.1488768 0.0533990
0.6717060 0.1468049 0.0525057
0.6967556 0.1455225 0.0533097
0.7183914 0.1445074 0.0565633
0.7383375 0.1438835 0.0595584
0.7544957 0.1438270 0.0619818
0.7687234 0.1436671 0.0641138
0.7813927 0.1433571 0.0660107
0.7912328 0.1436347 0.0674832
0.7994751 0.1444654 0.0687160
0.8064972 0.1459115 0.0697658
0.8131323 0.1498360 0.0707575
0.8182480 0.1546498 0.0715219
0.8227741 0.1601129 0.0721980
0.8274439 0.1677305 0.0728954
0.0237506 0.1390913 0.0762822
0.0241593 0.1390148 0.0762770
0.0249806 0.1392055 0.0762792
0.0298473 0.1395930 0.0762784
0.0420256 0.1404103 0.0763495
0.0694319 0.1431767 0.0761383
0.1001239 0.1489516 0.0758474
0.1069924 0.1517216 0.0758261
0.1168413 0.1552333 0.0757390
0.1670213 0.1583591 0.0741876
0.2085301 0.1630876 0.0725088
0.2335775 0.1670325 0.0712758
0.2789411 0.1724736 0.0684862
0.3316040 0.1774292 0.0643682
0.3815329 0.1814323 0.0595108
0.4476513 0.1856494 0.0513211
0.5228727 0.1882571 0.0514257
0.5814999 0.1888030 0.0555131
0.6338822 0.1880019 0.0570919
0.6721210 0.1871943 0.0560552
0.7035064 0.1863011 0.0551504
0.7287587 0.1857550 0.0581204
0.7486057 0.1864388 0.0610986
0.7660363 0.1876570 0.0637112
0.7801127 0.1894332 0.0658191
0.7919446 0.1914316 0.0675896
0.8026837 0.1930863 0.0691957
0.8123572 0.1940711 0.0706417
0.8205361 0.1953513 0.0718637
0.8272164 0.1969362 0.0728614
0.8321007 0.1988147 0.0735908
0.8363857 0.2018371 0.0742305
0.8405206 0.2060179 0.0748476
0.0171446 0.1626972 0.0773626
0.0175098 0.1626027 0.0773660
0.0179992 0.1625457 0.0773729
0.0209351 0.1634177 0.0774288
0.0303861 0.1641156 0.0776155
0.0609537 0.1667269 0.0773823
0.1013234 0.1722570 0.0766994
0.1294600 0.1793406 0.0760240
0.1389219 0.1831982 0.0757588
0.1584665 0.1866891 0.0750526
0.2124509 0.1907651 0.0725299
0.2532547 0.1953402 0.0700660
0.2823520 0.2002436 0.0679172
0.3298945 0.2061800 0.0637507
0.3848289 0.2114982 0.0578151
0.4361311 0.2159431 0.0509217
0.4864788 0.2196014 0.0463271
0.5627491 0.2232959 0.0545277
0.6146430 0.2248636 0.0554644
0.6619872 0.2256339 0.0573436
0.7052711 0.2257939 0.0584510
0.7337985 0.2258775 0.0588769
0.7577646 0.2259091 0.0624716
0.7770606 0.2263611 0.0653621
0.7909713 0.2274984 0.0674439
0.8029178 0.2291158 0.0692306
0.8134768 0.2312165 0.0708089
0.8224417 0.2335993 0.0721482
0.8304226 0.2359263 0.0733401
0.8384114 0.2373559 0.0745327
0.8447861 0.2390757 0.0754841
0.8493534 0.2411080 0.0761656
0.8529844 0.2434076 0.0767073
0.0106349 0.1895702 0.0777709
0.0109016 0.1895339 0.0777857
0.0112398 0.1895186 0.0778046
0.0125697 0.1904942 0.0778497
0.0179098 0.1913944 0.0780830
0.0456194 0.1943054 0.0780449
0.0938114 0.1996593 0.0770485
0.1489785 0.2096412 0.0750668
0.1596521 0.2144258 0.0744818
0.1700363 0.2189967 0.0738556
0.2084793 0.2235661 0.0716825
0.2583470 0.2275645 0.0682819
0.3061129 0.2334556 0.0640635
0.3359362 0.2388563 0.0607720
0.3834471 0.2450463 0.0547557
0.4411732 0.2507192 0.0457911
0.4867960 0.2547539 0.0408988
0.5323002 0.2583465 0.0464189
0.5994034 0.2623508 0.0563784
0.6479380 0.2643614 0.0586037
0.6932525 0.2660213 0.0594679
0.7376565 0.2668696 0.0603514
0.7634277 0.2675076 0.0633201
0.7857516 0.2681851 0.0666628
0.8034632 0.2688852 0.0693120
0.8160306 0.2702263 0.0711903
0.8263446 0.2720280 0.0727310
0.8356035 0.2743427 0.0741135
0.8436624 0.2770573 0.0753163
0.8509466 0.2800298 0.0764031
0.8575659 0.2831518 0.0773905
0.8636477 0.2850608 0.0782974
0.8679343 0.2871877 0.0789365
0.0054051 0.2184325 0.0772762
0.0056210 0.2184376 0.0772978
0.0058678 0.2184682 0.0773230
0.0062311 0.2191748 0.0773489
0.0082637 0.2205978 0.0775158
0.0215890 0.2244030 0.0777390
0.0832581 0.2297633 0.0763604
0.1471768 0.2397731 0.0736313
0.1885347 0.2499928 0.0708137
0.1984656 0.2545457 0.0698362
0.2096668 0.2597283 0.0686401
0.2586769 0.2635695 0.0647648
0.3129286 0.2694699 0.0591798
0.3607768 0.2757524 0.0544541
0.3918711 0.2816405 0.0510574
0.4386311 0.2881555 0.0398404
0.4937702 0.2936587 0.0333121
0.5378568 0.2977982 0.0436830
0.5823503 0.3016723 0.0506359
0.6337293 0.3054538 0.0539781
0.6834851 0.3081035 0.0615055
0.7263727 0.3104065 0.0625550
0.7625709 0.3120591 0.0632747
0.7934087 0.3131032 0.0678084
0.8135116 0.3141776 0.0708139
0.8286484 0.3151947 0.0730750
0.8409960 0.3162879 0.0749183
0.8503019 0.3182366 0.0763069
0.8581277 0.3204474 0.0774742
0.8654322 0.3232514 0.0785634
0.8722278 0.3264017 0.0795764
0.8781365 0.3297060 0.0804570
0.8829789 0.3331378 0.0811786
0.0053220 0.2484227 0.0758321
0.0053470 0.2485152 0.0758454
0.0053763 0.2486356 0.0758603
0.0054346 0.2490817 0.0758598
0.0056534 0.2510987 0.0758019
0.0063592 0.2558739 0.0758887
0.0690300 0.2620805 0.0742649
0.1403066 0.2728797 0.0707367
0.2057672 0.2846311 0.0655587
0.2270180 0.2929052 0.0627304
0.2371919 0.2977935 0.0610949
0.2480882 0.3031068 0.0592088
0.3182633 0.3085083 0.0515383
0.3700506 0.3152970 0.0490070
0.4175099 0.3220003 0.0398420
0.4493424 0.3283730 0.0328314
0.4929394 0.3348089 0.0277300
0.5457896 0.3401074 0.0356486
0.5904317 0.3447618 0.0450632
0.6290438 0.3484067 0.0548656
0.6667819 0.3517599 0.0577683
0.7186692 0.3552942 0.0613495
0.7588320 0.3579375 0.0642742
0.7902930 0.3599788 0.0673423
0.8226647 0.3614680 0.0721814
0.8399805 0.3628296 0.0747668
0.8534648 0.3641679 0.0767787
0.8647014 0.3655776 0.0784545
0.8738222 0.3671417 0.0798141
0.8808194 0.3695388 0.0808569
0.8872477 0.3720608 0.0818146
0.8933235 0.3751808 0.0827196
0.8984557 0.3784472 0.0834839
0.0059342 0.2775858 0.0730207
0.0059404 0.2776957 0.0730213
0.0059484 0.2778403 0.0730206
0.0059634 0.2781090 0.0730155
0.0060843 0.2802650 0.0727928
0.0063493 0.2849142 0.0724785
0.0559844 0.2921459 0.0708347
0.1318020 0.3040618 0.0665259
0.2010018 0.3162557 0.0600989
0.2550763 0.3295675 0.0522974
0.2658123 0.3347136 0.0498024
0.2782847 0.3405904 0.0466911
0.3039452 0.3469100 0.0450579
0.3773970 0.3525214 0.0422373
0.4279446 0.3599972 0.0336195
0.4757994 0.3672755 0.0224231
0.5040238 0.3732479 0.0262523
0.5429608 0.3793861 0.0329930
0.5981013 0.3853498 0.0425489
0.6371700 0.3897850 0.0475152
0.6689435 0.3931254 0.0530902
0.6996936 0.3964085 0.0612141
0.7501184 0.4006082 0.0648482
0.7887678 0.4036742 0.0676749
0.8179672 0.4061058 0.0714798
0.8437518 0.4082142 0.0753297
0.8640162 0.4095902 0.0783523
0.8762063 0.4109999 0.0801694
0.8862592 0.4123796 0.0816673
0.8944384 0.4137340 0.0828856
0.9013610 0.4154118 0.0839165
0.9070654 0.4176837 0.0847658
0.9119367 0.4200595 0.0854909
0.0075637 0.3050351 0.0696962
0.0075782 0.3052646 0.0696683
0.0075963 0.3055513 0.0696330
0.0076250 0.3060050 0.0695764
0.0077481 0.3079385 0.0692269
0.0080803 0.3130829 0.0683664
0.0430142 0.3218615 0.0660862
0.1183439 0.3355260 0.0606359
0.1953284 0.3485880 0.0522492
0.2633110 0.3619696 0.0408418
0.2990923 0.3727899 0.0394918
0.3110502 0.3779267 0.0395167
0.3245373 0.3836903 0.0395830
0.3661777 0.3906601 0.0403342
0.4355738 0.3980924 0.0279846
0.4878731 0.4063676 0.0237942
0.5281012 0.4128179 0.0286828
0.5552157 0.4186442 0.0322602
0.5941086 0.4251562 0.0388415
0.6454716 0.4310751 0.0489181
0.6777460 0.4350421 0.0530510
0.7067622 0.4385209 0.0568000
0.7379461 0.4422835 0.0608597
0.7798316 0.4466349 0.0681710
0.8168604 0.4500183 0.0713146
0.8443877 0.4526948 0.0754247
0.8664085 0.4549118 0.0787092
0.8864129 0.4563370 0.0816904
0.8976194 0.4576280 0.0833595
0.9065578 0.4588720 0.0846903
0.9140436 0.4601108 0.0858045
0.9206263 0.4613965 0.0867841
0.9257880 0.4630721 0.0875521
0.0093684 0.3320557 0.0647901
0.0093899 0.3323611 0.0647362
0.0094155 0.3327239 0.0646720
0.0094546 0.3332759 0.0645746
0.0095752 0.3349727 0.0641832
0.0099251 0.3398347 0.0630337
0.0362927 0.3491018 0.0602577
0.1060612 0.3638317 0.0552043
0.1891447 0.3779067 0.0426258
0.2590975 0.3915582 0.0334979
0.3277733 0.4072218 0.0352490
0.3463229 0.4143308 0.0341243
0.3587819 0.4197994 0.0340799
0.3721946 0.4257880 0.0340394
0.4293450 0.4334659 0.0257068
0.4949914 0.4412690 0.0246232
0.5404493 0.4484417 0.0302834
0.5784948 0.4549181 0.0355164
0.6067496 0.4611177 0.0397017
0.6412827 0.4673320 0.0449418
0.6853831 0.4724142 0.0537446
0.7141123 0.4761845 0.0580314
0.7445646 0.4801657 0.0619895
0.7733868 0.4838564 0.0657622
0.8065042 0.4877944 0.0701133
0.8409795 0.4910809 0.0749163
0.8675029 0.4937353 0.0788725
0.8867352 0.4957639 0.0817386
0.9022528 0.4973643 0.0840496
0.9158915 0.4984520 0.0860797
0.9238570 0.4996139 0.0872649
0.9308426 0.5008066 0.0883041
0.9367824 0.5020253 0.0891876
0.0114515 0.3600669 0.0591838
0.0114829 0.3604677 0.0590721
0.0115221 0.3609672 0.0589331
0.0115836 0.3617499 0.0587147
0.0116977 0.3631949 0.0582721
0.0120650 0.3677993 0.0566078
0.0228454 0.3776503 0.0534166
0.0961720 0.3929838 0.0475832
0.1793578 0.4081891 0.0331426
0.2546168 0.4223588 0.0285309
0.3318900 0.4383233 0.0361102
0.3815720 0.4523012 0.0297005
0.3938127 0.4576259 0.0280790
0.4072921 0.4633952 0.0269326
0.4215323 0.4695616 0.0259708
0.4936920 0.4780231 0.0255839
0.5478648 0.4849325 0.0312676
0.5926743 0.4922906 0.0375846
0.6298929 0.4990537 0.0432184
0.6547083 0.5048776 0.0469707
0.6832030 0.5104145 0.0512689
0.7213248 0.5148247 0.0570039
0.7519574 0.5189231 0.0632278
0.7810357 0.5228420 0.0670224
0.8062634 0.5261590 0.0703372
0.8317770 0.5295894 0.0737045
0.8641152 0.5327744 0.0783674
0.8892073 0.5352865 0.0821069
0.9061220 0.5371386 0.0846257
0.9195746 0.5387692 0.0866279
0.9327934 0.5398160 0.0885945
0.9406000 0.5409200 0.0897555
0.9470181 0.5421022 0.0907097
0.0135093 0.3852262 0.0532847
0.0135572 0.3857876 0.0530924
0.0136128 0.3864366 0.0528694
0.0136937 0.3873800 0.0526392
0.0138036 0.3886552 0.0526353
0.0141878 0.3930747 0.0523057
0.0189552 0.4023505 0.0513761
0.0855154 0.4188708 0.0396012
0.1683418 0.4353065 0.0248936
0.2499802 0.4503143 0.0281379
0.3281676 0.4666215 0.0356311
0.4039592 0.4833713 0.0274912
0.4299363 0.4924667 0.0243275
0.4418327 0.4974579 0.0249217
0.4546745 0.5028290 0.0256757
0.4787025 0.5094219 0.0271824
0.5506105 0.5178132 0.0316364
0.5993559 0.5253150 0.0385816
0.6439299 0.5328659 0.0453420
0.6749456 0.5387017 0.0500243
0.6954266 0.5435628 0.0531095
0.7184382 0.5482302 0.0565701
0.7568306 0.5530612 0.0623316
0.7875360 0.5573414 0.0669386
0.8128641 0.5608823 0.0714417
0.8356563 0.5640668 0.0744534
0.8563111 0.5670615 0.0772035
0.8848482 0.5703451 0.0814574
0.9078016 0.5727790 0.0848757
0.9232594 0.5746002 0.0871762
0.9355668 0.5761780 0.0890069
0.9457846 0.5774797 0.0905263
0.9554630 0.5783522 0.0919651
0.0154130 0.4067615 0.0507918
0.0154686 0.4073683 0.0507772
0.0155328 0.4080676 0.0507608
0.0156273 0.4090954 0.0507380
0.0157585 0.4105153 0.0507094
0.0161151 0.4143451 0.0503861
0.0168821 0.4224330 0.0497784
0.0828944 0.4395642 0.0363843
0.1574006 0.4573621 0.0226714
0.2433309 0.4730078 0.0299284
0.3243856 0.4899827 0.0309615
0.4033055 0.5070790 0.0289941
0.4646854 0.5224891 0.0279978
0.4767222 0.5269909 0.0286180
0.4900279 0.5319021 0.0294201
0.5038028 0.5370463 0.0304649
0.5384380 0.5438209 0.0326949
0.6048297 0.5519394 0.0394092
0.6494329 0.5597351 0.0461737
0.6876138 0.5662257 0.0519332
0.7117343 0.5709381 0.0555625
0.7293457 0.5751154 0.0582085
0.7514039 0.5796419 0.0615181
0.7902958 0.5849354 0.0673428
0.8178005 0.5888653 0.0714549
0.8406320 0.5922335 0.0748950
0.8606542 0.5951684 0.0780251
0.8789846 0.5978801 0.0805837
0.9023869 0.6010386 0.0840695
0.9227608 0.6033514 0.0871019
0.9374993 0.6051377 0.0892943
0.9486644 0.6066446 0.0909544
0.9574808 0.6079540 0.0922650
0.0174247 0.4280377 0.0493313
0.0174885 0.4286903 0.0493138
0.0175616 0.4294371 0.0492943
0.0176686 0.4305269 0.0492674
0.0178171 0.4320337 0.0492327
0.0181238 0.4351235 0.0489707
0.0188250 0.4420854 0.0481287
0.0817924 0.4585922 0.0346123
0.1462401 0.4770891 0.0229821
0.2363865 0.4928628 0.0302062
0.3209355 0.5102624 0.0314999
0.4000578 0.5274326 0.0311334
0.4768258 0.5440030 0.0307529
0.5126853 0.5546735 0.0323579
0.5236213 0.5589995 0.0332217
0.5349411 0.5636022 0.0341808
0.5468402 0.5685234 0.0352183
0.5924985 0.5756161 0.0383190
0.6550653 0.5832818 0.0470246
0.6924433 0.5898958 0.0526605
0.7232963 0.5951323 0.0573000
0.7443606 0.5994630 0.0604618
0.7626421 0.6037982 0.0632025
0.7847331 0.6084613 0.0665105
0.8194163 0.6131139 0.0716962
0.8448479 0.6167154 0.0754933
0.8648797 0.6197277 0.0784812
0.8830881 0.6224645 0.0811950
0.8997725 0.6249890 0.0836801
0.9175141 0.6276388 0.0863211
0.9357951 0.6296992 0.0890407
0.9497505 0.6313411 0.0911158
0.9598040 0.6327239 0.0926102
0.0197185 0.4507586 0.0480075
0.0197919 0.4514623 0.0479782
0.0198762 0.4522676 0.0479459
0.0199992 0.4534403 0.0479006
0.0201682 0.4550446 0.0478422
0.0204023 0.4572554 0.0477429
0.0217459 0.4645563 0.0465882
0.0805077 0.4790087 0.0333049
0.1331932 0.4981981 0.0250018
0.2288861 0.5140417 0.0306585
0.3153118 0.5314009 0.0342752
0.3972171 0.5489965 0.0337165
0.4739224 0.5656171 0.0336939
0.5385304 0.5809739 0.0360873
0.5547081 0.5869275 0.0372511
0.5653320 0.5913143 0.0382226
0.5765650 0.5959779 0.0392722
0.5884547 0.6009164 0.0404058
0.6474791 0.6088343 0.0458785
0.6981605 0.6148549 0.0535210
0.7283710 0.6201569 0.0580621
0.7570833 0.6250449 0.0623695
0.7785550 0.6296075 0.0655858
0.7967430 0.6339995 0.0683072
0.8157091 0.6382799 0.0711423
0.8465356 0.6423315 0.0757451
0.8696149 0.6455203 0.0791871
0.8877117 0.6482764 0.0818838
0.9044319 0.6508338 0.0843738
0.9190968 0.6530964 0.0865566
0.9318679 0.6552688 0.0884565
0.9484527 0.6571264 0.0909228
0.9614218 0.6585881 0.0928505
0.0219982 0.4719778 0.0471573
0.0220810 0.4727251 0.0471136
0.0221755 0.4735774 0.0470650
0.0223127 0.4748101 0.0469969
0.0225016 0.4765012 0.0469073
0.0227535 0.4787447 0.0467933
