LumaGrade-Vercel/public/luts/hasselblad-natural.cube
TITLE "Hasselblad Natural Colour Reference Plus v2"
LUT_3D_SIZE 33
DOMAIN_MIN 0.0 0.0 0.0
DOMAIN_MAX 1.0 1.0 1.0
0.0000000 0.0000034 0.0000069
0.0251959 0.0000006 0.0009302
0.0484475 0.0000046 0.0016445
0.0742718 0.0000042 0.0026202
0.1012621 0.0000127 0.0039183
0.1293727 0.0000186 0.0055725
0.1585480 0.0000016 0.0076097
0.1886702 0.0000089 0.0100764
0.2197175 0.0000076 0.0128123
0.2515864 0.0000231 0.0160242
0.2842312 0.0000247 0.0197340
0.3175493 0.0000986 0.0240263
0.3515551 0.0000765 0.0288484
0.3861235 0.0001154 0.0343226
0.4212686 0.0000065 0.0403735
0.4568415 0.0000415 0.0467846
0.4928551 0.0000059 0.0532454
0.5292038 0.0001131 0.0598474
0.5659102 0.0000560 0.0664556
0.6028844 0.0000098 0.0730891
0.6400534 0.0001466 0.0796693
0.6774264 0.0001643 0.0861229
0.7149512 0.0000717 0.0924716
0.7524880 0.0004927 0.0988957
0.7901667 0.0002600 0.1050743
0.8277554 0.0007075 0.1113651
0.8653993 0.0004161 0.1174189
0.9029515 0.0001638 0.1234519
0.9402763 0.0008505 0.1296170
0.9775705 0.0003559 0.1354098
0.9998993 0.1090590 0.1679576
0.9999582 0.2238535 0.2286141
0.9998771 0.2970228 0.2801704
0.0004686 0.0139513 0.0000009
0.0161186 0.0161095 0.0000022
0.0418050 0.0190779 0.0000005
0.0777381 0.0212713 0.0000003
0.1093511 0.0199001 0.0000077
0.1402134 0.0171980 0.0000022
0.1714416 0.0136648 0.0000126
0.2033888 0.0092862 0.0000091
0.2360912 0.0040239 0.0000059
0.2683704 0.0000570 0.0010043
0.2993867 0.0000018 0.0045762
0.3313123 0.0000853 0.0086948
0.3641360 0.0000649 0.0132894
0.3976828 0.0001236 0.0185141
0.4319035 0.0001531 0.0243585
0.4667197 0.0001387 0.0308596
0.5020229 0.0002136 0.0381320
0.5378080 0.0001297 0.0457763
0.5739307 0.0002410 0.0534336
0.6104003 0.0002601 0.0608939
0.6471514 0.0002386 0.0681097
0.6841319 0.0001519 0.0751371
0.7212149 0.0004760 0.0821605
0.7585307 0.0000526 0.0888226
0.7957734 0.0006344 0.0956741
0.8331767 0.0002235 0.1021440
0.8705128 0.0001497 0.1086254
0.9077282 0.0005582 0.1151626
0.9449128 0.0003240 0.1214367
0.9819402 0.0001788 0.1275905
0.9998977 0.1270508 0.1690693
0.9999327 0.2328596 0.2299631
0.9999499 0.3033724 0.2815248
0.0021481 0.0321885 0.0000023
0.0178428 0.0344614 0.0000017
0.0386499 0.0372858 0.0000021
0.0694327 0.0419732 0.0000043
0.1040219 0.0458868 0.0000096
0.1378616 0.0466644 0.0000108
0.1705816 0.0451589 0.0000075
0.2031547 0.0422393 0.0000168
0.2361393 0.0380772 0.0000192
0.2697074 0.0328598 0.0000021
0.3037379 0.0270043 0.0000494
0.3384276 0.0200731 0.0000597
0.3737448 0.0119704 0.0000352
0.4095951 0.0027639 0.0000661
0.4437326 0.0001151 0.0043627
0.4777291 0.0000765 0.0107222
0.5122699 0.0002556 0.0178847
0.5473988 0.0001488 0.0256264
0.5829525 0.0001235 0.0341946
0.6188488 0.0003061 0.0433936
0.6550866 0.0003978 0.0521190
0.6916407 0.0001586 0.0602688
0.7283241 0.0003754 0.0682749
0.7651878 0.0004109 0.0759364
0.8022071 0.0000280 0.0832409
0.8391636 0.0004858 0.0906247
0.8762104 0.0002588 0.0976451
0.9132130 0.0000019 0.1045490
0.9500598 0.0003582 0.1114392
0.9868338 0.0002024 0.1180104
0.9999979 0.1444333 0.1701562
0.9998876 0.2426232 0.2315120
0.9999985 0.3104173 0.2830942
0.0054928 0.0586103 0.0000031
0.0220636 0.0604970 0.0000067
0.0423979 0.0625324 0.0000116
0.0685556 0.0655737 0.0000022
0.0988824 0.0698940 0.0000115
0.1329815 0.0742107 0.0000044
0.1679101 0.0765958 0.0000148
0.2022080 0.0768668 0.0000031
0.2361013 0.0756973 0.0000300
0.2701158 0.0734719 0.0000431
0.3044996 0.0703596 0.0000381
0.3393254 0.0664146 0.0000123
0.3746631 0.0614571 0.0000105
0.4104913 0.0552982 0.0000757
0.4468666 0.0473395 0.0000501
0.4836949 0.0370431 0.0000448
0.5209205 0.0249028 0.0000995
0.5585483 0.0111114 0.0000994
0.5955907 0.0003413 0.0026195
0.6308205 0.0001334 0.0115135
0.6664095 0.0000246 0.0210275
0.7022816 0.0000979 0.0312315
0.7383493 0.0005581 0.0421966
0.7746870 0.0005293 0.0523345
0.8112023 0.0001876 0.0616122
0.8476906 0.0006878 0.0706818
0.8843142 0.0003736 0.0790344
0.9208500 0.0006551 0.0872745
0.9574083 0.0001738 0.0949374
0.9937527 0.0007019 0.1025685
0.9998963 0.1669007 0.1721401
0.9999950 0.2555555 0.2335017
0.9999306 0.3203855 0.2855010
0.0112230 0.0869466 0.0000105
0.0288969 0.0884757 0.0000015
0.0493023 0.0901054 0.0000218
0.0733855 0.0923812 0.0000137
0.1003010 0.0954997 0.0000259
0.1306219 0.0995868 0.0000176
0.1643004 0.1039339 0.0000327
0.1996274 0.1071780 0.0000426
0.2350126 0.1087241 0.0000457
0.2701163 0.1088122 0.0000110
0.3051319 0.1078601 0.0000271
0.3403181 0.1061139 0.0000375
0.3758223 0.1036821 0.0000338
0.4117503 0.1005134 0.0000012
0.4480792 0.0966060 0.0000480
0.4848412 0.0917798 0.0000842
0.5220033 0.0858724 0.0001273
0.5595834 0.0784832 0.0000280
0.5973777 0.0697167 0.0001566
0.6354122 0.0589092 0.0002242
0.6736784 0.0449378 0.0001306
0.7120351 0.0274322 0.0002035
0.7504920 0.0083503 0.0002776
0.7873458 0.0000268 0.0069621
0.8231226 0.0003534 0.0189983
0.8590600 0.0004317 0.0315113
0.8950570 0.0006100 0.0445288
0.9311071 0.0004866 0.0562436
0.9671301 0.0003218 0.0667656
0.9998898 0.0319344 0.0868138
0.9999848 0.1922131 0.1744246
0.9999211 0.2721778 0.2364676
0.9999214 0.3330839 0.2886333
0.0200776 0.1166226 0.0000056
0.0389625 0.1179003 0.0000167
0.0583896 0.1192829 0.0000112
0.0809099 0.1211795 0.0000038
0.1060409 0.1236552 0.0000019
0.1336688 0.1268322 0.0000428
0.1641760 0.1307689 0.0000325
0.1976356 0.1350257 0.0000014
0.2330376 0.1386816 0.0000114
0.2690631 0.1410775 0.0000423
0.3050485 0.1421697 0.0000856
0.3409894 0.1421643 0.0000083
0.3769427 0.1413773 0.0000179
0.4130713 0.1399488 0.0000670
0.4495102 0.1378883 0.0000682
0.4862775 0.1352186 0.0000997
0.5233874 0.1318915 0.0001491
0.5608371 0.1278193 0.0001596
0.5985839 0.1229410 0.0000354
0.6364937 0.1173707 0.0001052
0.6746353 0.1107577 0.0000061
0.7128757 0.1031748 0.0000669
0.7512283 0.0942583 0.0000917
0.7896356 0.0837190 0.0001442
0.8280393 0.0710996 0.0003093
0.8664733 0.0549663 0.0002697
0.9048838 0.0329773 0.0000994
0.9431467 0.0081543 0.0001257
0.9793296 0.0008289 0.0103322
0.9999553 0.1092220 0.0887002
0.9999224 0.2203587 0.1776562
0.9999312 0.2916032 0.2401063
0.9999891 0.3483485 0.2925246
0.0333559 0.1474079 0.0000183
0.0517951 0.1485720 0.0000045
0.0693786 0.1497646 0.0000346
0.0903664 0.1514133 0.0000071
0.1141252 0.1535289 0.0000398
0.1401632 0.1561599 0.0000203
0.1684419 0.1593790 0.0000608
0.1992216 0.1632063 0.0000234
0.2325810 0.1673519 0.0000109
0.2679363 0.1711800 0.0000180
0.3042861 0.1741054 0.0000664
0.3409217 0.1759049 0.0000485
0.3775408 0.1766965 0.0000902
0.4141894 0.1766418 0.0000381
0.4509125 0.1759336 0.0000496
0.4877943 0.1746684 0.0001560
0.5249786 0.1727788 0.0000487
0.5623363 0.1704459 0.0001563
0.5999727 0.1675198 0.0000613
0.6377947 0.1640751 0.0000253
0.6757555 0.1601196 0.0001231
0.7138770 0.1555139 0.0001318
0.7521113 0.1502121 0.0000849
0.7904067 0.1441655 0.0000348
0.8287088 0.1373231 0.0000584
0.8669591 0.1296351 0.0002731
0.9051948 0.1206972 0.0003307
0.9433064 0.1105128 0.0004574
0.9813493 0.0983188 0.0001108
0.9999789 0.1627866 0.0912652
0.9999426 0.2500068 0.1814717
0.9999050 0.3135957 0.2446296
0.9998804 0.3662685 0.2975253
0.0511259 0.1791625 0.0000493
0.0670654 0.1801722 0.0000382
0.0825023 0.1812727 0.0000393
0.1016217 0.1827880 0.0000229
0.1239241 0.1846871 0.0000343
0.1487145 0.1869780 0.0000579
0.1755522 0.1897208 0.0000587
0.2044179 0.1929633 0.0000689
0.2354824 0.1967025 0.0000827
0.2688410 0.2007284 0.0000011
0.3040985 0.2046053 0.0001006
0.3405961 0.2078236 0.0000400
0.3776122 0.2101280 0.0000222
0.4147421 0.2115163 0.0001518
0.4519393 0.2120584 0.0000777
0.4891715 0.2119202 0.0000263
0.5264325 0.2112652 0.0002200
0.5639035 0.2100302 0.0000690
0.6014579 0.2084027 0.0001976
0.6392284 0.2062505 0.0000509
0.6770791 0.2037271 0.0001643
0.7150501 0.2007476 0.0002690
0.7531872 0.1971654 0.0000055
0.7912948 0.1932224 0.0001434
0.8294001 0.1887997 0.0004100
0.8675376 0.1837103 0.0004670
0.9056879 0.1778337 0.0001300
0.9436317 0.1715507 0.0003118
0.9814090 0.1646416 0.0005971
0.9999377 0.2092595 0.0946346
0.9999132 0.2809300 0.1861437
0.9999564 0.3375480 0.2499123
0.9999824 0.3860842 0.3032055
0.0695286 0.2118588 0.0000495
0.0833429 0.2127459 0.0000251
0.0972114 0.2137149 0.0000541
0.1148159 0.2150579 0.0000911
0.1355746 0.2167942 0.0000366
0.1589229 0.2188985 0.0000480
0.1844772 0.2213563 0.0000541
0.2120169 0.2241761 0.0000533
0.2413994 0.2274209 0.0001206
0.2727509 0.2310767 0.0001019
0.3061436 0.2349839 0.0000014
0.3413134 0.2388301 0.0001460
0.3778055 0.2422053 0.0001062
0.4149998 0.2448460 0.0001514
0.4524906 0.2466549 0.0001971
0.4900926 0.2476645 0.0000630
0.5276881 0.2480169 0.0000323
0.5653001 0.2478066 0.0000357
0.6029311 0.2471358 0.0001995
0.6406934 0.2459663 0.0000739
0.6784952 0.2444252 0.0001553
0.7164113 0.2424364 0.0000380
0.7543633 0.2400752 0.0000420
0.7923248 0.2373480 0.0001968
0.8303433 0.2341308 0.0001026
0.8683022 0.2305350 0.0002269
0.9061882 0.2265183 0.0003695
0.9439565 0.2220819 0.0005667
0.9816617 0.2170110 0.0002380
0.9998989 0.2521088 0.0986140
0.9999184 0.3125997 0.1915396
0.9999402 0.3632599 0.2561853
0.9998909 0.4079713 0.3100859
0.0883108 0.2453593 0.0001185
0.1004334 0.2461492 0.0000425
0.1129523 0.2470077 0.0001049
0.1291255 0.2482162 0.0000535
0.1485847 0.2497676 0.0001306
0.1707010 0.2516696 0.0001330
0.1950479 0.2539060 0.0000973
0.2213305 0.2564666 0.0001318
0.2493788 0.2593654 0.0001340
0.2792111 0.2625986 0.0000692
0.3108225 0.2661676 0.0000662
0.3442544 0.2699559 0.0000473
0.3793583 0.2737199 0.0000775
0.4157738 0.2771448 0.0001171
0.4530257 0.2799708 0.0002115
0.4907253 0.2820609 0.0000433
0.5285334 0.2834570 0.0000921
0.5663718 0.2842014 0.0000984
0.6042170 0.2843675 0.0000110
0.6419850 0.2841033 0.0003435
0.6798401 0.2833336 0.0002181
0.7176963 0.2821737 0.0001756
0.7555707 0.2806268 0.0001081
0.7933858 0.2787830 0.0004226
0.8312864 0.2764463 0.0001505
0.8690345 0.2738879 0.0005298
0.9067744 0.2708728 0.0004617
0.9443837 0.2675199 0.0004945
0.9818205 0.2638419 0.0006781
0.9999061 0.2927130 0.1030325
0.9999090 0.3448249 0.1977510
0.9999414 0.3902565 0.2633350
0.9999643 0.4312397 0.3177317
0.1073089 0.2795656 0.0000693
0.1181453 0.2802589 0.0001014
0.1294687 0.2810322 0.0000885
0.1443722 0.2821175 0.0000205
0.1625595 0.2835219 0.0000152
0.1835194 0.2852369 0.0001437
0.2067627 0.2872688 0.0001127
0.2319855 0.2895940 0.0001159
0.2589499 0.2922111 0.0000728
0.2875340 0.2951225 0.0000367
0.3177097 0.2983328 0.0000571
0.3495112 0.3018195 0.0001870
0.3830063 0.3054733 0.0000770
0.4180664 0.3091084 0.0000307
0.4543843 0.3124944 0.0001142
0.4915858 0.3154050 0.0001143
0.5292749 0.3177122 0.0001610
0.5671682 0.3193815 0.0002872
0.6051334 0.3204242 0.0002931
0.6430869 0.3209049 0.0002596
0.6810245 0.3208707 0.0000624
0.7188421 0.3204609 0.0003813
0.7567008 0.3195786 0.0001563
0.7944822 0.3183531 0.0001767
0.8322195 0.3167619 0.0001227
0.8698334 0.3148889 0.0004028
0.9073930 0.3126356 0.0003757
0.9447878 0.3101084 0.0006165
0.9820830 0.3071802 0.0004387
0.9999768 0.3317595 0.1077400
0.9999302 0.3773318 0.2046623
0.9999071 0.4182856 0.2714300
0.9999060 0.4559114 0.3265184
0.1265681 0.3143428 0.0001357
0.1362805 0.3149685 0.0000878
0.1466207 0.3156577 0.0001322
0.1603902 0.3166327 0.0000864
0.1773986 0.3179022 0.0000747
0.1972141 0.3194604 0.0001703
0.2193930 0.3213073 0.0002181
0.2435848 0.3234367 0.0000314
0.2695645 0.3258181 0.0000537
0.2971308 0.3284538 0.0001555
0.3262033 0.3313415 0.0000915
0.3567541 0.3344752 0.0000324
0.3887955 0.3378305 0.0000539
0.4223259 0.3413337 0.0002040
0.4572815 0.3448364 0.0002183
0.4934443 0.3481459 0.0001698
0.5305050 0.3510695 0.0000212
0.5681035 0.3534835 0.0000294
0.6059589 0.3553320 0.0002293
0.6439496 0.3565773 0.0001022
0.6818831 0.3573112 0.0003525
0.7198260 0.3575032 0.0000703
0.7576509 0.3572784 0.0000926
0.7953964 0.3566427 0.0000489
0.8330116 0.3556683 0.0002525
0.8705031 0.3543674 0.0005596
0.9079608 0.3526438 0.0001484
0.9452064 0.3506740 0.0002261
0.9823121 0.3483594 0.0000380
0.9999990 0.3697534 0.1129856
0.9998944 0.4100432 0.2123878
0.9998878 0.4470200 0.2803590
0.9999152 0.4815272 0.3361659
0.1459304 0.3496008 0.0001128
0.1547420 0.3501606 0.0000832
0.1642123 0.3507810 0.0001116
0.1769637 0.3516597 0.0000625
0.1928893 0.3528066 0.0000677
0.2116374 0.3542171 0.0001841
0.2327986 0.3558947 0.0001990
0.2560509 0.3578241 0.0001480
0.2811232 0.3599903 0.0000416
0.3078100 0.3623757 0.0001132
0.3359465 0.3649820 0.0001716
0.3654516 0.3678088 0.0000311
0.3962939 0.3708458 0.0000522
0.4284707 0.3740724 0.0003026
0.4620199 0.3774182 0.0001270
0.4968266 0.3807779 0.0003620
0.5327847 0.3839796 0.0002217
0.5696180 0.3868673 0.0000670
0.6069952 0.3893343 0.0003592
0.6447574 0.3912569 0.0001154
0.6826205 0.3926585 0.0002027
0.7205100 0.3935255 0.0001270
0.7583011 0.3939277 0.0003682
0.7960291 0.3938544 0.0002463
0.8336254 0.3933778 0.0001533
0.8710182 0.3925834 0.0005633
0.9082943 0.3914123 0.0006068
0.9454671 0.3898470 0.0000245
0.9823545 0.3880650 0.0002092
0.9999457 0.4068664 0.1186700
0.9999164 0.4426759 0.2205917
0.9999147 0.4761973 0.2900045
0.9999229 0.5079077 0.3467208
0.1656499 0.3851845 0.0001616
0.1737375 0.3856769 0.0002456
0.1824112 0.3862441 0.0000298
0.1943019 0.3870229 0.0001022
0.2092857 0.3880411 0.0002904
0.2269716 0.3893281 0.0000331
0.2471492 0.3908443 0.0000166
0.2694860 0.3925805 0.0002971
0.2936443 0.3945494 0.0002475
0.3194341 0.3967247 0.0001865
0.3466777 0.3990985 0.0000242
0.3752522 0.4016567 0.0002209
0.4050747 0.4044069 0.0002582
0.4361171 0.4073382 0.0003548
0.4684011 0.4104238 0.0000423
0.5018943 0.4136099 0.0000168
0.5365403 0.4168063 0.0002139
0.5722191 0.4198853 0.0004663
0.6087544 0.4226991 0.0004695
0.6458934 0.4251305 0.0004051
0.6833831 0.4271072 0.0004990
0.7210588 0.4285759 0.0004997
0.7587723 0.4295386 0.0004478
0.7963970 0.4300401 0.0006473
0.8339380 0.4300722 0.0004600
0.8713031 0.4297100 0.0004348
0.9084867 0.4289741 0.0003880
0.9454947 0.4278704 0.0000840
0.9822428 0.4264800 0.0001496
0.9999731 0.4430019 0.1239035
0.9999803 0.4751144 0.2291531
0.9998896 0.5056884 0.3004365
0.9999718 0.5347923 0.3580552
0.1859895 0.4209434 0.0002243
0.1933822 0.4213876 0.0002258
0.2014242 0.4218867 0.0001821
0.2124742 0.4225846 0.0002663
0.2264720 0.4235097 0.0002454
0.2432002 0.4246609 0.0001939
0.2623823 0.4260329 0.0001705
0.2837314 0.4276161 0.0002237
0.3069787 0.4293995 0.0003941
0.3318692 0.4313829 0.0002985
0.3582391 0.4335430 0.0003083
0.3859318 0.4358747 0.0003036
0.4148395 0.4383707 0.0004106
0.4449037 0.4410315 0.0000389
0.4760837 0.4438398 0.0000497
0.5083707 0.4467775 0.0001792
0.5417695 0.4497949 0.0001052
0.5762079 0.4528199 0.0003696
0.6116288 0.4557341 0.0001818
0.6478203 0.4584337 0.0004427
0.6846338 0.4607879 0.0004138
0.7218599 0.4627113 0.0000971
0.7592098 0.4642111 0.0006697
0.7966939 0.4651886 0.0002377
0.8340415 0.4657498 0.0006609
0.8712961 0.4658495 0.0006265
0.9084232 0.4655026 0.0000094
0.9452450 0.4648480 0.0003528
0.9818317 0.4638462 0.0006408
0.9999286 0.4783350 0.1289237
0.9999592 0.5073305 0.2381805
0.9999337 0.5352005 0.3113280
0.9999750 0.5620329 0.3702081
0.2067130 0.4568053 0.0002735
0.2135080 0.4572031 0.0002683
0.2209292 0.4576534 0.0001557
0.2312384 0.4582715 0.0004248
0.2443338 0.4591060 0.0003397
0.2601253 0.4601384 0.0004218
0.2783182 0.4613827 0.0002856
0.2987132 0.4628142 0.0004333
0.3210133 0.4644390 0.0004497
0.3450019 0.4662443 0.0003562
0.3704899 0.4682172 0.0001485
0.3973287 0.4703378 0.0002611
0.4253723 0.4726114 0.0000429
0.4545341 0.4750215 0.0001530
0.4847426 0.4775677 0.0005147
0.5159886 0.4802434 0.0001827
0.5482384 0.4830229 0.0001407
0.5814854 0.4858640 0.0002320
0.6156919 0.4886987 0.0005565
0.6508334 0.4914184 0.0000535
0.6866835 0.4939507 0.0002922
0.7231293 0.4961777 0.0002344
0.7599474 0.4980364 0.0003981
0.7969774 0.4994700 0.0005267
0.8340555 0.5004650 0.0007999
0.8711531 0.5009699 0.0001438
0.9080220 0.5011018 0.0005777
0.9447426 0.5007975 0.0004021
0.9812051 0.5001293 0.0004369
0.9999697 0.5127245 0.1326735
0.9999450 0.5391180 0.2472795
0.9999422 0.5646385 0.3227246
0.9999651 0.5894046 0.3830317
0.2276251 0.4926997 0.0000141
0.2339107 0.4930519 0.0000958
0.2407917 0.4934545 0.0000001
0.2503739 0.4940132 0.0001504
0.2626616 0.4947581 0.0001803
0.2775371 0.4956902 0.0001724
0.2948105 0.4968069 0.0001923
0.3142573 0.4981023 0.0002938
0.3356463 0.4995682 0.0005231
0.3587262 0.5012095 0.0003685
0.3833451 0.5029988 0.0003905
0.4093120 0.5049386 0.0000138
0.4365167 0.5069981 0.0003029
0.4648197 0.5091869 0.0005103
0.4941430 0.5115019 0.0002471
0.5244370 0.5139225 0.0006054
0.5556829 0.5164433 0.0006175
0.5878721 0.5190384 0.0003224
0.6209635 0.5216731 0.0004321
0.6549283 0.5242906 0.0006304
0.6897211 0.5268068 0.0004069
0.7251795 0.5291504 0.0006818
0.7611934 0.5312227 0.0007417
0.7976327 0.5329322 0.0000831
0.8341928 0.5342941 0.0008109
0.8708929 0.5352000 0.0004879
0.9074997 0.5357027 0.0007513
0.9440332 0.5357444 0.0000891
0.9802572 0.5354501 0.0007283
0.9999147 0.5463099 0.1355861
0.9999476 0.5703694 0.2562400
0.9999393 0.5938269 0.3344503
0.9999803 0.6167053 0.3963553
0.2487274 0.5285178 0.0000790
0.2545753 0.5288252 0.0003642
0.2609830 0.5291810 0.0003951
0.2699106 0.5296826 0.0005205
0.2813884 0.5303603 0.0002928
0.2954188 0.5311941 0.0003995
0.3117708 0.5322034 0.0003070
0.3302609 0.5333825 0.0000661
0.3507364 0.5347056 0.0003427
0.3729363 0.5361829 0.0005631
0.3966456 0.5378187 0.0001198
0.4217711 0.5395701 0.0002698
0.4481353 0.5414423 0.0003202
0.4756188 0.5434266 0.0001453
0.5041295 0.5455087 0.0001699
0.5335837 0.5476821 0.0006595
0.5639444 0.5499482 0.0002007
0.5951521 0.5522866 0.0006894
0.6272310 0.5546788 0.0001992
0.6601102 0.5570952 0.0005151
0.6937859 0.5594833 0.0006442
0.7281866 0.5617801 0.0008366
0.7632581 0.5638950 0.0002891
0.7987927 0.5657808 0.0005448
0.8346767 0.5673602 0.0009215
0.8708049 0.5685606 0.0007055
0.9069705 0.5693827 0.0010070
0.9431332 0.5697714 0.0006134
0.9791646 0.5697430 0.0000441
0.9999357 0.5789782 0.1365859
0.9999294 0.6010356 0.2650318
0.9999791 0.6226069 0.3462849
0.9999664 0.6438112 0.4101687
0.2698101 0.5641993 0.0002070
0.2751830 0.5644855 0.0001550
0.2811842 0.5647948 0.0004452
0.2895342 0.5652406 0.0006623
0.3002800 0.5658532 0.0002692
0.3134685 0.5666110 0.0000397
0.3289756 0.5675132 0.0000455
0.3466307 0.5685567 0.0003466
0.3661882 0.5697553 0.0002801
0.3875206 0.5710812 0.0005891
0.4104015 0.5725430 0.0005787
0.4346788 0.5741282 0.0002448
0.4602354 0.5758114 0.0003098
0.4869298 0.5775864 0.0007278
0.5146386 0.5794582 0.0005846
0.5432877 0.5814103 0.0003545
0.5728071 0.5834332 0.0003538
0.6031402 0.5855209 0.0006850
0.6342725 0.5876641 0.0003602
0.6661522 0.5898432 0.0007439
0.6987890 0.5920263 0.0006358
0.7321269 0.5941734 0.0007878
0.7661346 0.5962224 0.0005974
0.8006869 0.5981215 0.0010033
0.8357424 0.5997790 0.0005684
0.8711283 0.6011472 0.0002266
0.9067003 0.6021811 0.0001097
0.9423216 0.6028509 0.0002914
0.9778846 0.6031356 0.0006019
0.9999360 0.6108406 0.1360629
0.9999264 0.6310556 0.2735366
0.9999636 0.6509424 0.3583793
0.9999125 0.6705967 0.4244355
0.2908617 0.5996527 0.0003088
0.2959209 0.5998941 0.0006392
0.3014728 0.6001803 0.0005321
0.3092226 0.6005936 0.0001522
0.3194125 0.6011167 0.0004371
0.3319172 0.6017758 0.0006960
0.3465693 0.6025926 0.0002043
0.3633917 0.6035183 0.0006064
0.3820774 0.6045919 0.0003483
0.4025292 0.6057839 0.0002626
0.4245743 0.6070862 0.0003791
0.4480487 0.6084900 0.0007195
0.4727754 0.6100017 0.0004402
0.4986595 0.6115950 0.0003443
0.5255809 0.6132628 0.0003509
0.5534394 0.6149995 0.0002826
0.5821541 0.6167930 0.0007199
0.6116672 0.6186472 0.0002408
0.6419147 0.6205426 0.0008697
0.6728880 0.6224754 0.0007030
0.7045553 0.6244238 0.0004825
0.7368666 0.6263661 0.0010205
0.7698568 0.6282507 0.0002709
0.8033892 0.6300494 0.0007129
0.8374784 0.6316800 0.0000964
0.8719102 0.6331242 0.0011043
0.9066847 0.6342846 0.0012056
0.9416967 0.6351005 0.0002180
0.9766985 0.6355945 0.0005517
0.9999253 0.6419595 0.1342156
0.9999617 0.6604196 0.2817957
0.9999672 0.6787358 0.3706208
0.9999611 0.6968986 0.4388865
0.3120698 0.6347514 0.0008428
0.3167488 0.6349734 0.0008436
0.3218896 0.6352386 0.0003003
0.3291869 0.6355969 0.0001528
0.3387869 0.6360546 0.0005588
0.3505843 0.6366388 0.0007235
0.3645172 0.6373485 0.0007164
0.3804783 0.6381806 0.0005916
0.3983316 0.6391301 0.0003907
0.4179266 0.6401903 0.0001454
0.4391575 0.6413332 0.0008107
0.4617695 0.6425905 0.0005501
0.4856778 0.6439317 0.0002899
0.5107525 0.6453473 0.0000142
0.5368927 0.6468153 0.0006517
0.5639572 0.6483562 0.0001391
0.5918862 0.6499387 0.0002341
0.6205953 0.6515623 0.0006108
0.6500270 0.6532244 0.0007355
0.6801363 0.6549146 0.0008894
0.7109117 0.6566209 0.0000742
0.7422845 0.6583271 0.0004215
0.7742486 0.6600107 0.0008210
0.8068082 0.6616294 0.0002350
0.8398653 0.6631517 0.0003216
0.8733537 0.6645312 0.0009510
0.9072239 0.6657038 0.0012267
0.9414048 0.6666039 0.0005765
0.9757428 0.6672016 0.0000078
0.9999782 0.6723838 0.1310828
0.9999618 0.6891953 0.2903179
0.9999412 0.7059913 0.3832783
0.9999995 0.7227164 0.4537999
0.3331481 0.6694664 0.0001582
0.3375978 0.6696433 0.0007903
0.3424724 0.6698623 0.0007671
0.3492567 0.6701924 0.0000225
0.3583215 0.6705855 0.0007031
0.3694651 0.6710964 0.0009089
0.3826501 0.6717239 0.0007080
0.3977953 0.6724648 0.0001515
0.4148613 0.6732906 0.0002999
0.4336318 0.6742200 0.0001723
0.4540252 0.6752237 0.0008291
0.4757890 0.6763364 0.0002091
0.4988935 0.6775072 0.0004075
0.5231626 0.6787475 0.0003719
0.5484851 0.6800473 0.0000653
0.5747753 0.6813840 0.0005126
0.6019176 0.6827663 0.0004881
0.6298411 0.6841770 0.0008702
0.6584801 0.6856206 0.0001355
0.6877785 0.6870770 0.0000129
0.7176759 0.6885416 0.0009536
0.7481689 0.6900086 0.0008073
0.7792127 0.6914593 0.0008777
0.8108121 0.6928664 0.0000170
0.8428536 0.6942167 0.0010804
0.8753915 0.6954516 0.0008082
0.9083409 0.6965305 0.0002224
0.9415611 0.6974294 0.0009795
0.9750445 0.6980730 0.0009413
0.9999653 0.7022583 0.1285476
0.9999890 0.7173952 0.2993246
0.9999845 0.7326717 0.3963697
0.9999868 0.7480358 0.4694397
0.3542647 0.7036663 0.0001753
0.3584015 0.7038256 0.0005363
0.3629331 0.7040257 0.0001197
0.3694683 0.7042739 0.0009553
0.3779379 0.7046308 0.0009730
0.3883799 0.7050966 0.0002575
0.4009642 0.7056168 0.0011250
0.4153336 0.7062691 0.0002619
0.4316535 0.7069719 0.0011022
0.4495608 0.7077956 0.0002729
0.4690829 0.7086839 0.0000769
0.4900740 0.7096312 0.0005488
0.5123467 0.7106517 0.0005403
0.5357884 0.7117351 0.0000385
0.5603215 0.7128537 0.0002178
0.5858267 0.7140024 0.0010604
0.6121714 0.7152033 0.0000301
0.6393196 0.7164078 0.0006545
0.6671727 0.7176368 0.0001927
0.6956716 0.7188671 0.0007727
0.7247697 0.7201035 0.0005424
0.7544285 0.7213329 0.0000120
0.7845839 0.7225447 0.0009191
0.8152481 0.7237256 0.0008539
0.8463989 0.7248503 0.0000507
0.8779568 0.7259013 0.0003690
0.9098925 0.7268459 0.0011731
0.9422141 0.7276265 0.0006579
0.9748022 0.7282152 0.0004508
0.9999584 0.7316006 0.1272950
0.9999549 0.7450927 0.3096468
0.9999649 0.7588473 0.4105916
0.9999306 0.7728384 0.4860674
0.3752462 0.7373014 0.0001082
0.3790958 0.7374444 0.0001773
0.3834301 0.7375976 0.0005733
0.3895327 0.7378196 0.0009668
0.3974512 0.7381426 0.0002695
0.4074455 0.7385097 0.0010514
0.4192838 0.7389775 0.0009047
0.4330167 0.7395157 0.0011325
0.4484697 0.7401478 0.0005250
0.4656282 0.7408423 0.0003738
0.4843664 0.7415944 0.0007147
0.5044947 0.7424215 0.0002891
0.5259561 0.7432923 0.0003921
0.5486223 0.7442003 0.0010433
0.5723380 0.7451579 0.0009249
0.5970383 0.7461371 0.0013304
0.6225997 0.7471476 0.0008620
0.6489598 0.7481657 0.0007575
0.6760342 0.7491872 0.0008485
0.7037523 0.7502082 0.0008543
0.7320596 0.7512237 0.0003410
0.7609041 0.7522221 0.0001415
0.7902303 0.7531968 0.0009671
0.8200388 0.7541406 0.0004075
0.8502733 0.7550378 0.0003881
0.8808880 0.7558755 0.0014181
0.9119147 0.7566178 0.0009839
0.9432518 0.7572482 0.0015451
0.9749088 0.7577161 0.0011396
0.9999551 0.7604289 0.1285219
0.9999681 0.7722573 0.3213768
0.9999262 0.7845024 0.4262422
0.9999377 0.7970789 0.5037560
0.3960337 0.7702979 0.0000923
0.3997443 0.7703951 0.0012120
0.4037872 0.7705311 0.0012911
0.4094880 0.7707287 0.0012124
