LumaGrade-Vercel/public/luts/hasselblad-natural.cube
TITLE "Hasselblad Natural Colour Reference Plus v2"
LUT_3D_SIZE 9
DOMAIN_MIN 0.0 0.0 0.0
DOMAIN_MAX 1.0 1.0 1.0
0.0000000 0.0000034 0.0000069
0.1012621 0.0000127 0.0039183
0.2197175 0.0000076 0.0128123
0.3515551 0.0000765 0.0288484
0.4928551 0.0000059 0.0532454
0.6400534 0.0001466 0.0796693
0.7901667 0.0002600 0.1050743
0.9402763 0.0008505 0.1296170
0.9998771 0.2970228 0.2801704
0.0112230 0.0869466 0.0000105
0.1003010 0.0954997 0.0000259
0.2350126 0.1087241 0.0000457
0.3758223 0.1036821 0.0000338
0.5220033 0.0858724 0.0001273
0.6736784 0.0449378 0.0001306
0.8231226 0.0003534 0.0189983
0.9671301 0.0003218 0.0667656
0.9999214 0.3330839 0.2886333
0.0695286 0.2118588 0.0000495
0.1355746 0.2167942 0.0000366
0.2413994 0.2274209 0.0001206
0.3778055 0.2422053 0.0001062
0.5276881 0.2480169 0.0000323
0.6784952 0.2444252 0.0001553
0.8303433 0.2341308 0.0001026
0.9816617 0.2170110 0.0002380
0.9998909 0.4079713 0.3100859
0.1459304 0.3496008 0.0001128
0.1928893 0.3528066 0.0000677
0.2811232 0.3599903 0.0000416
0.3962939 0.3708458 0.0000522
0.5327847 0.3839796 0.0002217
0.6826205 0.3926585 0.0002027
0.8336254 0.3933778 0.0001533
0.9823545 0.3880650 0.0002092
0.9999229 0.5079077 0.3467208
0.2276251 0.4926997 0.0000141
0.2626616 0.4947581 0.0001803
0.3356463 0.4995682 0.0005231
0.4365167 0.5069981 0.0003029
0.5556829 0.5164433 0.0006175
0.6897211 0.5268068 0.0004069
0.8341928 0.5342941 0.0008109
0.9802572 0.5354501 0.0007283
0.9999803 0.6167053 0.3963553
0.3120698 0.6347514 0.0008428
0.3387869 0.6360546 0.0005588
0.3983316 0.6391301 0.0003907
0.4856778 0.6439317 0.0002899
0.5918862 0.6499387 0.0002341
0.7109117 0.6566209 0.0000742
0.8398653 0.6631517 0.0003216
0.9757428 0.6672016 0.0000078
0.9999995 0.7227164 0.4537999
0.3960337 0.7702979 0.0000923
0.4170052 0.7709902 0.0011236
0.4653804 0.7726957 0.0008667
0.5396917 0.7753360 0.0010571
0.6331236 0.7785384 0.0013986
0.7394609 0.7818197 0.0004787
0.8543886 0.7847125 0.0009693
0.9754085 0.7865603 0.0002967
0.9999302 0.8207672 0.5230338
0.4758430 0.8945594 0.0008716
0.4923242 0.8948371 0.0003765
0.5315903 0.8954551 0.0001227
0.5939888 0.8963144 0.0004432
0.6748371 0.8971287 0.0005745
0.7687934 0.8974662 0.0020291
0.8712411 0.8969320 0.0013285
0.9788474 0.8951181 0.0004538
0.9999948 0.9086590 0.6223036
0.5603314 0.9999837 0.1416875
0.5727161 0.9999838 0.1412039
0.6026190 0.9999918 0.1385616
0.6512709 0.9999949 0.1289038
0.7159794 0.9999770 0.0948568
0.7946689 0.9991000 0.0016150
0.8849702 0.9955277 0.0027388
0.9802538 0.9902439 0.0027120
0.9999973 0.9785932 0.7826434
0.0000043 0.0055424 0.0234188
0.0779432 0.0000053 0.1006266
0.2056720 0.0000114 0.1178123
0.3440645 0.0000874 0.1327121
0.4886350 0.0000498 0.1487740
0.6374171 0.0002728 0.1660385
0.7884077 0.0001043 0.1831598
0.9390319 0.0000820 0.2001792
0.9999510 0.2954116 0.3139114
0.0000285 0.0860761 0.0817139
0.0936628 0.0964676 0.0981193
0.2471612 0.0953543 0.1104157
0.3951747 0.0609034 0.1084143
0.5420087 0.0001044 0.1091504
0.6789104 0.0003296 0.1284687
0.8215436 0.0000359 0.1477447
0.9658315 0.0008156 0.1672036
0.9999719 0.3317984 0.3211600
0.0000203 0.2201615 0.0800600
0.0802851 0.2306018 0.0317368
0.2446019 0.2306513 0.0515934
0.4069616 0.2331610 0.0547859
0.5658853 0.2153748 0.0393179
0.7217599 0.1828194 0.0122159
0.8726540 0.1431211 0.0003973
0.9999324 0.1685278 0.0938944
0.9999219 0.4072216 0.3398482
0.0407576 0.3629403 0.0000910
0.1413193 0.3645782 0.0000240
0.2646966 0.3678892 0.0002076
0.4009931 0.3728285 0.0000688
0.5520231 0.3789283 0.0002614
0.7091277 0.3781390 0.0002831
0.8616467 0.3695211 0.0005857
0.9999181 0.3682812 0.0733745
0.9999535 0.5078089 0.3727283
0.1789118 0.5017538 0.0003832
0.2263750 0.5032153 0.0004004
0.3158521 0.5065337 0.0003426
0.4303171 0.5114370 0.0000376
0.5593873 0.5176120 0.0003884
0.7009544 0.5243305 0.0004616
0.8505523 0.5273309 0.0003038
0.9987015 0.5236427 0.0007646
0.9998934 0.6173818 0.4188749
0.2802701 0.6414135 0.0006913
0.3119033 0.6424296 0.0004992
0.3798555 0.6447981 0.0000580
0.4758490 0.6483666 0.0000386
0.5892470 0.6526527 0.0003425
0.7138524 0.6573015 0.0001763
0.8472116 0.6616493 0.0008656
0.9864139 0.6632256 0.0008292
0.9999922 0.7236488 0.4725147
0.3733132 0.7753563 0.0001660
0.3965464 0.7759103 0.0005657
0.4494620 0.7772364 0.0001186
0.5292066 0.7792096 0.0002852
0.6277411 0.7814502 0.0010121
0.7383617 0.7835293 0.0001419
0.8567370 0.7850698 0.0006455
0.9805244 0.7855057 0.0009734
0.9999567 0.8213504 0.5367910
0.4588106 0.8984638 0.0016328
0.4764634 0.8986622 0.0006957
0.5183485 0.8990466 0.0011672
0.5841373 0.8995231 0.0012988
0.6684718 0.8997903 0.0003025
0.7656481 0.8993966 0.0019025
0.8708310 0.8980031 0.0010791
0.9806780 0.8952553 0.0008100
0.9999810 0.9088977 0.6310639
0.5592235 0.9999849 0.1984778
0.5716064 0.9999874 0.1981776
0.6016276 0.9999634 0.1971006
0.6502330 0.9999812 0.1907299
0.7148667 0.9999875 0.1699867
0.7921020 0.9999888 0.0876194
0.8830107 0.9968031 0.0020415
0.9801398 0.9908938 0.0005925
0.9999981 0.9787000 0.7872262
0.0000007 0.0253237 0.0904665
0.0721372 0.0000210 0.1991833
0.1959640 0.0000002 0.2283270
0.3336454 0.0000160 0.2486634
0.4801351 0.0002146 0.2659269
0.6311689 0.0002407 0.2823724
0.7837917 0.0002778 0.2971562
0.9354374 0.0007684 0.3106783
0.9999391 0.2916488 0.3830519
0.0000065 0.0930329 0.1634952
0.0664464 0.0860062 0.2442355
0.2143463 0.0968115 0.2415385
0.3619742 0.0888675 0.2556060
0.5209517 0.0432271 0.2637599
0.6717444 0.0002349 0.2709530
0.8166060 0.0006045 0.2821008
0.9623007 0.0001732 0.2939257
0.9998835 0.3287246 0.3883446
0.0000011 0.2174233 0.2063538
0.0082220 0.2302128 0.2205227
0.2304017 0.2317999 0.2326254
0.3931340 0.2384473 0.2491359
0.5467070 0.2262716 0.2519693
0.7038837 0.2023098 0.2510669
0.8625586 0.1590508 0.2466466
0.9999717 0.1583076 0.2599682
0.9999141 0.4050685 0.4022823
0.0002755 0.3642020 0.2096932
0.0001289 0.3766273 0.1858915
0.2333061 0.3767075 0.1902911
0.3949739 0.3775795 0.2079812
0.5624085 0.3826483 0.2160005
0.7257253 0.3703622 0.2111611
0.8819061 0.3491183 0.2038567
0.9999964 0.3665288 0.2525732
0.9999584 0.5070511 0.4284865
0.0000803 0.5158823 0.1527390
0.0103767 0.5249615 0.0824960
0.2485894 0.5238195 0.0927638
0.4103804 0.5217648 0.1116193
0.5621708 0.5208670 0.1398024
0.7189573 0.5216105 0.1452646
0.8840724 0.5121222 0.1163270
0.9999495 0.5250591 0.2352467
0.9999809 0.6184252 0.4679572
0.1330809 0.6605502 0.0000622
0.2025621 0.6607404 0.0000515
0.3139993 0.6610159 0.0006002
0.4430501 0.6610181 0.0002625
0.5799721 0.6602855 0.0001830
0.7213749 0.6589848 0.0005551
0.8675223 0.6569601 0.0001466
0.9999403 0.6593129 0.1646283
0.9999310 0.7259862 0.5155300
0.2960281 0.7892403 0.0009796
0.3289510 0.7893930 0.0007283
0.3991883 0.7896645 0.0004445
0.4972854 0.7897999 0.0007922
0.6115346 0.7894053 0.0010834
0.7346633 0.7881487 0.0002480
0.8627503 0.7859424 0.0000016
0.9942107 0.7824653 0.0014630
0.9999551 0.8229719 0.5698663
0.4066222 0.9090073 0.0002473
0.4286520 0.9089272 0.0015458
0.4789477 0.9087471 0.0003865
0.5554892 0.9081636 0.0015904
0.6502976 0.9069123 0.0009366
0.7566251 0.9045690 0.0008146
0.8694084 0.9008422 0.0015871
0.9853666 0.8955794 0.0015016
0.9999606 0.9095491 0.6524066
0.5565125 0.9999830 0.2934353
0.5688893 0.9999911 0.2933095
0.5988926 0.9999813 0.2927841
0.6475465 0.9999905 0.2894992
0.7121834 0.9999841 0.2784445
0.7892638 0.9999853 0.2425215
0.8776863 0.9999955 0.0289954
0.9796375 0.9925880 0.0012354
0.9999917 0.9789877 0.7985751
0.0000427 0.0647332 0.1688356
0.0652978 0.0000092 0.3111337
0.1933004 0.0000781 0.3415046
0.3283012 0.0000651 0.3699919
0.4731457 0.0001570 0.3918981
0.6240056 0.0002623 0.4095619
0.7773479 0.0000058 0.4240233
0.9298116 0.0006525 0.4362884
0.9998845 0.2859029 0.4756452
0.0000056 0.1153869 0.2414132
0.0475495 0.0539608 0.3981644
0.2082592 0.0795547 0.3836247
0.3462927 0.0945985 0.3866328
0.4951397 0.0875825 0.4016136
0.6547667 0.0400907 0.4140886
0.8085016 0.0003218 0.4215035
0.9558904 0.0002581 0.4294818
0.9999872 0.3233867 0.4787510
0.0000736 0.2222607 0.3054237
0.0001102 0.2271029 0.3553917
0.2055288 0.2276652 0.3821673
0.3587259 0.2388137 0.3827472
0.5108541 0.2402316 0.3991453
0.6717688 0.2281949 0.4091774
0.8344272 0.2004937 0.4130558
0.9963473 0.1458807 0.4116151
0.9999101 0.4009479 0.4875944
0.0000473 0.3623298 0.3431294
0.0000934 0.3713451 0.3527425
0.1914789 0.3765916 0.3635930
0.3788953 0.3788310 0.3787507
0.5469963 0.3875630 0.3950866
0.7033416 0.3786167 0.3959887
0.8598399 0.3629629 0.3947512
0.9999623 0.3585852 0.4011684
0.9999132 0.5044592 0.5058330
0.0005144 0.5141722 0.3434964
0.0002515 0.5225849 0.3340249
0.2059388 0.5280312 0.3281063
0.3880312 0.5261606 0.3369713
0.5487981 0.5263465 0.3545490
0.7177105 0.5308013 0.3615124
0.8818758 0.5179409 0.3539361
0.9999280 0.5252831 0.3916136
0.9999051 0.6186135 0.5372226
0.0002619 0.6652113 0.2973048
0.0004548 0.6720132 0.2714658
0.2288566 0.6738024 0.2608710
0.4048586 0.6709184 0.2672654
0.5637521 0.6665886 0.2781174
0.7146782 0.6630585 0.2949459
0.8693655 0.6604903 0.2964644
0.9999920 0.6639622 0.3565660
0.9999725 0.7295167 0.5790675
0.0000935 0.8098477 0.1658393
0.0245858 0.8146394 0.0948147
0.2595319 0.8126722 0.1006651
0.4226926 0.8090331 0.1102103
0.5761570 0.8033883 0.1244016
0.7243658 0.7959165 0.1455130
0.8678218 0.7878827 0.1671943
0.9999954 0.7826769 0.2496536
0.9999787 0.8262683 0.6227429
0.2527537 0.9300496 0.0012125
0.2943106 0.9295308 0.0009038
0.3775144 0.9281281 0.0014047
0.4866488 0.9254805 0.0010904
0.6085360 0.9211674 0.0007496
0.7361311 0.9148319 0.0014174
0.8653278 0.9063953 0.0006255
0.9939195 0.8960333 0.0008714
0.9999567 0.9108748 0.6876714
0.5520349 0.9999587 0.4032573
0.5643947 0.9999755 0.4032608
0.5943526 0.9999876 0.4031214
0.6431211 0.9999647 0.4018536
0.7076574 0.9999688 0.3957519
0.7844750 0.9999769 0.3759899
0.8720526 0.9999987 0.3061637
0.9780538 0.9958262 0.0020340
0.9999842 0.9795594 0.8176082
0.0000215 0.1094568 0.2543567
0.0477990 0.0000779 0.4365531
0.1912804 0.0001575 0.4628677
0.3268388 0.0000284 0.4938252
0.4695045 0.0001566 0.5212544
0.6187543 0.0003421 0.5421734
0.7712552 0.0005768 0.5573803
0.9235805 0.0003771 0.5689279
0.9999033 0.2801356 0.5814653
0.0000323 0.1478640 0.3198493
0.0248209 0.0000376 0.5392716
0.2034445 0.0240048 0.5384968
0.3437044 0.0747391 0.5282086
0.4846373 0.0954571 0.5357821
0.6351264 0.0920074 0.5505454
0.7938547 0.0484364 0.5633523
0.9479357 0.0003187 0.5700252
0.9999096 0.3181417 0.5826991
0.0000408 0.2383883 0.3989648
0.0001239 0.2350839 0.4668781
0.1863884 0.2222099 0.5392178
0.3508658 0.2342596 0.5280492
0.4948740 0.2460005 0.5331640
0.6460693 0.2471847 0.5478330
0.8049346 0.2346733 0.5597056
0.9665729 0.2035523 0.5653313
0.9999003 0.3960070 0.5865985
0.0001913 0.3660553 0.4542231
0.0002113 0.3714092 0.4793718
0.1362440 0.3763328 0.5310405
0.3556651 0.3758975 0.5292922
0.5112974 0.3867394 0.5292653
0.6651205 0.3890085 0.5434010
0.8247586 0.3810342 0.5519665
0.9844013 0.3625855 0.5535181
0.9999342 0.4998257 0.5961735
0.0000693 0.5125416 0.4829191
0.0002233 0.5189782 0.4895018
0.1245661 0.5296059 0.5023033
0.3501025 0.5258755 0.5091111
0.5298341 0.5275167 0.5258817
0.7001750 0.5352675 0.5390047
0.8565349 0.5246038 0.5347534
0.9999341 0.5164707 0.5350012
0.9999245 0.6155683 0.6166160
0.0005458 0.6629114 0.4763510
0.0006480 0.6688809 0.4714416
0.1535813 0.6774820 0.4624646
0.3697222 0.6746398 0.4675595
0.5393526 0.6707975 0.4766675
0.6976284 0.6686754 0.4925963
0.8652747 0.6701331 0.4955847
0.9999742 0.6682177 0.5173345
0.9999988 0.7318962 0.6522662
0.0002568 0.8073548 0.4286273
0.0004202 0.8123114 0.4142534
0.1886104 0.8167305 0.3968013
0.3867409 0.8130666 0.3996911
0.5526118 0.8073049 0.4036602
0.7081623 0.7994433 0.4104644
0.8552193 0.7919313 0.4219998
0.9999603 0.7861414 0.4344475
0.9999990 0.8320286 0.6912751
0.0017239 0.9403052 0.3272696
0.0002489 0.9442707 0.2995807
0.2224108 0.9446238 0.2825613
0.4007950 0.9401858 0.2842568
0.5588740 0.9333160 0.2865330
0.7092262 0.9236959 0.2902202
0.8533245 0.9115657 0.2971905
0.9911699 0.8981436 0.3040134
0.9999664 0.9133350 0.7358413
0.5454900 0.9999970 0.5161078
0.5580015 0.9999804 0.5164021
0.5880423 0.9999758 0.5167579
0.6366509 0.9999983 0.5163235
0.7011656 0.9999762 0.5132971
0.7776813 0.9999791 0.5017693
0.8643482 0.9999882 0.4632588
0.9717998 0.9999957 0.1997852
0.9999987 0.9805427 0.8436699
0.0001398 0.1570357 0.3452888
0.0076687 0.0000528 0.5721869
0.1858914 0.0000289 0.5939084
0.3260864 0.0000298 0.6228591
0.4681774 0.0000282 0.6523775
0.6156596 0.0002662 0.6766205
0.7666455 0.0000804 0.6940761
0.9178628 0.0001960 0.7057963
0.9999518 0.2769603 0.6957189
0.0001549 0.1874428 0.4024697
0.0000275 0.1468831 0.5380153
0.1922763 0.0000039 0.6697119
0.3425646 0.0086164 0.6819957
0.4828407 0.0768546 0.6778525
0.6268675 0.1028067 0.6864363
0.7776901 0.1023097 0.6996661
0.9338964 0.0626108 0.7109835
0.9999840 0.3149211 0.6954166
0.0000764 0.2627508 0.4885377
0.0001024 0.2539824 0.5614677
0.1665259 0.2080862 0.6984397
0.3428676 0.2235872 0.6841777
0.4905750 0.2417651 0.6767016
0.6350537 0.2539081 0.6836515
0.7853875 0.2549400 0.6965516
0.9412057 0.2410121 0.7069496
0.9999819 0.3924829 0.6952225
0.0002767 0.3781732 0.5581657
0.0001739 0.3801586 0.5935798
0.0891507 0.3743965 0.6940842
0.3380955 0.3759548 0.6868328
0.5027881 0.3848353 0.6750731
0.6480612 0.3943140 0.6787403
0.7980397 0.3951859 0.6907207
0.9535827 0.3852184 0.6991642
0.9999949 0.4954065 0.6969360
0.0004444 0.5150801 0.6025598
0.0001971 0.5194690 0.6181497
0.0003279 0.5288608 0.6636675
0.3103859 0.5262478 0.6772989
0.5082013 0.5239959 0.6747737
0.6633527 0.5327944 0.6720398
0.8163161 0.5324641 0.6810226
0.9720892 0.5226187 0.6853927
0.9999577 0.6099265 0.7045781
0.0002358 0.6608822 0.6193783
0.0006162 0.6656005 0.6238954
0.0007537 0.6774079 0.6348699
0.3150899 0.6758166 0.6415085
0.5012325 0.6698504 0.6487757
0.6747692 0.6694554 0.6657040
0.8449978 0.6738781 0.6729753
0.9989406 0.6587073 0.6612665
0.9999776 0.7282263 0.7260280
0.0008138 0.8041208 0.6022887
0.0010144 0.8084419 0.5992170
0.0003901 0.8195294 0.5886958
0.3364737 0.8157908 0.5910018
0.5190581 0.8101477 0.5950282
0.6803878 0.8031944 0.6032975
0.8337727 0.7973409 0.6164093
0.9974213 0.7940473 0.6138199
0.9999501 0.8389124 0.7659388
0.0018959 0.9365811 0.5488550
0.0000559 0.9402163 0.5395462
0.0825687 0.9477473 0.5164081
0.3485404 0.9432841 0.5172495
0.5250822 0.9363822 0.5179689
0.6848379 0.9266288 0.5185609
0.8354584 0.9140679 0.5208149
0.9760262 0.9013854 0.5273785
0.9999571 0.9180391 0.7958536
0.5374461 0.9999636 0.6281896
0.5497451 0.9999946 0.6284261
0.5798630 0.9999636 0.6291581
0.6283758 0.9999817 0.6295872
0.6925961 0.9999880 0.6284112
0.7687478 0.9999779 0.6219512
0.8544754 0.9999915 0.5987228
0.9567249 0.9999977 0.4891164
0.9999987 0.9820730 0.8756189
0.0000643 0.2067889 0.4406752
0.0000188 0.1825930 0.5464818
0.1743257 0.0000275 0.7329510
0.3234988 0.0000082 0.7583616
0.4674538 0.0002708 0.7864031
0.6139800 0.0002041 0.8119327
0.7631187 0.0007104 0.8315105
0.9128219 0.0005616 0.8443119
0.9999122 0.2776878 0.8152316
0.0001508 0.2316760 0.4901425
0.0000817 0.2104355 0.5866023
0.1757367 0.0002677 0.7986745
0.3341792 0.0001037 0.8153932
0.4829617 0.0117096 0.8295989
0.6250217 0.0884414 0.8284255
0.7700845 0.1158051 0.8364293
0.9195001 0.1148646 0.8469021
0.9999664 0.3152223 0.8138070
0.0003049 0.2943742 0.5762353
0.0000159 0.2838110 0.6461656
0.1423970 0.1832906 0.8596122
0.3332357 0.2045077 0.8448944
0.4871719 0.2294754 0.8301510
0.6314939 0.2503856 0.8264343
0.7760793 0.2623109 0.8331472
0.9247355 0.2616806 0.8428815
0.9999154 0.3920607 0.8105407
0.0002038 0.3967380 0.6572374
0.0001473 0.3954977 0.6985017
0.0000886 0.3685831 0.8546901
0.3191348 0.3719823 0.8462548
0.4927436 0.3809905 0.8310314
0.6417929 0.3930302 0.8227937
0.7856335 0.4008812 0.8268689
0.9330578 0.3995200 0.8353800
0.9999219 0.4936175 0.8062978
0.0004366 0.5238656 0.7135412
0.0004153 0.5263560 0.7355362
0.0006091 0.5294724 0.8016397
0.2855295 0.5263695 0.8400869
0.4922394 0.5252042 0.8304814
0.6545145 0.5308097 0.8162472
0.7977662 0.5365430 0.8161575
0.9437793 0.5337936 0.8232170
0.9999733 0.6057122 0.8033809
0.0005149 0.6619429 0.7443000
0.0005540 0.6653623 0.7547239
0.0009660 0.6733831 0.7832061
0.2446441 0.6764962 0.8106935
0.4665184 0.6695049 0.8155583
0.6547135 0.6642410 0.8107737
0.8071296 0.6692446 0.8033777
0.9568782 0.6640529 0.8051390
0.9999817 0.7203687 0.8065871
0.0013505 0.8011098 0.7465885
0.0005990 0.8045983 0.7496977
0.0009779 0.8133158 0.7572399
0.2588764 0.8168022 0.7632097
0.4698240 0.8103727 0.7684470
0.6403724 0.8012451 0.7753039
0.8061836 0.7973657 0.7911371
0.9738873 0.7966763 0.7908411
0.9999909 0.8348647 0.8297998
0.0021010 0.9320689 0.7171003
0.0001822 0.9352172 0.7148878
0.0013119 0.9431508 0.7080106
0.2728415 0.9448213 0.7032394
0.4811746 0.9376990 0.7036072
0.6503708 0.9282142 0.7055437
0.8033921 0.9170133 0.7118173
0.9498340 0.9061236 0.7208835
0.9999830 0.9283077 0.8673733
0.5272201 0.9999767 0.7367730
0.5394811 0.9999968 0.7371472
0.5693410 0.9999819 0.7380763
0.6176384 0.9999645 0.7392398
0.6813226 0.9999774 0.7395877
0.7567617 0.9999972 0.7366546
0.8416017 0.9999873 0.7232290
0.9404871 0.9999925 0.6611880
0.9999989 0.9844511 0.9104704
0.0001264 0.2582068 0.5391147
0.0001469 0.2434959 0.6194919
0.1531646 0.0000946 0.8780610
0.3175321 0.0003494 0.8994394
0.4656872 0.0000597 0.9244737
0.6125285 0.0007453 0.9487606
0.7603602 0.0003287 0.9691191
0.9083828 0.0000089 0.9827438
0.9999357 0.2814964 0.9378075
0.0002347 0.2790397 0.5820027
0.0002506 0.2647231 0.6585362
0.1506517 0.0003367 0.9350984
0.3240104 0.0005586 0.9507600
0.4770151 0.0002436 0.9680108
0.6250237 0.0343746 0.9780927
0.7674463 0.1056241 0.9778598
0.9117475 0.1293577 0.9833995
0.9999459 0.3184592 0.9355338
0.0001627 0.3316988 0.6643794
0.0000928 0.3214357 0.7278882
0.1083126 0.1725543 0.9999454
0.3209249 0.1832091 0.9999247
0.4820615 0.2078451 0.9895587
0.6293128 0.2379301 0.9772131
0.7722356 0.2592839 0.9748777
0.9157757 0.2692210 0.9791899
0.9999620 0.3940761 0.9301033
0.0003080 0.4210985 0.7520809
0.0004504 0.4174455 0.7955966
0.0001050 0.3808907 0.9583618
0.2994045 0.3667252 0.9998852
0.4807738 0.3737447 0.9906151
0.6358848 0.3874611 0.9751898
0.7798690 0.3995702 0.9691040
0.9220220 0.4049392 0.9712895
0.9999461 0.4943200 0.9215515
0.0008629 0.5377839 0.8187183
0.0008470 0.5383644 0.8451481
0.0002831 0.5349726 0.9253581
0.2551512 0.5240354 0.9999421
0.4729733 0.5239777 0.9889255
0.6424895 0.5284484 0.9709362
0.7893582 0.5352620 0.9592714
0.9294777 0.5377996 0.9583850
0.9999344 0.6046343 0.9111689
0.0012074 0.6676151 0.8593748
0.0004102 0.6698252 0.8741845
0.0004203 0.6742949 0.9153862
0.1772667 0.6755271 0.9782958
0.4474236 0.6693901 0.9757578
0.6405510 0.6645228 0.9623265
0.7982602 0.6657231 0.9439256
0.9364992 0.6662579 0.9387123
0.9999510 0.7160178 0.9013804
0.0005343 0.8003466 0.8739214
0.0003765 0.8029365 0.8811439
0.0006140 0.8092012 0.9002990
0.1103853 0.8172532 0.9330729
0.4160832 0.8098020 0.9354962
0.6077703 0.7991521 0.9389414
0.7874322 0.7896785 0.9308111
0.9348100 0.7894196 0.9174635
0.9999924 0.8229786 0.8978128
0.0006387 0.9276354 0.8601075
0.0012746 0.9301382 0.8621814
0.0018845 0.9364485 0.8672359
0.1241784 0.9449489 0.8741301
0.4203088 0.9371674 0.8735998
0.6018206 0.9269405 0.8776131
0.7606980 0.9136847 0.8829889
0.9172070 0.9049130 0.8962248
0.9999953 0.9292186 0.9246999
0.5150635 0.9999855 0.8408320
0.5272759 0.9999649 0.8413332
0.5564200 0.9999643 0.8424874
0.6035142 0.9999711 0.8441916
0.6656258 0.9999904 0.8458139
0.7392647 0.9999814 0.8458171
0.8208633 0.9999921 0.8430149
0.9119024 0.9999945 0.8262649
0.9999882 0.9883352 0.9427116
0.0004017 0.3107603 0.6396251
0.0002279 0.3000255 0.7054154
0.1116608 0.0950591 0.9999962
0.3014391 0.1345560 0.9999880
0.4494802 0.1781608 0.9999918
0.5861402 0.2259586 0.9999220
0.7153341 0.2780297 0.9999797
0.8374669 0.3343800 0.9999265
0.9515604 0.3945408 0.9998957
0.0005356 0.3284518 0.6770321
0.0004292 0.3176209 0.7407977
0.1022735 0.1777803 0.9998273
0.3014301 0.2006904 0.9998301
0.4514320 0.2308652 0.9998522
0.5887519 0.2679522 0.9999674
0.7179682 0.3118624 0.9999034
0.8398464 0.3616045 0.9999132
0.9535289 0.4165025 0.9999242
0.0001037 0.3731415 0.7538635
0.0001299 0.3638580 0.8105093
0.0871845 0.2944773 0.9999953
0.3035459 0.3068124 0.9999439
0.4569959 0.3250893 0.9999449
0.5954337 0.3501424 0.9998874
0.7246627 0.3821900 0.9999235
0.8457755 0.4211522 0.9998920
0.9584084 0.4662862 0.9999836
0.0006341 0.4506740 0.8438403
0.0005424 0.4455697 0.8871572
0.0909158 0.4219002 0.9998604
0.3126425 0.4285563 0.9999380
0.4682265 0.4393698 0.9999462
0.6074718 0.4553882 0.9999267
0.7362441 0.4773455 0.9999635
0.8559534 0.5055861 0.9999308
0.9666056 0.5399687 0.9999271
0.0004313 0.5561639 0.9187139
0.0006444 0.5550167 0.9477749
0.1328304 0.5512515 0.9998969
0.3330557 0.5544200 0.9998691
0.4862962 0.5601939 0.9999517
0.6248655 0.5697522 0.9999680
0.7525460 0.5839815 0.9999089
0.8702694 0.6031802 0.9999727
0.9783373 0.6275654 0.9999794
0.0004185 0.6773363 0.9678882
0.0007099 0.6783105 0.9858760
0.1925200 0.6788675 0.9999730
0.3621745 0.6793433 0.9998889
0.5083280 0.6810513 0.9999423
0.6447324 0.6852687 0.9999965
0.7717171 0.6931085 0.9999576
0.8878303 0.7047540 0.9999519
0.9934083 0.7201830 0.9999607
0.0000221 0.8029252 0.9906809
0.0225428 0.8044547 0.9999346
0.2374484 0.8032919 0.9999258
0.3863560 0.8014537 0.9999703
0.5247063 0.7992667 0.9999382
0.6578341 0.7977595 0.9999919
0.7866223 0.7989382 0.9999954
0.9059118 0.8034716 0.9999535
0.9999949 0.8186072 0.9880811
0.0009524 0.9246729 0.9870075
0.0010585 0.9265533 0.9920509
0.1422325 0.9285173 0.9999905
0.3445810 0.9246667 0.9999958
0.4991336 0.9190818 0.9999947
0.6403942 0.9113988 0.9999756
0.7722963 0.9026407 0.9999686
0.9014189 0.8983169 0.9999816
0.9999816 0.9101015 0.9814089
0.5035560 0.9999766 0.9399121
0.5150435 0.9999833 0.9405498
0.5427285 0.9999921 0.9421142
0.5874388 0.9999879 0.9446995
0.6459509 0.9999798 0.9481058
0.7139344 0.9999831 0.9517405
0.7851235 0.9999900 0.9593454
0.8602527 0.9999944 0.9666231
0.9999981 0.9869770 0.9777756
