LumaGrade-Vercel/public/luts/hasselblad-natural.cube
TITLE "Hasselblad Natural Colour Reference Plus v2"
LUT_3D_SIZE 5
DOMAIN_MIN 0.0 0.0 0.0
DOMAIN_MAX 1.0 1.0 1.0
0.0000000 0.0000034 0.0000069
0.2197175 0.0000076 0.0128123
0.4928551 0.0000059 0.0532454
0.7901667 0.0002600 0.1050743
0.9998771 0.2970228 0.2801704
0.0695286 0.2118588 0.0000495
0.2413994 0.2274209 0.0001206
0.5276881 0.2480169 0.0000323
0.8303433 0.2341308 0.0001026
0.9998909 0.4079713 0.3100859
0.2276251 0.4926997 0.0000141
0.3356463 0.4995682 0.0005231
0.5556829 0.5164433 0.0006175
0.8341928 0.5342941 0.0008109
0.9999803 0.6167053 0.3963553
0.3960337 0.7702979 0.0000923
0.4653804 0.7726957 0.0008667
0.6331236 0.7785384 0.0013986
0.8543886 0.7847125 0.0009693
0.9999302 0.8207672 0.5230338
0.5603314 0.9999837 0.1416875
0.6026190 0.9999918 0.1385616
0.7159794 0.9999770 0.0948568
0.8849702 0.9955277 0.0027388
0.9999973 0.9785932 0.7826434
0.0000007 0.0253237 0.0904665
0.1959640 0.0000002 0.2283270
0.4801351 0.0002146 0.2659269
0.7837917 0.0002778 0.2971562
0.9999391 0.2916488 0.3830519
0.0000011 0.2174233 0.2063538
0.2304017 0.2317999 0.2326254
0.5467070 0.2262716 0.2519693
0.8625586 0.1590508 0.2466466
0.9999141 0.4050685 0.4022823
0.0000803 0.5158823 0.1527390
0.2485894 0.5238195 0.0927638
0.5621708 0.5208670 0.1398024
0.8840724 0.5121222 0.1163270
0.9999809 0.6184252 0.4679572
0.2960281 0.7892403 0.0009796
0.3991883 0.7896645 0.0004445
0.6115346 0.7894053 0.0010834
0.8627503 0.7859424 0.0000016
0.9999551 0.8229719 0.5698663
0.5565125 0.9999830 0.2934353
0.5988926 0.9999813 0.2927841
0.7121834 0.9999841 0.2784445
0.8776863 0.9999955 0.0289954
0.9999917 0.9789877 0.7985751
0.0000215 0.1094568 0.2543567
0.1912804 0.0001575 0.4628677
0.4695045 0.0001566 0.5212544
0.7712552 0.0005768 0.5573803
0.9999033 0.2801356 0.5814653
0.0000408 0.2383883 0.3989648
0.1863884 0.2222099 0.5392178
0.4948740 0.2460005 0.5331640
0.8049346 0.2346733 0.5597056
0.9999003 0.3960070 0.5865985
0.0000693 0.5125416 0.4829191
0.1245661 0.5296059 0.5023033
0.5298341 0.5275167 0.5258817
0.8565349 0.5246038 0.5347534
0.9999245 0.6155683 0.6166160
0.0002568 0.8073548 0.4286273
0.1886104 0.8167305 0.3968013
0.5526118 0.8073049 0.4036602
0.8552193 0.7919313 0.4219998
0.9999990 0.8320286 0.6912751
0.5454900 0.9999970 0.5161078
0.5880423 0.9999758 0.5167579
0.7011656 0.9999762 0.5132971
0.8643482 0.9999882 0.4632588
0.9999987 0.9805427 0.8436699
0.0000643 0.2067889 0.4406752
0.1743257 0.0000275 0.7329510
0.4674538 0.0002708 0.7864031
0.7631187 0.0007104 0.8315105
0.9999122 0.2776878 0.8152316
0.0003049 0.2943742 0.5762353
0.1423970 0.1832906 0.8596122
0.4871719 0.2294754 0.8301510
0.7760793 0.2623109 0.8331472
0.9999154 0.3920607 0.8105407
0.0004366 0.5238656 0.7135412
0.0006091 0.5294724 0.8016397
0.4922394 0.5252042 0.8304814
0.7977662 0.5365430 0.8161575
0.9999733 0.6057122 0.8033809
0.0013505 0.8011098 0.7465885
0.0009779 0.8133158 0.7572399
0.4698240 0.8103727 0.7684470
0.8061836 0.7973657 0.7911371
0.9999909 0.8348647 0.8297998
0.5272201 0.9999767 0.7367730
0.5693410 0.9999819 0.7380763
0.6813226 0.9999774 0.7395877
0.8416017 0.9999873 0.7232290
0.9999989 0.9844511 0.9104704
0.0004017 0.3107603 0.6396251
0.1116608 0.0950591 0.9999962
0.4494802 0.1781608 0.9999918
0.7153341 0.2780297 0.9999797
0.9515604 0.3945408 0.9998957
0.0001037 0.3731415 0.7538635
0.0871845 0.2944773 0.9999953
0.4569959 0.3250893 0.9999449
0.7246627 0.3821900 0.9999235
0.9584084 0.4662862 0.9999836
0.0004313 0.5561639 0.9187139
0.1328304 0.5512515 0.9998969
0.4862962 0.5601939 0.9999517
0.7525460 0.5839815 0.9999089
0.9783373 0.6275654 0.9999794
0.0000221 0.8029252 0.9906809
0.2374484 0.8032919 0.9999258
0.5247063 0.7992667 0.9999382
0.7866223 0.7989382 0.9999954
0.9999949 0.8186072 0.9880811
0.5035560 0.9999766 0.9399121
0.5427285 0.9999921 0.9421142
0.6459509 0.9999798 0.9481058
0.7851235 0.9999900 0.9593454
0.9999981 0.9869770 0.9777756
