LumaGrade-Vercel/public/luts/leica-classic.cube
TITLE "Leica Classic Official-Look Reference Plus v2"
LUT_3D_SIZE 9
DOMAIN_MIN 0.0 0.0 0.0
DOMAIN_MAX 1.0 1.0 1.0
0.0000000 0.0005082 0.0010079
0.0676253 0.0046294 0.0117765
0.1661614 0.0147370 0.0357513
0.2811623 0.0436520 0.0762697
0.4090311 0.0873091 0.1207503
0.5439897 0.1383002 0.1708931
0.6847421 0.1904316 0.2202825
0.8281131 0.2411986 0.2668390
0.9709025 0.2884552 0.3091049
0.0000115 0.0613213 0.0331171
0.0471250 0.0768485 0.0306024
0.1760606 0.0970320 0.0297424
0.2988970 0.1162923 0.0701180
0.4245949 0.1465881 0.1195126
0.5574494 0.1855226 0.1703922
0.6963584 0.2283626 0.2190065
0.8376707 0.2724710 0.2651866
0.9787648 0.3143752 0.3065610
0.0020386 0.1798990 0.1013600
0.0752202 0.1862299 0.1060009
0.1714045 0.2043874 0.1105934
0.3022491 0.2304357 0.1031038
0.4446519 0.2521947 0.1253109
0.5824340 0.2774110 0.1689583
0.7204841 0.3074147 0.2149482
0.8587663 0.3404060 0.2597559
0.9966084 0.3725021 0.2990604
0.1038342 0.3123747 0.1868330
0.1462587 0.3170389 0.1916831
0.2211794 0.3291591 0.2011867
0.3179961 0.3514741 0.2074092
0.4472319 0.3787090 0.1976859
0.5978478 0.3998569 0.1942780
0.7447035 0.4186095 0.2163259
0.8849584 0.4387730 0.2504468
0.9999830 0.4773033 0.3165641
0.2171995 0.4535003 0.2765832
0.2444352 0.4567611 0.2798380
0.3018555 0.4651002 0.2871638
0.3820469 0.4801559 0.2960977
0.4809364 0.5024758 0.2982528
0.6059928 0.5270659 0.2832413
0.7531876 0.5449405 0.2612459
0.9007228 0.5565460 0.2566837
0.9999378 0.5912606 0.3508641
0.3358841 0.5942321 0.3599099
0.3549813 0.5964416 0.3620729
0.3986542 0.6020484 0.3670972
0.4645545 0.6120124 0.3741269
0.5471368 0.6268548 0.3791522
0.6456427 0.6458733 0.3737788
0.7645473 0.6646927 0.3498275
0.9012454 0.6766434 0.3131444
0.9999990 0.6995476 0.3937512
0.4526153 0.7269808 0.4305158
0.4668211 0.7283317 0.4317504
0.5005696 0.7317470 0.4346357
0.5540293 0.7377672 0.4387842
0.6232220 0.7466661 0.4422673
0.7046944 0.7583869 0.4406991
0.7984128 0.7716960 0.4267066
0.9071695 0.7828094 0.3933456
0.9999689 0.7961600 0.4437715
0.5588305 0.8451532 0.4837895
0.5696513 0.8458126 0.4843566
0.5958776 0.8474713 0.4856501
0.6386704 0.8503644 0.4873879
0.6956269 0.8545713 0.4884769
0.7634297 0.8600329 0.4865290
0.8397749 0.8663190 0.4771547
0.9247447 0.8719686 0.4538444
0.9999942 0.8774821 0.5009636
0.6441607 0.9433398 0.5180974
0.6525072 0.9434338 0.5181765
0.6729600 0.9436578 0.5182850
0.7069268 0.9440058 0.5181307
0.7530183 0.9444113 0.5169856
0.8086223 0.9447376 0.5134037
0.8710612 0.9447053 0.5047798
0.9386708 0.9436562 0.4868574
0.9999933 0.9401054 0.5320034
0.0000021 0.0048410 0.0158110
0.0356923 0.0128474 0.0818334
0.1401017 0.0354587 0.1192451
0.2640980 0.0666400 0.1527580
0.3973947 0.1048647 0.1870658
0.5355118 0.1513916 0.2271532
0.6782375 0.2006037 0.2682940
0.8228322 0.2494934 0.3084391
0.9664719 0.2954097 0.3455911
0.0000071 0.0680317 0.0748292
0.0734798 0.0815781 0.0863092
0.1780247 0.1003204 0.1178388
0.2922438 0.1233206 0.1498069
0.4174832 0.1549134 0.1864595
0.5512702 0.1935208 0.2266213
0.6911145 0.2356190 0.2669911
0.8331412 0.2789563 0.3067529
0.9748051 0.3201522 0.3430740
0.0272302 0.1800230 0.1336359
0.0932494 0.1855120 0.1387255
0.1825973 0.2040592 0.1469722
0.3172109 0.2300523 0.1500690
0.4505737 0.2519101 0.1826543
0.5827324 0.2790030 0.2224012
0.7186899 0.3102214 0.2620121
0.8562467 0.3437733 0.3009721
0.9938893 0.3760632 0.3355639
0.1175072 0.3125302 0.2119218
0.1578538 0.3168971 0.2163971
0.2298172 0.3285472 0.2263666
0.3242110 0.3510990 0.2337640
0.4556594 0.3785242 0.2263909
0.6051690 0.3988293 0.2314689
0.7484770 0.4179030 0.2565941
0.8859885 0.4390481 0.2892588
0.9999592 0.4779874 0.3473475
0.2254185 0.4535362 0.2957047
0.2519923 0.4567110 0.2989434
0.3083425 0.4648482 0.3063438
0.3869750 0.4797560 0.3159763
0.4842289 0.5024105 0.3193991
0.6102891 0.5271208 0.3053238
0.7590261 0.5440166 0.2864169
0.9052141 0.5552774 0.2866608
0.9999586 0.5921318 0.3776911
0.3415960 0.5941457 0.3749775
0.3604644 0.5963140 0.3771284
0.4036822 0.6018207 0.3821591
0.4689727 0.6116378 0.3893115
0.5508016 0.6263836 0.3946522
0.6487508 0.6454826 0.3895608
0.7681495 0.6642790 0.3659401
0.9056292 0.6757581 0.3316026
0.9999970 0.7003459 0.4167616
0.4568302 0.7267766 0.4427721
0.4709342 0.7281051 0.4440022
0.5044586 0.7314656 0.4468900
0.5575904 0.7373974 0.4510890
0.6263584 0.7461988 0.4547335
0.7073214 0.7578752 0.4534482
0.8006777 0.7712302 0.4397301
0.9096524 0.7823150 0.4067596
0.9999963 0.7964745 0.4623309
0.5619990 0.8448443 0.4940560
0.5727672 0.8454905 0.4946218
0.5988712 0.8471164 0.4959183
0.6414739 0.8499546 0.4976825
0.6981780 0.8540915 0.4988565
0.7656599 0.8594896 0.4970885
0.8416394 0.8657545 0.4879846
0.9263528 0.8714294 0.4649838
0.9999866 0.8773129 0.5158256
0.6465578 0.9429372 0.5268924
0.6548736 0.9430228 0.5269718
0.6752527 0.9432261 0.5270840
0.7091006 0.9435387 0.5269470
0.7550308 0.9438960 0.5258522
0.8104289 0.9441693 0.5223806
0.8726137 0.9440957 0.5139504
0.9399484 0.9430360 0.4963080
0.9999945 0.9395611 0.5458063
0.0000079 0.0192284 0.0622573
0.0291919 0.0195884 0.1503074
0.1217233 0.0585155 0.1822715
0.2363081 0.0994717 0.2288190
0.3705837 0.1392287 0.2733255
0.5130401 0.1819181 0.3152602
0.6601384 0.2263644 0.3530544
0.8080194 0.2711921 0.3880016
0.9541203 0.3138201 0.4193477
0.0000062 0.0737001 0.1312078
0.0530164 0.0853144 0.1590575
0.1480701 0.1158765 0.1890855
0.2610027 0.1472112 0.2361761
0.3917748 0.1799182 0.2788629
0.5308345 0.2167301 0.3175389
0.6746999 0.2562772 0.3531252
0.8195744 0.2970934 0.3869701
0.9633368 0.3360736 0.4172292
0.0488261 0.1842019 0.1876367
0.1123940 0.1921578 0.1950299
0.2080742 0.2123720 0.2149041
0.3212888 0.2355505 0.2497580
0.4420089 0.2609856 0.2844557
0.5718640 0.2899642 0.3179463
0.7080872 0.3218042 0.3504636
0.8464284 0.3552157 0.3823690
0.9849056 0.3870471 0.4105449
0.1396892 0.3151474 0.2585921
0.1772644 0.3190662 0.2630630
0.2466423 0.3291323 0.2741620
0.3378641 0.3522179 0.2868600
0.4766255 0.3795034 0.2892984
0.6166102 0.3988319 0.3124058
0.7513466 0.4195632 0.3401546
0.8842104 0.4426343 0.3694215
0.9999438 0.4793639 0.4114071
0.2417105 0.4547101 0.3356245
0.2673125 0.4576651 0.3388627
0.3215388 0.4653154 0.3470364
0.3970859 0.4796124 0.3590304
0.4916538 0.5027452 0.3650886
0.6214615 0.5277375 0.3537695
0.7709012 0.5430303 0.3463950
0.9139048 0.5533114 0.3533178
0.9999812 0.5941880 0.4350045
0.3541328 0.5944730 0.4084201
0.3725971 0.5965311 0.4105557
0.4150160 0.6017588 0.4156394
0.4791924 0.6111264 0.4231904
0.5589075 0.6256244 0.4301102
0.6534206 0.6455527 0.4287371
0.7743794 0.6645046 0.4067686
0.9165124 0.6737224 0.3741888
0.9999970 0.7024706 0.4675656
0.4665518 0.7265572 0.4709970
0.4804521 0.7278264 0.4722220
0.5135289 0.7310379 0.4751315
0.5659986 0.7367210 0.4794876
0.6338613 0.7452282 0.4836007
0.7136365 0.7567406 0.4831338
0.8061299 0.7702046 0.4701497
0.9158336 0.7812085 0.4380016
0.9999837 0.7974833 0.5047617
0.5695029 0.8442335 0.5182519
0.5801579 0.8448449 0.5188171
0.6059988 0.8463834 0.5201271
0.6481907 0.8490730 0.5219686
0.7043387 0.8530139 0.5233748
0.7710809 0.8582246 0.5220908
0.8461734 0.8644132 0.5137006
0.9302636 0.8701496 0.4914397
0.9999950 0.8770012 0.5499578
0.6523195 0.9420199 0.5479368
0.6605659 0.9420837 0.5480177
0.6807792 0.9422322 0.5481412
0.7143584 0.9424506 0.5480507
0.7599212 0.9426779 0.5470870
0.8148405 0.9428046 0.5438994
0.8764159 0.9426116 0.5359630
0.9430713 0.9415146 0.5190131
0.9999868 0.9382764 0.5776610
0.0000122 0.0517043 0.1280281
0.0212331 0.0393678 0.2294778
0.1230058 0.0789682 0.2525048
0.2272896 0.1257596 0.2929534
0.3487847 0.1729530 0.3453978
0.4855299 0.2191617 0.3982839
0.6326197 0.2632969 0.4432976
0.7827440 0.3056640 0.4811869
0.9317513 0.3449692 0.5120422
0.0000219 0.0976286 0.1954554
0.0393678 0.1029642 0.2421885
0.1445283 0.1298868 0.2636066
0.2459902 0.1690837 0.3022863
0.3656508 0.2096994 0.3538937
0.5015750 0.2498948 0.4039459
0.6469944 0.2893257 0.4460409
0.7947902 0.3281248 0.4818791
0.9416141 0.3643976 0.5110383
0.0413526 0.1940674 0.2598657
0.1031395 0.1995873 0.2673455
0.1940018 0.2176048 0.2889330
0.2920581 0.2520996 0.3238409
0.4078253 0.2846672 0.3733298
0.5416142 0.3153853 0.4152977
0.6820426 0.3469728 0.4505911
0.8240002 0.3791019 0.4816076
0.9653716 0.4093544 0.5070890
0.1535324 0.3217691 0.3195783
0.1897482 0.3254734 0.3236080
0.2632409 0.3382215 0.3370810
0.3626003 0.3628852 0.3630247
0.4813434 0.3864396 0.3958857
0.6064116 0.4093863 0.4250665
0.7371930 0.4323348 0.4502289
0.8701208 0.4560265 0.4742583
0.9999909 0.4808533 0.4971270
0.2586901 0.4594102 0.3906722
0.2834670 0.4621967 0.3940103
0.3370710 0.4691759 0.4024777
0.4117107 0.4815329 0.4169250
0.5037209 0.5056664 0.4304570
0.6429884 0.5303700 0.4282500
0.7841705 0.5439226 0.4408079
0.9178818 0.5551988 0.4538303
0.9999822 0.5970933 0.5129453
0.3709856 0.5965862 0.4566503
0.3891324 0.5984654 0.4587214
0.4309901 0.6032039 0.4637998
0.4915154 0.6122085 0.4746557
0.5664901 0.6263658 0.4870772
0.6582959 0.6469719 0.4895833
0.7840360 0.6662952 0.4708403
0.9290540 0.6733241 0.4502933
0.9999944 0.7063340 0.5394571
0.4809047 0.7270717 0.5135785
0.4945886 0.7282342 0.5147879
0.5272035 0.7311688 0.5177162
0.5789994 0.7363539 0.5223228
0.6458172 0.7441879 0.5273070
0.7227962 0.7554784 0.5297381
0.8106905 0.7701438 0.5224998
0.9226768 0.7811358 0.4919557
0.9999815 0.7998903 0.5675934
0.5811396 0.8436972 0.5559699
0.5916526 0.8442442 0.5565330
0.6171660 0.8456190 0.5578638
0.6588478 0.8480203 0.5598358
0.7142791 0.8515580 0.5616566
0.7799617 0.8563439 0.5612804
0.8536104 0.8623122 0.5542543
0.9366681 0.8681545 0.5332338
0.9999950 0.8768648 0.6012227
0.6615024 0.9407327 0.5815157
0.6696527 0.9407561 0.5815988
0.6896363 0.9408022 0.5817406
0.7228435 0.9408416 0.5817286
0.7678905 0.9408140 0.5809907
0.8221075 0.9406399 0.5783039
0.8827218 0.9401828 0.5712492
0.9482290 0.9389815 0.5555003
0.9999811 0.9363098 0.6251456
0.0000201 0.0933674 0.2052328
0.0089613 0.0763908 0.3119905
0.1282967 0.1066469 0.3334911
0.2325448 0.1516005 0.3655060
0.3440467 0.2020990 0.4130239
0.4693279 0.2529506 0.4687799
0.6084199 0.3007107 0.5214599
0.7547704 0.3445725 0.5672320
0.9032845 0.3833640 0.6034441
0.0000417 0.1302420 0.2665779
0.0269478 0.1294192 0.3266576
0.1458071 0.1520008 0.3468276
0.2493948 0.1899692 0.3760634
0.3586811 0.2353264 0.4214007
0.4828892 0.2812542 0.4750274
0.6209378 0.3246658 0.5257677
0.7659108 0.3649424 0.5695870
0.9128882 0.4007600 0.6038690
0.0225372 0.2152013 0.3470834
0.0959426 0.2208902 0.3554856
0.1907520 0.2365721 0.3742977
0.2906844 0.2665859 0.4001867
0.3947167 0.3053437 0.4404372
0.5162868 0.3431559 0.4894808
0.6517499 0.3784971 0.5356056
0.7934991 0.4115474 0.5741897
0.9365170 0.4412256 0.6038036
0.1558863 0.3324288 0.3922525
0.1906923 0.3359371 0.3968447
0.2584746 0.3455771 0.4098553
0.3523694 0.3679124 0.4361863
0.4531106 0.4027482 0.4700276
0.5707568 0.4324696 0.5139257
0.7040806 0.4575187 0.5486757
0.8402248 0.4814503 0.5772147
0.9757616 0.5033368 0.5995505
0.2704141 0.4670852 0.4552166
0.2944108 0.4697274 0.4583522
0.3469836 0.4763761 0.4663045
0.4263882 0.4919359 0.4841079
0.5245737 0.5178224 0.5135739
0.6459599 0.5380313 0.5395964
0.7716277 0.5551286 0.5591966
0.9004628 0.5687534 0.5712819
0.9999457 0.5996910 0.5985643
0.3852349 0.6021537 0.5156782
0.4022724 0.6040602 0.5183174
0.4418533 0.6088429 0.5249862
0.5023550 0.6171191 0.5366411
0.5764913 0.6292308 0.5528182
0.6658607 0.6513325 0.5645576
0.8024225 0.6702018 0.5542568
0.9407603 0.6750070 0.5537928
0.9999875 0.7111887 0.6205519
0.4968629 0.7294893 0.5658814
0.5104210 0.7305210 0.5670105
0.5428289 0.7330990 0.5697979
0.5940944 0.7376381 0.5747810
0.6546423 0.7456096 0.5867023
0.7249708 0.7570197 0.5978498
0.8101543 0.7725361 0.5954497
0.9278534 0.7839068 0.5681892
0.9999512 0.8049322 0.6415669
0.5951610 0.8439871 0.6035912
0.6055598 0.8444419 0.6041290
0.6308234 0.8455760 0.6054292
0.6721476 0.8475304 0.6074780
0.7270705 0.8503794 0.6097623
0.7917738 0.8543158 0.6106837
0.8614659 0.8602938 0.6084420
0.9391420 0.8676338 0.5947675
0.9999734 0.8780656 0.6584472
0.6730512 0.9395209 0.6249327
0.6811076 0.9394831 0.6250096
0.7008700 0.9393724 0.6251534
0.7337260 0.9391297 0.6252099
0.7782849 0.9386810 0.6247386
0.8317832 0.9379714 0.6227319
0.8912496 0.9369881 0.6169845
0.9551606 0.9355249 0.6030579
0.9999862 0.9340054 0.6810515
0.0000342 0.1392411 0.2915847
0.0000235 0.1272862 0.3840788
0.1321279 0.1434001 0.4208656
0.2419965 0.1822885 0.4485586
0.3504470 0.2312418 0.4881047
0.4676227 0.2835211 0.5378341
0.5964119 0.3343797 0.5909290
0.7339821 0.3812648 0.6416365
0.8768884 0.4219974 0.6841102
0.0000076 0.1695127 0.3464974
0.0144644 0.1644191 0.4138139
0.1487262 0.1829141 0.4335711
0.2571373 0.2164122 0.4596192
0.3641900 0.2609255 0.4965296
0.4800107 0.3093066 0.5437187
0.6073549 0.3566249 0.5953255
0.7437451 0.4002650 0.6445815
0.8855253 0.4381385 0.6854641
0.0103250 0.2425516 0.4355726
0.0919380 0.2477324 0.4437724
0.1907084 0.2615719 0.4615131
0.2937603 0.2876907 0.4851085
0.3985293 0.3250492 0.5153437
0.5103909 0.3668285 0.5573327
0.6340338 0.4074286 0.6057704
0.7678756 0.4442424 0.6512071
0.9068835 0.4759452 0.6881518
0.1531029 0.3527598 0.4780479
0.1892884 0.3565100 0.4836911
0.2599665 0.3664223 0.4979019
0.3533703 0.3854632 0.5195641
0.4544884 0.4156948 0.5439029
0.5596572 0.4510611 0.5788895
0.6788481 0.4832277 0.6211976
0.8087999 0.5109624 0.6601255
0.9430159 0.5342083 0.6902574
0.2780752 0.4774736 0.5266409
0.3009494 0.4798437 0.5298016
0.3511873 0.4859312 0.5380626
0.4238912 0.4976185 0.5544408
0.5186989 0.5211022 0.5822556
0.6187593 0.5529171 0.6114396
0.7349204 0.5766955 0.6461559
0.8651251 0.5927793 0.6686656
0.9933193 0.6062030 0.6865277
0.3946701 0.6098710 0.5823271
0.4111955 0.6116608 0.5848558
0.4497244 0.6161707 0.5912464
0.5090457 0.6240576 0.6024861
0.5879491 0.6399286 0.6230715
0.6804503 0.6641426 0.6538599
0.8018586 0.6777608 0.6689619
0.9248853 0.6860491 0.6755915
0.9999888 0.7143334 0.6999061
0.5108095 0.7344586 0.6249316
0.5241445 0.7354230 0.6259854
0.5529694 0.7383784 0.6312820
0.5992850 0.7435046 0.6405730
0.6595469 0.7508288 0.6540374
0.7283739 0.7602715 0.6703408
0.8110503 0.7777651 0.6786164
0.9408162 0.7884235 0.6587479
0.9999813 0.8121527 0.7239512
0.6089524 0.8459285 0.6577559
0.6192853 0.8462886 0.6582089
0.6444407 0.8471690 0.6593197
0.6857288 0.8486196 0.6611483
0.7394023 0.8508800 0.6648568
0.7950022 0.8556479 0.6765914
0.8569404 0.8620631 0.6851199
0.9320492 0.8703323 0.6767218
0.9999734 0.8817445 0.7198526
0.6851849 0.9389990 0.6750124
0.6931751 0.9388856 0.6750539
0.7127921 0.9385778 0.6751261
0.7454493 0.9379669 0.6751286
0.7897756 0.9369295 0.6747818
0.8428900 0.9353808 0.6734100
0.9014103 0.9334184 0.6692840
0.9598366 0.9323601 0.6623926
0.9999789 0.9330308 0.7270200
0.0000634 0.1885130 0.3852987
0.0000444 0.1811609 0.4593486
0.1340745 0.1873368 0.5123101
0.2513541 0.2193459 0.5384271
0.3615886 0.2636085 0.5714443
0.4754270 0.3140547 0.6125404
0.5962573 0.3655315 0.6603642
0.7244479 0.4143205 0.7100376
0.8588037 0.4573128 0.7550764
0.0000979 0.2138922 0.4339694
0.0000650 0.2064963 0.5039318
0.1509623 0.2212882 0.5241526
0.2649988 0.2496730 0.5491304
0.3745707 0.2901544 0.5796277
0.4871290 0.3373381 0.6183199
0.6062915 0.3859499 0.6645649
0.7332094 0.4319869 0.7128284
0.8664292 0.4724440 0.7566327
0.0000809 0.2759963 0.5258268
0.0890673 0.2804802 0.5341008
0.1928438 0.2925873 0.5507632
0.2994160 0.3152268 0.5727321
0.4067498 0.3489933 0.5982694
0.5158818 0.3901204 0.6317794
0.6309721 0.4330662 0.6742499
0.7547690 0.4732994 0.7191997
0.8852115 0.5081723 0.7600471
0.1543621 0.3785677 0.5669116
0.1916741 0.3820817 0.5724626
0.2638977 0.3911728 0.5855711
0.3576082 0.4079752 0.6046166
0.4599075 0.4342243 0.6256401
0.5634046 0.4684228 0.6522196
0.6723036 0.5043777 0.6882632
0.7908148 0.5369180 0.7282828
0.9166982 0.5638717 0.7643496
0.2832818 0.4954419 0.6074791
0.3060483 0.4978842 0.6111191
0.3561880 0.5042908 0.6209770
0.4307213 0.5162077 0.6383364
0.5234560 0.5354350 0.6597668
0.6227601 0.5628908 0.6799220
0.7257010 0.5920751 0.7063817
0.8400708 0.6155306 0.7374754
0.9600465 0.6333097 0.7669209
0.4043710 0.6191063 0.6518899
0.4202208 0.6206554 0.6542838
0.4572194 0.6245657 0.6603508
0.5142512 0.6315127 0.6712271
0.5866218 0.6426946 0.6888126
0.6789450 0.6642241 0.7151052
0.7754522 0.6900762 0.7365030
0.8868972 0.7052011 0.7592775
0.9999966 0.7157589 0.7698452
0.5189220 0.7410473 0.6912518
0.5305329 0.7421293 0.6932901
0.5584480 0.7448567 0.6984433
0.6033647 0.7496256 0.7075069
0.6619882 0.7565720 0.7208373
0.7351345 0.7703607 0.7427795
0.8175547 0.7904299 0.7732971
0.9353826 0.7950176 0.7753865
0.9999718 0.8158493 0.7974085
0.6200517 0.8496265 0.7168670
0.6302822 0.8499227 0.7171900
0.6552529 0.8506376 0.7179719
0.6922090 0.8526109 0.7230873
0.7382941 0.8560972 0.7339535
0.7931956 0.8603200 0.7478342
0.8529719 0.8648660 0.7625612
0.9256432 0.8754737 0.7657034
0.9999778 0.8895621 0.7988854
0.6957499 0.9396631 0.7295641
0.7036910 0.9394801 0.7295241
0.7232171 0.9389886 0.7293994
0.7558164 0.9380241 0.7290981
0.8002411 0.9363773 0.7284527
0.8507767 0.9344987 0.7301395
0.8979112 0.9340037 0.7400117
0.9486680 0.9333733 0.7442475
0.9999845 0.9337335 0.7615547
0.0000385 0.2404357 0.4846660
0.0000000 0.2347913 0.5472931
0.1343289 0.2361997 0.6070438
0.2596130 0.2621737 0.6320758
0.3742519 0.3004094 0.6601529
0.4877722 0.3467717 0.6938286
0.6038090 0.3964272 0.7344182
0.7247356 0.4450397 0.7786326
0.8504915 0.4890978 0.8216832
0.0001065 0.2620407 0.5276850
0.0001224 0.2560160 0.5881288
0.1521940 0.2652867 0.6179937
0.2728673 0.2889470 0.6414540
0.3863249 0.3242112 0.6678201
0.4987046 0.3677819 0.6995612
0.6132934 0.4149780 0.7384224
0.7328862 0.4612804 0.7811452
0.8573858 0.5031753 0.8230652
0.0000117 0.3153401 0.6149203
0.0864490 0.3184976 0.6268971
0.1966707 0.3289802 0.6418151
0.3064099 0.3484660 0.6623208
0.4162027 0.3781109 0.6854075
0.5254966 0.4161409 0.7130602
0.6367245 0.4582019 0.7476215
0.7529508 0.4995523 0.7868456
0.8743189 0.5366347 0.8260939
0.1584750 0.4088632 0.6569422
0.1964284 0.4120256 0.6620502
0.2693666 0.4201658 0.6740013
0.3630495 0.4350489 0.6915809
0.4655672 0.4581136 0.7114010
0.5701099 0.4891004 0.7332819
0.6760511 0.5244316 0.7609794
0.7864362 0.5591141 0.7948230
0.9024609 0.5893347 0.8299319
0.2869040 0.5187252 0.6946343
0.3100157 0.5210375 0.6983071
0.3616902 0.5269513 0.7073796
0.4380304 0.5376264 0.7220598
0.5307776 0.5541557 0.7392732
0.6301481 0.5775107 0.7556340
0.7294865 0.6058078 0.7752384
0.8316952 0.6334583 0.8024714
0.9403190 0.6558541 0.8325301
0.4116539 0.6340429 0.7283222
0.4280317 0.6354653 0.7303065
0.4660249 0.6391680 0.7357762
0.5230521 0.6462988 0.7478484
0.5977498 0.6575029 0.7654669
0.6872926 0.6739565 0.7838350
0.7818395 0.6958144 0.7971582
0.8787437 0.7164415 0.8131882
0.9846518 0.7289873 0.8311564
0.5287399 0.7482465 0.7581265
0.5399198 0.7491333 0.7600047
0.5668221 0.7513596 0.7647348
0.6101485 0.7552295 0.7730054
0.6667865 0.7609061 0.7852037
0.7338555 0.7692453 0.8024929
0.8195730 0.7862560 0.8254394
0.9088469 0.8038497 0.8374626
0.9999810 0.8140739 0.8492382
0.6279664 0.8538496 0.7800217
0.6379580 0.8540527 0.7802363
0.6602221 0.8549104 0.7825387
0.6932274 0.8570582 0.7898331
0.7376488 0.8601226 0.8004756
0.7905201 0.8639853 0.8144143
0.8542217 0.8733859 0.8357808
0.9237596 0.8869214 0.8636239
0.9999851 0.8935034 0.8734851
0.7031042 0.9412791 0.7877361
0.7109489 0.9410447 0.7875937
0.7302674 0.9404228 0.7872074
0.7626243 0.9392242 0.7864365
0.8020555 0.9382531 0.7897962
0.8432581 0.9380839 0.8006249
0.8894394 0.9371000 0.8129136
0.9376950 0.9346311 0.8238152
0.9978579 0.9363359 0.8200375
0.0001031 0.2943346 0.5879116
0.0001517 0.2895470 0.6421863
0.1340755 0.2883111 0.7039329
0.2681392 0.3094209 0.7266664
0.3869355 0.3415657 0.7517668
0.5015415 0.3825962 0.7801058
0.6154800 0.4285360 0.8134930
0.7315498 0.4750588 0.8504991
0.8501806 0.5185154 0.8884246
0.0002347 0.3128645 0.6260697
0.0001863 0.3075602 0.6793647
0.1545484 0.3133293 0.7132610
0.2813743 0.3329207 0.7347639
0.3981994 0.3628606 0.7586795
0.5115629 0.4015725 0.7856478
0.6244014 0.4453394 0.8173154
0.7392190 0.4898708 0.8528181
0.8565635 0.5314732 0.8895851
0.0002032 0.3584684 0.7082210
0.0882603 0.3607734 0.7206370
0.2024275 0.3697591 0.7340408
0.3144378 0.3863802 0.7531332
0.4260410 0.4119274 0.7746624
0.5363216 0.4457887 0.7985054
0.6464523 0.4848545 0.8261372
0.7581233 0.5250006 0.8580761
0.8722405 0.5624259 0.8920758
0.1650799 0.4431138 0.7477976
0.2030833 0.4459046 0.7524405
0.2761236 0.4530759 0.7633392
0.3695885 0.4661318 0.7797146
0.4723656 0.4862332 0.7983046
0.5779262 0.5135734 0.8173832
0.6834441 0.5461646 0.8390540
0.7897174 0.5801576 0.8654083
0.8982587 0.6115402 0.8950245
0.2924209 0.5454095 0.7827461
0.3156100 0.5474944 0.7862039
0.3673959 0.5528039 0.7945805
0.4434543 0.5623134 0.8077866
0.5351327 0.5768329 0.8232670
0.6340096 0.5970827 0.8380036
0.7335155 0.6224141 0.8530098
0.8324092 0.6495360 0.8723356
0.9330438 0.6740046 0.8963870
0.4153231 0.6537483 0.8117132
0.4315597 0.6551138 0.8139180
0.4698453 0.6585890 0.8194791
0.5301142 0.6647922 0.8290473
0.6080354 0.6741942 0.8417731
0.6979264 0.6874621 0.8542932
0.7912996 0.7052177 0.8639814
0.8820915 0.7254949 0.8755796
0.9729616 0.7430932 0.8934084
0.5323734 0.7600114 0.8324365
0.5445767 0.7606594 0.8334022
0.5739719 0.7623015 0.8358831
0.6204117 0.7654145 0.8413706
0.6774886 0.7710733 0.8540753
0.7476856 0.7791900 0.8703153
0.8301904 0.7904706 0.8841243
0.9162266 0.8045448 0.8893941
0.9999896 0.8164692 0.8937976
0.6328465 0.8587256 0.8461689
0.6424925 0.8588022 0.8463305
0.6660454 0.8589619 0.8467033
0.6990094 0.8601918 0.8523308
0.7419938 0.8621074 0.8616508
0.7932987 0.8644225 0.8736767
0.8514495 0.8677226 0.8888712
0.9272716 0.8779398 0.9066162
0.9999865 0.8879587 0.9091615
0.7071842 0.9427685 0.8488050
0.7148429 0.9424580 0.8485807
0.7337106 0.9416436 0.8479825
0.7653344 0.9401072 0.8468215
0.7978413 0.9398189 0.8549315
0.8372583 0.9391614 0.8654142
0.8812191 0.9378094 0.8777571
0.9332972 0.9405649 0.8958518
0.9885561 0.9452720 0.9178775
