LumaGrade-Vercel/public/luts/leica-classic.cube
TITLE "Leica Classic Official-Look Reference Plus v2"
LUT_3D_SIZE 5
DOMAIN_MIN 0.0 0.0 0.0
DOMAIN_MAX 1.0 1.0 1.0
0.0000000 0.0005082 0.0010079
0.1661614 0.0147370 0.0357513
0.4090311 0.0873091 0.1207503
0.6847421 0.1904316 0.2202825
0.9709025 0.2884552 0.3091049
0.0020386 0.1798990 0.1013600
0.1714045 0.2043874 0.1105934
0.4446519 0.2521947 0.1253109
0.7204841 0.3074147 0.2149482
0.9966084 0.3725021 0.2990604
0.2171995 0.4535003 0.2765832
0.3018555 0.4651002 0.2871638
0.4809364 0.5024758 0.2982528
0.7531876 0.5449405 0.2612459
0.9999378 0.5912606 0.3508641
0.4526153 0.7269808 0.4305158
0.5005696 0.7317470 0.4346357
0.6232220 0.7466661 0.4422673
0.7984128 0.7716960 0.4267066
0.9999689 0.7961600 0.4437715
0.6441607 0.9433398 0.5180974
0.6729600 0.9436578 0.5182850
0.7530183 0.9444113 0.5169856
0.8710612 0.9447053 0.5047798
0.9999933 0.9401054 0.5320034
0.0000079 0.0192284 0.0622573
0.1217233 0.0585155 0.1822715
0.3705837 0.1392287 0.2733255
0.6601384 0.2263644 0.3530544
0.9541203 0.3138201 0.4193477
0.0488261 0.1842019 0.1876367
0.2080742 0.2123720 0.2149041
0.4420089 0.2609856 0.2844557
0.7080872 0.3218042 0.3504636
0.9849056 0.3870471 0.4105449
0.2417105 0.4547101 0.3356245
0.3215388 0.4653154 0.3470364
0.4916538 0.5027452 0.3650886
0.7709012 0.5430303 0.3463950
0.9999812 0.5941880 0.4350045
0.4665518 0.7265572 0.4709970
0.5135289 0.7310379 0.4751315
0.6338613 0.7452282 0.4836007
0.8061299 0.7702046 0.4701497
0.9999837 0.7974833 0.5047617
0.6523195 0.9420199 0.5479368
0.6807792 0.9422322 0.5481412
0.7599212 0.9426779 0.5470870
0.8764159 0.9426116 0.5359630
0.9999868 0.9382764 0.5776610
0.0000201 0.0933674 0.2052328
0.1282967 0.1066469 0.3334911
0.3440467 0.2020990 0.4130239
0.6084199 0.3007107 0.5214599
0.9032845 0.3833640 0.6034441
0.0225372 0.2152013 0.3470834
0.1907520 0.2365721 0.3742977
0.3947167 0.3053437 0.4404372
0.6517499 0.3784971 0.5356056
0.9365170 0.4412256 0.6038036
0.2704141 0.4670852 0.4552166
0.3469836 0.4763761 0.4663045
0.5245737 0.5178224 0.5135739
0.7716277 0.5551286 0.5591966
0.9999457 0.5996910 0.5985643
0.4968629 0.7294893 0.5658814
0.5428289 0.7330990 0.5697979
0.6546423 0.7456096 0.5867023
0.8101543 0.7725361 0.5954497
0.9999512 0.8049322 0.6415669
0.6730512 0.9395209 0.6249327
0.7008700 0.9393724 0.6251534
0.7782849 0.9386810 0.6247386
0.8912496 0.9369881 0.6169845
0.9999862 0.9340054 0.6810515
0.0000634 0.1885130 0.3852987
0.1340745 0.1873368 0.5123101
0.3615886 0.2636085 0.5714443
0.5962573 0.3655315 0.6603642
0.8588037 0.4573128 0.7550764
0.0000809 0.2759963 0.5258268
0.1928438 0.2925873 0.5507632
0.4067498 0.3489933 0.5982694
0.6309721 0.4330662 0.6742499
0.8852115 0.5081723 0.7600471
0.2832818 0.4954419 0.6074791
0.3561880 0.5042908 0.6209770
0.5234560 0.5354350 0.6597668
0.7257010 0.5920751 0.7063817
0.9600465 0.6333097 0.7669209
0.5189220 0.7410473 0.6912518
0.5584480 0.7448567 0.6984433
0.6619882 0.7565720 0.7208373
0.8175547 0.7904299 0.7732971
0.9999718 0.8158493 0.7974085
0.6957499 0.9396631 0.7295641
0.7232171 0.9389886 0.7293994
0.8002411 0.9363773 0.7284527
0.8979112 0.9340037 0.7400117
0.9999845 0.9337335 0.7615547
0.0001031 0.2943346 0.5879116
0.1340755 0.2883111 0.7039329
0.3869355 0.3415657 0.7517668
0.6154800 0.4285360 0.8134930
0.8501806 0.5185154 0.8884246
0.0002032 0.3584684 0.7082210
0.2024275 0.3697591 0.7340408
0.4260410 0.4119274 0.7746624
0.6464523 0.4848545 0.8261372
0.8722405 0.5624259 0.8920758
0.2924209 0.5454095 0.7827461
0.3673959 0.5528039 0.7945805
0.5351327 0.5768329 0.8232670
0.7335155 0.6224141 0.8530098
0.9330438 0.6740046 0.8963870
0.5323734 0.7600114 0.8324365
0.5739719 0.7623015 0.8358831
0.6774886 0.7710733 0.8540753
0.8301904 0.7904706 0.8841243
0.9999896 0.8164692 0.8937976
0.7071842 0.9427685 0.8488050
0.7337106 0.9416436 0.8479825
0.7978413 0.9398189 0.8549315
0.8812191 0.9378094 0.8777571
0.9885561 0.9452720 0.9178775
