LumaGrade-Vercel/public/luts/leica-classic.cube
TITLE "Leica Classic Official-Look Reference Plus v2"
LUT_3D_SIZE 33
DOMAIN_MIN 0.0 0.0 0.0
DOMAIN_MAX 1.0 1.0 1.0
0.0000000 0.0005082 0.0010079
0.0131066 0.0018396 0.0039214
0.0263963 0.0025773 0.0059132
0.0460722 0.0035468 0.0085733
0.0676253 0.0046294 0.0117765
0.0904736 0.0061248 0.0159172
0.1145573 0.0081857 0.0211686
0.1398096 0.0109898 0.0277153
0.1661614 0.0147370 0.0357513
0.1935424 0.0196471 0.0452252
0.2218826 0.0259563 0.0551968
0.2511123 0.0339149 0.0655528
0.2811623 0.0436520 0.0762697
0.3120335 0.0540545 0.0871943
0.3438435 0.0645613 0.0979482
0.3761971 0.0756631 0.1091397
0.4090311 0.0873091 0.1207503
0.4422835 0.0994487 0.1327597
0.4758942 0.1120330 0.1451462
0.5098046 0.1250144 0.1578871
0.5439897 0.1383002 0.1708931
0.5786669 0.1514613 0.1835870
0.6137442 0.1645241 0.1960186
0.6491276 0.1775148 0.2082440
0.6847421 0.1904316 0.2202825
0.7205188 0.2032643 0.2321439
0.7563902 0.2160018 0.2438376
0.7922855 0.2286384 0.2553817
0.8281131 0.2411986 0.2668390
0.8638954 0.2535501 0.2780454
0.8996552 0.2655620 0.2888357
0.9353411 0.2772065 0.2991939
0.9709025 0.2884552 0.3091049
0.0000000 0.0091296 0.0062044
0.0038747 0.0131911 0.0060426
0.0175548 0.0153461 0.0049484
0.0421629 0.0167002 0.0055509
0.0689533 0.0182281 0.0084555
0.0941654 0.0201537 0.0127756
0.1189102 0.0225077 0.0181562
0.1443475 0.0257573 0.0248705
0.1706726 0.0300682 0.0330867
0.1979286 0.0356292 0.0429113
0.2260983 0.0425825 0.0533324
0.2551381 0.0504454 0.0640500
0.2849921 0.0590637 0.0750610
0.3155989 0.0683767 0.0863588
0.3470840 0.0780591 0.0975664
0.3792842 0.0881881 0.1088618
0.4119665 0.0989475 0.1205614
0.4450707 0.1102815 0.1326469
0.4785372 0.1221345 0.1450981
0.5123080 0.1344522 0.1578938
0.5463940 0.1470890 0.1708729
0.5809884 0.1596606 0.1835069
0.6159742 0.1722111 0.1958975
0.6512635 0.1847462 0.2080894
0.6867833 0.1972533 0.2200993
0.7224654 0.2097151 0.2319360
0.7582423 0.2221151 0.2436090
0.7940425 0.2344445 0.2551381
0.8297741 0.2467238 0.2665871
0.8654791 0.2587941 0.2777520
0.9011628 0.2705476 0.2885021
0.9367738 0.2819537 0.2988217
0.9722615 0.2929818 0.3086955
0.0000045 0.0189395 0.0115340
0.0007661 0.0245809 0.0111556
0.0109543 0.0277469 0.0109703
0.0309940 0.0317539 0.0094495
0.0622061 0.0350169 0.0088575
0.0924833 0.0379173 0.0112015
0.1204317 0.0408535 0.0158532
0.1473411 0.0442567 0.0222736
0.1743580 0.0485221 0.0304381
0.2019067 0.0536827 0.0404169
0.2301581 0.0597182 0.0512855
0.2591645 0.0665903 0.0623822
0.2889215 0.0742525 0.0737105
0.3193961 0.0826535 0.0852732
0.3505404 0.0917399 0.0970705
0.3825943 0.1010842 0.1085187
0.4151376 0.1110801 0.1203235
0.4480991 0.1216948 0.1324988
0.4814225 0.1328743 0.1450264
0.5150512 0.1445641 0.1578866
0.5490500 0.1565549 0.1708122
0.5835567 0.1685471 0.1833881
0.6184457 0.1805834 0.1957371
0.6536347 0.1926543 0.2078946
0.6890525 0.2047389 0.2198749
0.7246319 0.2168143 0.2316858
0.7603055 0.2288600 0.2433374
0.7960009 0.2408648 0.2548522
0.8316291 0.2528417 0.2662884
0.8672491 0.2646107 0.2774074
0.9028487 0.2760858 0.2881132
0.9383769 0.2872339 0.2983899
0.9737828 0.2980223 0.3082224
0.0000019 0.0366529 0.0203270
0.0000023 0.0419591 0.0190943
0.0079447 0.0459126 0.0189511
0.0244780 0.0505514 0.0187720
0.0520463 0.0559463 0.0169320
0.0845534 0.0606496 0.0152954
0.1171404 0.0645012 0.0165862
0.1477074 0.0678007 0.0210095
0.1769342 0.0714084 0.0281444
0.2057168 0.0757099 0.0376587
0.2346178 0.0808194 0.0487855
0.2639311 0.0867479 0.0602373
0.2937917 0.0934697 0.0719197
0.3242475 0.1009454 0.0838055
0.3552989 0.1091302 0.0958869
0.3869951 0.1178916 0.1080105
0.4194016 0.1270523 0.1199634
0.4522070 0.1368576 0.1322670
0.4853628 0.1472593 0.1449048
0.5188178 0.1582068 0.1578589
0.5527351 0.1693905 0.1706674
0.5871296 0.1806725 0.1831727
0.6218930 0.1920652 0.1954689
0.6569495 0.2035462 0.2075822
0.6922309 0.2150871 0.2195240
0.7276712 0.2266599 0.2313018
0.7632035 0.2382405 0.2429264
0.7987538 0.2498168 0.2544253
0.8342438 0.2613846 0.2658359
0.8697462 0.2727489 0.2768911
0.9052293 0.2838479 0.2875351
0.9406419 0.2946457 0.2977519
0.9759335 0.3051073 0.3075265
0.0000115 0.0613213 0.0331171
0.0000098 0.0658302 0.0314630
0.0066588 0.0689766 0.0305611
0.0227571 0.0720099 0.0309728
0.0471250 0.0768485 0.0306024
0.0765990 0.0828149 0.0285615
0.1093549 0.0884176 0.0260736
0.1432722 0.0931000 0.0260593
0.1760606 0.0970320 0.0297424
0.2074858 0.1009606 0.0370770
0.2381006 0.1053679 0.0471778
0.2684499 0.1104584 0.0583661
0.2988970 0.1162923 0.0701180
0.3296491 0.1228670 0.0822074
0.3608095 0.1301546 0.0945349
0.3924174 0.1381167 0.1070581
0.4245949 0.1465881 0.1195126
0.4572828 0.1555516 0.1319680
0.4902855 0.1651275 0.1447417
0.5236069 0.1752246 0.1577259
0.5574494 0.1855226 0.1703922
0.5917216 0.1960095 0.1828169
0.6263417 0.2066665 0.1950503
0.6612420 0.2174621 0.2071107
0.6963584 0.2283626 0.2190065
0.7316273 0.2393366 0.2307452
0.7669827 0.2503576 0.2423393
0.8023466 0.2614167 0.2538269
0.8376707 0.2724710 0.2651866
0.8730237 0.2833353 0.2761592
0.9083574 0.2939662 0.2867229
0.9436212 0.3043253 0.2968619
0.9787648 0.3143752 0.3065610
0.0000056 0.0882318 0.0495603
0.0000021 0.0921519 0.0475758
0.0073437 0.0948640 0.0468006
0.0248144 0.0973191 0.0477512
0.0488364 0.1009644 0.0484002
0.0750617 0.1060126 0.0479377
0.1041800 0.1121297 0.0457402
0.1368329 0.1182822 0.0426782
0.1713282 0.1236151 0.0412931
0.2056387 0.1281722 0.0436637
0.2389248 0.1324970 0.0499005
0.2712765 0.1370744 0.0589295
0.3030850 0.1421811 0.0696396
0.3347037 0.1479330 0.0813104
0.3663779 0.1543603 0.0935428
0.3982552 0.1614529 0.1061299
0.4304126 0.1691824 0.1189672
0.4630161 0.1773857 0.1317221
0.4959459 0.1861243 0.1446161
0.5292718 0.1952691 0.1574378
0.5630641 0.2046675 0.1699624
0.5972318 0.2143166 0.1822905
0.6317135 0.2241840 0.1944478
0.6664516 0.2342330 0.2064446
0.7013886 0.2444272 0.2182867
0.7364649 0.2547334 0.2299810
0.7716156 0.2651254 0.2415438
0.8067547 0.2756032 0.2530347
0.8419021 0.2860467 0.2642958
0.8770784 0.2963320 0.2751668
0.9122337 0.3064170 0.2856317
0.9473182 0.3162609 0.2956747
0.9822823 0.3258244 0.3052806
0.0000197 0.1171326 0.0666403
0.0000164 0.1206065 0.0644991
0.0107891 0.1224985 0.0646589
0.0299558 0.1246240 0.0658154
0.0545566 0.1276657 0.0670362
0.0793133 0.1318391 0.0678495
0.1053693 0.1372353 0.0675463
0.1343117 0.1435395 0.0656261
0.1666570 0.1499741 0.0626631
0.2013109 0.1558184 0.0605474
0.2365482 0.1609399 0.0612852
0.2712500 0.1656846 0.0656525
0.3051159 0.1704824 0.0731830
0.3382973 0.1756419 0.0829489
0.3710680 0.1813289 0.0941343
0.4036666 0.1876111 0.1061963
0.4362630 0.1945018 0.1188099
0.4689628 0.2019863 0.1317899
0.5020284 0.2098601 0.1445985
0.5355199 0.2180356 0.1570899
0.5693464 0.2265356 0.1694200
0.6034698 0.2353293 0.1816087
0.6378516 0.2443788 0.1936591
0.6724489 0.2536453 0.2055706
0.7072140 0.2630915 0.2173441
0.7420936 0.2726842 0.2289858
0.7770241 0.2824005 0.2405190
0.8119340 0.2922270 0.2519815
0.8468926 0.3019963 0.2631171
0.8818731 0.3116409 0.2738664
0.9168277 0.3211172 0.2842132
0.9517079 0.3303829 0.2941416
0.9864654 0.3393971 0.3036366
0.0000172 0.1478397 0.0838222
0.0038877 0.1503548 0.0825360
0.0184027 0.1516455 0.0834575
0.0393521 0.1535469 0.0847037
0.0634060 0.1562040 0.0861842
0.0871499 0.1597728 0.0876417
0.1115142 0.1643997 0.0886110
0.1375768 0.1701009 0.0884812
0.1664253 0.1765879 0.0868484
0.1984908 0.1832535 0.0841045
0.2330705 0.1894961 0.0816602
0.2687849 0.1950984 0.0812682
0.3044627 0.2002481 0.0840092
0.3395405 0.2052932 0.0899314
0.3739274 0.2105370 0.0984443
0.4077676 0.2161794 0.1087961
0.4412528 0.2223233 0.1203748
0.4745831 0.2289829 0.1326830
0.5080963 0.2359915 0.1449776
0.5419363 0.2432510 0.1569625
0.5759522 0.2508640 0.1689456
0.6101480 0.2587985 0.1808868
0.6445146 0.2670165 0.1927545
0.6790299 0.2754799 0.2045284
0.7136608 0.2841524 0.2161985
0.7483633 0.2930030 0.2277682
0.7830700 0.3020208 0.2392829
0.8177875 0.3111193 0.2506276
0.8525567 0.3201702 0.2616106
0.8873345 0.3291273 0.2722140
0.9220760 0.3379459 0.2824206
0.9567354 0.3465829 0.2922140
0.9912664 0.3549963 0.3015787
0.0020386 0.1798990 0.1013600
0.0159475 0.1809336 0.1021986
0.0317338 0.1821187 0.1031265
0.0530512 0.1838476 0.1044059
0.0752202 0.1862299 0.1060009
0.0977890 0.1893769 0.1077698
0.1209774 0.1934107 0.1094324
0.1452658 0.1984241 0.1105479
0.1714045 0.2043874 0.1105934
0.2001947 0.2110396 0.1092394
0.2320022 0.2178919 0.1067620
0.2663774 0.2244407 0.1042267
0.3022491 0.2304357 0.1031038
0.3385192 0.2359503 0.1045493
0.3744804 0.2412438 0.1089652
0.4098531 0.2465939 0.1160908
0.4446519 0.2521947 0.1253109
0.4791906 0.2580509 0.1355969
0.5136000 0.2642054 0.1464888
0.5479999 0.2706563 0.1576516
0.5824340 0.2774110 0.1689583
0.6168832 0.2844958 0.1804180
0.6513741 0.2918801 0.1919381
0.6859119 0.2995306 0.2034592
0.7204841 0.3074147 0.2149482
0.7550576 0.3155078 0.2264030
0.7895912 0.3237870 0.2378306
0.8241674 0.3321063 0.2489658
0.8587663 0.3404060 0.2597559
0.8933506 0.3486397 0.2701794
0.9278805 0.3567625 0.2802165
0.9623141 0.3647308 0.2898491
0.9966084 0.3725021 0.2990604
0.0203419 0.2117004 0.1218438
0.0353548 0.2126587 0.1226713
0.0513030 0.2137521 0.1235911
0.0697257 0.2153382 0.1248728
0.0897718 0.2175052 0.1265092
0.1109198 0.2203360 0.1284211
0.1329716 0.2239241 0.1304400
0.1559990 0.2283614 0.1322784
0.1803424 0.2337000 0.1335282
0.2065743 0.2398828 0.1337421
0.2353132 0.2466743 0.1326489
0.2668721 0.2536717 0.1304479
0.3009651 0.2604500 0.1279567
0.3367716 0.2667535 0.1263891
0.3733202 0.2725781 0.1268571
0.4098938 0.2780837 0.1298847
0.4462451 0.2834141 0.1351309
0.4822119 0.2887631 0.1422569
0.5178111 0.2942586 0.1507758
0.5531423 0.2999653 0.1602011
0.5882804 0.3059228 0.1702202
0.6232173 0.3121944 0.1807676
0.6580248 0.3187613 0.1916267
0.6927381 0.3256025 0.2026708
0.7273672 0.3326957 0.2138256
0.7618886 0.3400312 0.2250828
0.7963830 0.3474986 0.2361992
0.8308770 0.3550174 0.2470409
0.8653482 0.3625410 0.2575717
0.8997688 0.3700236 0.2677618
0.9341060 0.3774204 0.2775856
0.9683240 0.3846877 0.2870206
0.9999272 0.3944950 0.2992276
0.0471578 0.2444917 0.1430661
0.0603199 0.2453806 0.1438755
0.0730634 0.2463924 0.1447780
0.0887507 0.2478549 0.1460438
0.1067037 0.2498422 0.1476815
0.1262879 0.2524194 0.1496474
0.1471136 0.2556586 0.1518382
0.1690163 0.2596358 0.1540691
0.1920514 0.2644169 0.1560555
0.2164963 0.2700239 0.1574252
0.2428104 0.2763837 0.1577951
0.2714864 0.2832837 0.1569394
0.3027937 0.2903859 0.1550056
0.3365533 0.2973277 0.1526312
0.3722235 0.3038297 0.1506709
0.4090805 0.3097826 0.1499102
0.4463485 0.3152904 0.1510401
0.4835292 0.3205271 0.1542673
0.5203841 0.3256649 0.1594184
0.5568494 0.3308333 0.1661280
0.5929669 0.3361135 0.1739612
0.6286741 0.3416340 0.1828407
0.6640184 0.3474355 0.1925263
0.6990947 0.3534973 0.2027128
0.7339218 0.3598242 0.2132852
0.7685870 0.3663482 0.2239865
0.8031689 0.3729839 0.2345781
0.8376707 0.3796884 0.2449833
0.8720848 0.3864176 0.2551435
0.9063955 0.3931274 0.2650122
0.9405799 0.3997738 0.2745522
0.9746104 0.4063137 0.2837326
0.9999508 0.4214232 0.3041937
0.0758205 0.2780892 0.1647192
0.0858073 0.2789352 0.1656196
0.0960517 0.2798950 0.1666181
0.1095578 0.2812473 0.1678565
0.1255950 0.2830786 0.1694720
0.1435950 0.2854420 0.1714418
0.1631220 0.2883947 0.1737018
0.1838977 0.2919975 0.1761316
0.2058097 0.2963107 0.1785376
0.2289208 0.3013782 0.1806456
0.2534711 0.3072001 0.1821189
0.2798400 0.3136946 0.1826282
0.3084615 0.3206607 0.1819430
0.3396962 0.3277680 0.1799874
0.3734128 0.3346968 0.1772395
0.4091253 0.3412018 0.1744755
0.4461383 0.3471819 0.1725464
0.4837651 0.3526779 0.1721217
0.5214843 0.3578175 0.1735370
0.5589835 0.3627505 0.1767930
0.5961245 0.3676068 0.1816580
0.6328632 0.3724836 0.1878345
0.6689314 0.3776305 0.1956534
0.7045448 0.3829943 0.2044498
0.7398017 0.3885570 0.2138692
0.7748193 0.3942577 0.2235456
0.8096322 0.4000691 0.2333149
0.8442619 0.4059564 0.2430513
0.8787176 0.4118814 0.2526587
0.9129979 0.4178034 0.2620628
0.9470926 0.4236809 0.2712054
0.9809842 0.4294719 0.2800400
0.9999691 0.4491068 0.3099649
0.1038342 0.3123747 0.1868330
0.1120420 0.3131564 0.1876800
0.1207072 0.3140430 0.1886246
0.1321965 0.3153183 0.1899523
0.1462587 0.3170389 0.1916831
0.1625053 0.3192437 0.1937735
0.1807155 0.3219515 0.1960430
0.2003396 0.3252398 0.1985581
0.2211794 0.3291591 0.2011867
0.2431702 0.3337542 0.2037287
0.2664770 0.3390313 0.2058267
0.2913152 0.3449682 0.2071536
0.3179961 0.3514741 0.2074092
0.3468553 0.3583665 0.2064008
0.3781014 0.3653844 0.2041674
0.4116796 0.3722425 0.2010563
0.4472319 0.3787090 0.1976859
0.4841887 0.3846637 0.1947916
0.5219325 0.3901077 0.1930254
0.5599402 0.3951298 0.1928065
0.5978478 0.3998569 0.1942780
0.6354452 0.4044148 0.1973588
0.6724576 0.4090081 0.2022343
0.7087893 0.4137685 0.2088305
0.7447035 0.4186095 0.2163259
0.7802407 0.4235430 0.2244449
0.8154414 0.4285625 0.2329562
0.8503394 0.4336485 0.2416728
0.8849584 0.4387730 0.2504468
0.9193116 0.4439024 0.2591624
0.9534023 0.4489999 0.2677289
0.9872251 0.4540268 0.2760749
0.9999830 0.4773033 0.3165641
0.1309814 0.3472794 0.2096762
0.1379731 0.3480024 0.2104737
0.1454856 0.3488219 0.2113651
0.1556271 0.3499996 0.2126224
0.1682996 0.3515835 0.2142541
0.1832018 0.3536090 0.2162400
0.2000099 0.3561121 0.2185381
0.2184381 0.3591290 0.2210734
0.2383908 0.3626750 0.2236274
0.2595848 0.3668079 0.2261515
0.2819641 0.3715604 0.2284565
0.3056123 0.3769399 0.2302804
0.3307278 0.3829132 0.2313269
0.3575926 0.3893851 0.2313161
0.3864975 0.3961866 0.2300668
0.4176303 0.4030859 0.2275904
0.4509697 0.4098304 0.2241527
0.4862434 0.4162049 0.2202569
0.5229817 0.4220808 0.2165393
0.5606354 0.4274322 0.2136182
0.5986931 0.4323182 0.2119671
0.6367439 0.4368523 0.2118732
0.6746061 0.4411106 0.2132182
0.7117458 0.4454047 0.2167452
0.7483934 0.4496689 0.2216346
0.7845680 0.4539384 0.2275614
0.8202930 0.4582364 0.2342525
0.8555975 0.4625659 0.2414700
0.8905105 0.4669155 0.2490117
0.9250547 0.4712639 0.2567115
0.9592449 0.4755828 0.2644354
0.9930876 0.4798398 0.2720762
0.9999745 0.5058119 0.3240172
0.1586603 0.3825598 0.2325230
0.1648092 0.3832188 0.2332223
0.1714958 0.3839649 0.2340029
0.1806401 0.3850358 0.2351025
0.1922113 0.3864760 0.2365412
0.2059897 0.3883174 0.2383116
0.2217144 0.3905906 0.2403858
0.2391291 0.3933261 0.2427110
0.2580133 0.3965546 0.2452042
0.2782033 0.4003059 0.2477445
0.2996104 0.4046053 0.2501660
0.3221854 0.4094772 0.2522981
0.3460075 0.4149190 0.2538990
0.3712574 0.4208883 0.2546956
0.3981803 0.4272898 0.2544339
0.4270253 0.4339671 0.2529466
0.4579575 0.4407135 0.2502277
0.4909741 0.4473040 0.2464846
0.5258627 0.4535411 0.2421345
0.5622273 0.4592977 0.2377412
0.5995767 0.4645331 0.2338957
0.6375264 0.4692384 0.2309104
0.6756997 0.4734762 0.2290295
0.7135445 0.4774702 0.2289195
0.7508313 0.4813556 0.2306999
0.7876551 0.4851184 0.2338221
0.8239713 0.4888119 0.2380851
0.8597819 0.4924687 0.2432346
0.8951023 0.4961007 0.2490365
0.9299527 0.4997044 0.2552824
0.9643520 0.5032654 0.2617935
0.9983145 0.5067609 0.2684207
0.9999886 0.5344036 0.3322230
0.1876220 0.4179933 0.2547665
0.1930596 0.4185950 0.2553912
0.1990222 0.4192762 0.2560898
0.2072524 0.4202535 0.2570761
0.2177795 0.4215671 0.2583712
0.2304565 0.4232453 0.2599729
0.2450823 0.4253149 0.2618630
0.2614390 0.4278017 0.2640042
0.2793206 0.4307318 0.2663358
0.2985536 0.4341305 0.2687686
0.3190128 0.4380217 0.2711793
0.3406340 0.4424237 0.2734053
0.3633695 0.4473551 0.2753019
0.3872655 0.4528129 0.2766838
0.4125464 0.4587362 0.2772362
0.4394247 0.4650308 0.2767292
0.4681125 0.4715529 0.2750106
0.4987502 0.4781180 0.2720696
0.5313287 0.4845310 0.2680955
0.5657373 0.4905924 0.2633570
0.6017025 0.4961524 0.2582414
0.6388142 0.5011421 0.2532262
0.6766438 0.5055583 0.2487321
0.7146449 0.5095230 0.2453943
0.7522598 0.5132491 0.2439729
0.7895587 0.5167006 0.2439677
0.8264110 0.5199539 0.2453013
0.8627467 0.5230668 0.2478171
0.8985336 0.5260771 0.2513274
0.9337744 0.5290053 0.2556012
0.9684780 0.5318555 0.2604338
0.9999662 0.5365408 0.2715664
0.9999868 0.5629336 0.3411801
0.2171995 0.4535003 0.2765832
0.2220502 0.4540496 0.2771455
0.2274018 0.4546713 0.2777752
0.2348405 0.4555630 0.2786657
0.2444352 0.4567611 0.2798380
0.2560949 0.4582907 0.2812934
0.2696709 0.4601755 0.2830203
0.2849853 0.4624380 0.2849920
0.3018555 0.4651002 0.2871638
0.3201134 0.4681840 0.2894690
0.3396206 0.4717101 0.2918147
0.3602802 0.4756967 0.2940768
0.3820469 0.4801559 0.2960977
0.4049349 0.4850875 0.2976867
0.4290206 0.4904717 0.2986293
0.4542325 0.4963116 0.2989522
0.4809364 0.5024758 0.2982528
0.5093713 0.5088158 0.2963243
0.5397006 0.5151509 0.2930872
0.5719477 0.5212928 0.2886426
0.6059928 0.5270659 0.2832413
0.6415786 0.5323345 0.2772498
0.6783517 0.5370193 0.2710851
0.7157427 0.5411775 0.2654907
0.7531876 0.5449405 0.2612459
0.7906055 0.5482838 0.2581843
0.8277625 0.5512861 0.2564226
0.8645004 0.5540203 0.2559552
0.9007228 0.5565460 0.2566837
0.9363753 0.5589053 0.2584613
0.9714353 0.5611246 0.2611050
0.9999416 0.5671389 0.2786095
0.9999378 0.5912606 0.3508641
0.2470567 0.4889797 0.2980061
0.2514189 0.4894806 0.2985146
0.2562533 0.4900474 0.2990848
0.2630088 0.4908602 0.2998923
0.2717790 0.4919520 0.3009578
0.2825146 0.4933454 0.3022847
0.2951095 0.4950613 0.3038661
0.3094226 0.4971193 0.3056831
0.3252975 0.4995388 0.3077028
0.3425795 0.5023384 0.3098753
0.3611291 0.5055365 0.3121305
0.3808329 0.5091499 0.3143749
0.4016118 0.5131928 0.3164891
0.4234238 0.5176742 0.3183335
0.4463136 0.5225831 0.3197040
0.4703874 0.5278860 0.3203634
0.4957721 0.5335275 0.3200969
0.5226227 0.5394187 0.3187145
0.5509463 0.5454781 0.3162822
0.5810263 0.5515050 0.3125471
0.6129207 0.5573181 0.3075368
0.6465379 0.5627536 0.3014462
0.6816261 0.5676938 0.2946437
0.7176058 0.5721668 0.2880028
0.7542902 0.5760920 0.2816799
0.7913249 0.5794949 0.2760577
0.8283999 0.5824302 0.2714220
0.8652692 0.5849658 0.2679430
0.9017532 0.5871697 0.2656778
0.9377321 0.5891006 0.2645885
0.9731322 0.5908039 0.2645680
0.9999624 0.5971306 0.2859166
0.9999734 0.6191625 0.3609354
0.2769043 0.5243329 0.3190610
0.2808534 0.5247891 0.3195239
0.2852449 0.5253053 0.3200433
0.2914062 0.5260456 0.3207801
0.2994453 0.5270397 0.3217544
0.3093425 0.5283081 0.3229716
0.3210249 0.5298696 0.3244287
0.3343819 0.5317419 0.3261141
0.3492792 0.5339425 0.3280066
0.3655792 0.5364880 0.3300696
0.3831728 0.5393901 0.3322292
0.4019494 0.5426621 0.3344053
0.4218222 0.5463152 0.3364952
0.4427371 0.5503562 0.3383699
0.4646794 0.5547843 0.3398736
0.4876788 0.5595858 0.3408257
0.5118099 0.5647290 0.3410289
0.5371860 0.5701571 0.3402851
0.5639424 0.5757845 0.3384196
0.5922091 0.5814959 0.3353131
0.6220744 0.5871524 0.3309341
0.6535500 0.5926054 0.3253649
0.6865467 0.5977140 0.3188097
0.7208714 0.6023644 0.3115796
0.7562475 0.6064830 0.3040564
0.7923514 0.6100410 0.2966428
0.8288536 0.6130498 0.2897115
0.8654529 0.6155506 0.2835654
0.9018977 0.6176005 0.2784135
0.9379941 0.6192610 0.2743650
0.9736026 0.6205886 0.2714376
0.9999671 0.6264690 0.2935431
0.9999709 0.6465928 0.3715252
0.3063875 0.5594768 0.3398364
0.3099872 0.5598912 0.3402578
0.3140012 0.5603600 0.3407306
0.3196522 0.5610320 0.3414009
0.3270573 0.5619339 0.3422867
0.3362208 0.5630837 0.3433923
0.3470988 0.5644977 0.3447144
0.3596112 0.5661907 0.3462411
0.3736547 0.5681766 0.3479504
0.3891135 0.5704686 0.3498089
0.4058709 0.5730791 0.3517694
0.4238174 0.5760197 0.3537685
0.4428597 0.5793004 0.3557239
0.4629269 0.5829284 0.3575316
0.4839776 0.5869062 0.3590643
0.5060051 0.5912281 0.3601710
0.5290406 0.5958765 0.3606796
0.5531535 0.6008163 0.3604055
0.5784449 0.6059906 0.3591648
0.6050331 0.6113168 0.3567962
0.6330306 0.6166873 0.3531871
0.6625145 0.6219746 0.3483009
0.6934975 0.6270420 0.3421992
0.7259067 0.6317592 0.3350503
0.7595789 0.6360172 0.3271194
0.7942744 0.6397407 0.3187421
0.8297042 0.6428931 0.3102851
0.8655647 0.6454745 0.3021039
0.9015675 0.6475137 0.2945064
0.9374613 0.6490575 0.2877273
0.9730430 0.6501602 0.2819166
0.9999803 0.6550744 0.3013920
0.9999956 0.6734050 0.3824389
0.3358841 0.5942321 0.3599099
0.3391954 0.5946049 0.3602816
0.3428954 0.5950265 0.3606988
0.3481170 0.5956308 0.3612905
0.3549813 0.5964416 0.3620729
0.3635077 0.5974751 0.3630505
0.3736717 0.5987455 0.3642213
0.3854150 0.6002660 0.3655760
0.3986542 0.6020484 0.3670972
0.4132909 0.6041041 0.3687577
0.4292203 0.6064437 0.3705196
0.4463396 0.6090769 0.3723315
0.4645545 0.6120124 0.3741269
0.4837861 0.6152571 0.3758213
0.5039764 0.6188148 0.3773106
0.5250937 0.6226838 0.3784696
0.5471368 0.6268548 0.3791522
0.5701375 0.6313065 0.3791949
0.5941598 0.6360018 0.3784242
0.6192936 0.6408838 0.3766689
0.6456427 0.6458733 0.3737788
0.6733045 0.6508694 0.3696471
0.7023463 0.6557545 0.3642330
0.7327807 0.6604027 0.3575806
0.7645473 0.6646927 0.3498275
0.7975073 0.6685208 0.3411989
0.8314522 0.6718113 0.3319880
0.8661244 0.6745219 0.3225254
0.9012454 0.6766434 0.3131444
0.9365423 0.6781938 0.3041483
0.9717686 0.6792104 0.2957860
0.9999973 0.6829040 0.3095140
0.9999990 0.6995476 0.3937512
0.3654433 0.6284606 0.3790600
0.3684986 0.6287941 0.3793864
0.3719182 0.6291712 0.3797527
0.3767538 0.6297117 0.3802725
0.3831272 0.6304368 0.3809603
0.3910686 0.6313607 0.3818202
0.4005690 0.6324962 0.3828511
0.4115874 0.6338546 0.3840456
0.4240580 0.6354463 0.3853896
0.4378984 0.6372809 0.3868610
0.4530167 0.6393674 0.3884286
0.4693183 0.6417142 0.3900504
0.4867123 0.6443284 0.3916718
0.5051171 0.6472163 0.3932239
0.5244658 0.6503818 0.3946210
0.5447105 0.6538254 0.3957593
0.5658271 0.6575423 0.3965163
0.5878182 0.6615197 0.3967509
0.6107153 0.6657336 0.3963076
0.6345767 0.6701453 0.3950229
0.6594828 0.6746986 0.3927369
0.6855243 0.6793174 0.3893090
0.7127859 0.6839073 0.3846370
0.7413262 0.6883589 0.3786764
0.7711569 0.6925560 0.3714564
0.8022275 0.6963856 0.3630884
0.8344188 0.6997491 0.3537622
0.8675487 0.7025713 0.3437323
0.9013877 0.7048059 0.3332939
0.9356814 0.7064362 0.3227542
0.9701735 0.7074711 0.3124052
0.9999934 0.7099325 0.3181148
0.9999472 0.7249665 0.4055852
0.3948732 0.6620601 0.3972393
0.3976999 0.6623565 0.3975242
0.4008679 0.6626916 0.3978440
0.4053552 0.6631718 0.3982979
0.4112822 0.6638160 0.3988987
0.4186869 0.6646368 0.3996502
0.4275717 0.6656451 0.4005517
0.4379098 0.6668509 0.4015972
0.4496505 0.6682632 0.4027750
0.4627256 0.6698903 0.4040669
0.4770556 0.6717397 0.4054469
0.4925552 0.6738182 0.4068803
0.5091392 0.6761322 0.4083218
0.5267271 0.6786867 0.4097145
0.5452480 0.6814855 0.4109875
0.5646444 0.6845300 0.4120546
0.5848768 0.6878177 0.4128130
0.6059268 0.6913409 0.4131428
0.6277997 0.6950842 0.4129082
0.6505258 0.6990212 0.4119610
0.6741583 0.7031125 0.4101470
0.6987687 0.7073025 0.4073159
0.7244364 0.7115185 0.4033355
0.7512351 0.7156716 0.3981074
0.7792156 0.7196601 0.3915837
0.8083886 0.7233761 0.3837809
0.8387109 0.7267142 0.3747871
0.8700795 0.7295808 0.3647611
0.9023347 0.7319018 0.3539220
0.9352717 0.7336283 0.3425302
0.9686587 0.7347375 0.3308651
0.9999785 0.7361229 0.3273632
0.9999916 0.7495458 0.4176389
0.4239897 0.6949319 0.4144042
0.4266112 0.6951932 0.4146511
0.4295525 0.6954887 0.4149283
0.4337243 0.6959120 0.4153217
0.4392446 0.6964797 0.4158424
0.4461562 0.6972029 0.4164939
0.4544705 0.6980912 0.4172756
0.4641719 0.6991532 0.4181826
0.4752221 0.7003965 0.4192049
0.4875657 0.7018281 0.4203273
0.5011344 0.7034544 0.4215279
0.5158528 0.7052812 0.4227775
0.5316422 0.7073135 0.4240385
0.5484255 0.7095556 0.4252631
0.5661313 0.7120106 0.4263922
0.5846973 0.7146802 0.4273539
0.6040743 0.7175632 0.4280618
0.6242291 0.7206549 0.4284144
0.6451479 0.7239450 0.4282949
0.6668376 0.7274156 0.4275725
0.6893270 0.7310389 0.4261057
0.7126643 0.7347748 0.4237488
0.7369130 0.7385688 0.4203600
0.7621427 0.7423514 0.4158140
0.7884175 0.7460387 0.4100158
0.8157814 0.7495358 0.4029142
0.8442435 0.7527425 0.3945144
0.8737665 0.7555600 0.3848842
0.9042608 0.7578995 0.3741545
0.9355853 0.7596887 0.3625115
0.9675572 0.7608769 0.3501825
0.9999654 0.7614368 0.3374171
0.9999939 0.7732958 0.4303511
0.4526153 0.7269808 0.4305158
0.4550517 0.7272089 0.4307277
0.4577876 0.7274668 0.4309657
0.4616726 0.7278362 0.4313034
