LumaGrade-Vercel/public/luts/portra-400.cube
TITLE "Kodak Portra 400 Spectral Print"
LUT_3D_SIZE 9
0.1087000 0.0756195 0.0762055
0.1369016 0.0794579 0.0767345
0.3538362 0.1029303 0.0737028
0.5688081 0.1110756 0.0631334
0.6765475 0.1185625 0.0557495
0.7358732 0.1285962 0.0573273
0.7716311 0.1382519 0.0627946
0.7989132 0.1508102 0.0669520
0.8252680 0.1691317 0.0709578
0.1064905 0.0797831 0.0768395
0.1168517 0.0821276 0.0771728
0.2643791 0.1021090 0.0772658
0.4709789 0.1186527 0.0674997
0.6438351 0.1252424 0.0610072
0.7276013 0.1383045 0.0560593
0.7741276 0.1480401 0.0631755
0.8065990 0.1615429 0.0681212
0.8306938 0.1877356 0.0717813
0.0981940 0.1184686 0.0819725
0.1263791 0.1225138 0.0822211
0.2090339 0.1358298 0.0821920
0.3906198 0.1594971 0.0757778
0.5872771 0.1764087 0.0696861
0.6970935 0.1865515 0.0648953
0.7747900 0.1981684 0.0632765
0.8185038 0.2173520 0.0699305
0.8456780 0.2406202 0.0740536
0.0894403 0.1873479 0.0874761
0.1245093 0.1909420 0.0872527
0.2325313 0.2127125 0.0853648
0.3629517 0.2362944 0.0788798
0.5226402 0.2617763 0.0637364
0.6987674 0.2839301 0.0720022
0.7818351 0.2985828 0.0712955
0.8339325 0.3152798 0.0722725
0.8677635 0.3317520 0.0773978
0.0851696 0.2850179 0.0877920
0.1138911 0.2895409 0.0871197
0.2803477 0.3226551 0.0786139
0.3881393 0.3506982 0.0688232
0.5282548 0.3783009 0.0447043
0.6711688 0.4037820 0.0671700
0.7873625 0.4240580 0.0789422
0.8614615 0.4385753 0.0819898
0.8960983 0.4510613 0.0847730
0.1056806 0.3850213 0.0806074
0.1265123 0.3903375 0.0791859
0.2834599 0.4228230 0.0650032
0.4540290 0.4643054 0.0525361
0.5622910 0.4878252 0.0347983
0.6801140 0.5138142 0.0569367
0.7782664 0.5329327 0.0800035
0.8604137 0.5497923 0.0871964
0.9165267 0.5632184 0.0936669
0.1439683 0.4807024 0.0738150
0.1681904 0.4859836 0.0711800
0.2886980 0.5105494 0.0626114
0.4814934 0.5549002 0.0552844
0.5965406 0.5848998 0.0385100
0.7100833 0.6073852 0.0576822
0.7853849 0.6264999 0.0743993
0.8559449 0.6414021 0.0834811
0.9107375 0.6548223 0.0965054
0.2073852 0.5615724 0.0913964
0.2308836 0.5658918 0.0887559
0.3018946 0.5810454 0.0800042
0.4861649 0.6224439 0.0863700
0.6571584 0.6632617 0.0619953
0.7197201 0.6804489 0.0558639
0.8047011 0.6968302 0.0732219
0.8582844 0.7115563 0.0860628
0.9113362 0.7233639 0.0982183
0.2773641 0.6303961 0.1358470
0.2948303 0.6338601 0.1342390
0.3409351 0.6436114 0.1300438
0.4916468 0.6774035 0.1230356
0.6624004 0.7162911 0.1272365
0.7606952 0.7409505 0.1200455
0.8013316 0.7527641 0.1245346
0.8710946 0.7662191 0.1265306
0.9106102 0.7779200 0.1432214
0.1074479 0.0780235 0.0822672
0.1205386 0.0801719 0.0828719
0.3228801 0.1040296 0.0798943
0.5788024 0.1164785 0.0685658
0.6890850 0.1231889 0.0625395
0.7388910 0.1358798 0.0577896
0.7756438 0.1446006 0.0634068
0.8028153 0.1571743 0.0675457
0.8284436 0.1779912 0.0714398
0.1066695 0.0838993 0.0803134
0.1215144 0.0870759 0.0809430
0.2836748 0.1096095 0.0806894
0.5033058 0.1277656 0.0697175
0.6481811 0.1355051 0.0654663
0.7365851 0.1458273 0.0614925
0.7832524 0.1584819 0.0645669
0.8124432 0.1764077 0.0690096
0.8354821 0.2009746 0.0725077
0.1054589 0.1317377 0.0877883
0.1263204 0.1356777 0.0878578
0.2215975 0.1520780 0.0876994
0.3989853 0.1753634 0.0802688
0.5852799 0.1959102 0.0733360
0.7060062 0.2086057 0.0730585
0.7823585 0.2213726 0.0697697
0.8262870 0.2379421 0.0711124
0.8523735 0.2582587 0.0750680
0.1191165 0.2188063 0.0947154
0.1552133 0.2258699 0.0942700
0.2499812 0.2415749 0.0917028
0.3691331 0.2660534 0.0856322
0.5467086 0.2927044 0.0686500
0.7061317 0.3123567 0.0808318
0.7899433 0.3269036 0.0813925
0.8410053 0.3402775 0.0825155
0.8746294 0.3560870 0.0850045
0.0925993 0.3187143 0.0957358
0.1484163 0.3299140 0.0940977
0.2906866 0.3555506 0.0866398
0.3999770 0.3802869 0.0796469
0.5294527 0.4061001 0.0601362
0.6931353 0.4313003 0.0726209
0.7958064 0.4482067 0.0889542
0.8652874 0.4607779 0.0927091
0.9005781 0.4721310 0.0969923
0.1376442 0.4218610 0.0948061
0.1911248 0.4339970 0.0910694
0.3111182 0.4597291 0.0799785
0.4747913 0.4886993 0.0729403
0.5459896 0.5114164 0.0625687
0.6789203 0.5373561 0.0602774
0.7880179 0.5550898 0.0836200
0.8637044 0.5705426 0.0978896
0.9185265 0.5819730 0.1041731
0.1748876 0.5111068 0.1047704
0.2200119 0.5202057 0.1011165
0.3154703 0.5413762 0.0915411
0.4952781 0.5796922 0.0868643
0.6098284 0.6035362 0.0722523
0.6910698 0.6249416 0.0579385
0.7808589 0.6445612 0.0746165
0.8610048 0.6583218 0.0889273
0.9118188 0.6708667 0.1019808
0.2215448 0.5835679 0.1344523
0.2617187 0.5914173 0.1314899
0.3420013 0.6090338 0.1250414
0.5018576 0.6443751 0.1174804
0.6664091 0.6790479 0.1128326
0.7264754 0.6939482 0.1029940
0.7924914 0.7104455 0.1086971
0.8519190 0.7254017 0.1163675
0.9132792 0.7365416 0.1093177
0.2751065 0.6453689 0.1817195
0.3065549 0.6517093 0.1800776
0.3757759 0.6666523 0.1763241
0.5053920 0.6953138 0.1683562
0.6735336 0.7322479 0.1672767
0.7645032 0.7520347 0.1684912
0.8039791 0.7627141 0.1738307
0.8622409 0.7765390 0.1876229
0.9051158 0.7882659 0.2027213
0.0934171 0.0938344 0.2035289
0.1132027 0.0962736 0.1975682
0.2592838 0.1141117 0.1824141
0.5267496 0.1308394 0.1403178
0.6720281 0.1403484 0.1217368
0.7486553 0.1600162 0.1334971
0.7967485 0.1803735 0.1486848
0.8225157 0.2004245 0.1408981
0.8446984 0.2262368 0.1356504
0.0944929 0.1039822 0.1607987
0.1233464 0.1068064 0.1487308
0.3217223 0.1324424 0.1427349
0.5025216 0.1515848 0.1447321
0.6697217 0.1614646 0.1221131
0.7536395 0.1832864 0.1312348
0.7989627 0.1985496 0.1317780
0.8277462 0.2161120 0.1267313
0.8508077 0.2418300 0.1269219
0.0893277 0.1643704 0.1619507
0.1167092 0.1684305 0.1587603
0.2318731 0.1844879 0.1519633
0.4202096 0.2097058 0.1430389
0.6259530 0.2328388 0.1329941
0.7429024 0.2463214 0.1219676
0.8021699 0.2599308 0.1259685
0.8393373 0.2769536 0.1291519
0.8655688 0.2993222 0.1319479
0.0957199 0.2687477 0.1693162
0.1334060 0.2734068 0.1700006
0.2302442 0.2876621 0.1639785
0.3757178 0.3130930 0.1562393
0.5607129 0.3403430 0.1486034
0.7034172 0.3568239 0.1327536
0.7978667 0.3725038 0.1278973
0.8582054 0.3888540 0.1389253
0.8884300 0.4023157 0.1408776
0.1757515 0.3871891 0.1850550
0.2095213 0.3949628 0.1874363
0.2841517 0.4067665 0.1789596
0.3746928 0.4281287 0.1791876
0.5476569 0.4559634 0.1654897
0.7065711 0.4769344 0.1439629
0.7951841 0.4882046 0.1253705
0.8688125 0.5030912 0.1316884
0.9074991 0.5161736 0.1470947
0.2706090 0.4984019 0.1958837
0.2973442 0.5039899 0.1954536
0.3476909 0.5153551 0.1938912
0.4503787 0.5342748 0.1863749
0.5502667 0.5559289 0.1821428
0.6817457 0.5800862 0.1699928
0.7904069 0.5970255 0.1585054
0.8668378 0.6090382 0.1512172
0.9202965 0.6188927 0.1541340
0.1938593 0.5594696 0.2117378
0.2426939 0.5679878 0.2096758
0.3410833 0.5873743 0.2058367
0.4890680 0.6175348 0.2012339
0.6179603 0.6420057 0.1973980
0.6782875 0.6629120 0.2161633
0.7819117 0.6781183 0.1972924
0.8627187 0.6915820 0.1923755
0.9168739 0.7024181 0.1979886
0.2248653 0.6231490 0.2405044
0.2698693 0.6314657 0.2386917
0.3721103 0.6524485 0.2380036
0.5091810 0.6819549 0.2369839
0.6584381 0.7083910 0.2295736
0.7321358 0.7264496 0.2419144
0.7781976 0.7418733 0.2607188
0.8503856 0.7528262 0.2493073
0.9132752 0.7629583 0.2481581
0.3191620 0.6874294 0.2869859
0.3524363 0.6939050 0.2859335
0.4254574 0.7090355 0.2838904
0.5331219 0.7330641 0.2844344
0.6682302 0.7581949 0.2807277
0.7733208 0.7772729 0.2851942
0.8040040 0.7885750 0.3023451
0.8476474 0.8009206 0.3185530
0.9016581 0.8103833 0.3182655
0.0930307 0.1049819 0.4376606
0.1171874 0.1101526 0.4262620
0.2425107 0.1356289 0.4088263
0.4278151 0.1609804 0.3958443
0.6378680 0.1803861 0.3530544
0.7354504 0.2004270 0.3459184
0.7994503 0.2044247 0.2767127
0.8379077 0.2450209 0.3136328
0.8660561 0.2874336 0.3680362
0.0971071 0.1374077 0.4408438
0.1108170 0.1424979 0.4169455
0.3776065 0.1731923 0.3331649
0.5293012 0.1883728 0.3129140
0.6842563 0.2062877 0.3107235
0.7510650 0.2333794 0.3474664
0.8093314 0.2384679 0.2861456
0.8457634 0.2741432 0.3230581
0.8711529 0.3089518 0.3548899
0.0476931 0.2069603 0.3530205
0.1059611 0.2118277 0.3502263
0.2498190 0.2335335 0.3428476
0.4448437 0.2577646 0.3277794
0.6212161 0.2772270 0.3091193
0.7470404 0.3010785 0.3342813
0.8259917 0.3157453 0.3081401
0.8617181 0.3403406 0.3173636
0.8824232 0.3617799 0.3166354
0.0661328 0.3197534 0.3629902
0.0728866 0.3281533 0.3621982
0.2299702 0.3461150 0.3551785
0.3936072 0.3698669 0.3456818
0.5733463 0.3956572 0.3378974
0.7340083 0.4146160 0.3223006
0.8281920 0.4316036 0.3216727
0.8787595 0.4448779 0.3154772
0.9012185 0.4557527 0.3053106
0.1373088 0.4434448 0.3776443
0.1668388 0.4497308 0.3751640
0.2653024 0.4647939 0.3762913
0.3911944 0.4844046 0.3631449
0.5285612 0.5078563 0.3504066
0.7090221 0.5323991 0.3440148
0.8026822 0.5451522 0.3392071
0.8730571 0.5560842 0.3334095
0.9116864 0.5645667 0.3275154
0.1686307 0.5475037 0.3930150
0.2137192 0.5537852 0.3953046
0.2982237 0.5685355 0.4000605
0.4147382 0.5864966 0.3877044
0.5178741 0.6075083 0.3845235
0.6912386 0.6333513 0.3727432
0.7922231 0.6488965 0.3683132
0.8699632 0.6547880 0.3436641
0.9124318 0.6633036 0.3459882
0.3267648 0.6415532 0.4171502
0.3560804 0.6473929 0.4196947
0.4058162 0.6564112 0.4182308
0.4801760 0.6692848 0.4126626
0.5604951 0.6860018 0.4141446
0.6700497 0.7068945 0.4134616
0.7825295 0.7234679 0.4033192
0.8658075 0.7341151 0.3943957
0.9118867 0.7396540 0.3796885
0.4279975 0.7102282 0.4396789
0.4561760 0.7157208 0.4412441
0.4944426 0.7232065 0.4420837
0.5473557 0.7340184 0.4428388
0.6323084 0.7493470 0.4393063
0.7124180 0.7631863 0.4326474
0.7687357 0.7761517 0.4395907
0.8451777 0.7878939 0.4327362
0.9054222 0.7965341 0.4282159
0.4255669 0.7484084 0.4626638
0.4491733 0.7527532 0.4622108
0.5035014 0.7630274 0.4614004
0.5828752 0.7785708 0.4610368
0.6543882 0.7921673 0.4600127
0.7455156 0.8074034 0.4580988
0.7957278 0.8191814 0.4711131
0.8361040 0.8302902 0.4854650
0.8966061 0.8373843 0.4703499
0.0706686 0.1528993 0.6104800
0.0949442 0.1629416 0.5963250
0.2307171 0.1781775 0.6043342
0.4163924 0.2074009 0.6023892
0.5853049 0.2367434 0.5981200
0.7558974 0.2370010 0.4980503
0.8141433 0.2689770 0.5159032
0.8455773 0.3104163 0.5578194
0.8680398 0.3103771 0.4799902
0.0780367 0.1847065 0.6167074
0.1259536 0.1879662 0.6076253
0.2231055 0.2136999 0.6115432
0.5197288 0.2436131 0.5652730
0.6440077 0.2637300 0.5631421
0.7727217 0.2727267 0.5060316
0.8229603 0.2941986 0.5066358
0.8562033 0.3333906 0.5440292
0.8768476 0.3428802 0.4898835
0.1000246 0.2545893 0.5827183
0.1322901 0.2565871 0.5442644
0.2742921 0.2835441 0.5439905
0.4796727 0.3111640 0.5339547
0.6766252 0.3361800 0.5249717
0.7807248 0.3579451 0.5292537
0.8339528 0.3840223 0.5507389
0.8734487 0.4031941 0.5413870
0.8963235 0.4203346 0.5128878
0.0461678 0.3678464 0.5634874
0.1098254 0.3774421 0.5651801
0.2294808 0.3987536 0.5678877
0.4146533 0.4266579 0.5661540
0.5948326 0.4478967 0.5415165
0.7261758 0.4641507 0.5200636
0.8083644 0.4839884 0.5375858
0.8842962 0.5041311 0.5505936
0.9136028 0.5170394 0.5313176
0.1319338 0.4831368 0.5744399
0.1368912 0.4910212 0.5752089
0.1925546 0.5093176 0.5802539
0.3943798 0.5355330 0.5740451
0.5525667 0.5590707 0.5665621
0.7055776 0.5812050 0.5591937
0.8114461 0.5936704 0.5458820
0.8854894 0.6071505 0.5465441
0.9213124 0.6176498 0.5448658
0.2232801 0.5965363 0.5968832
0.2446983 0.5999916 0.5926738
0.3153372 0.6155500 0.5941098
0.4269499 0.6344374 0.5964546
0.5630433 0.6562912 0.5876973
0.6739525 0.6739359 0.5702387
0.8018695 0.6899125 0.5615662
0.8676515 0.7021787 0.5670903
0.9150151 0.7079542 0.5601866
0.2559477 0.6692727 0.5988043
0.2690958 0.6743316 0.6006398
0.3210776 0.6844945 0.6036640
0.4202657 0.6998127 0.6039335
0.5537794 0.7213065 0.5963781
0.6501954 0.7392668 0.5921659
0.7730221 0.7574185 0.5846110
0.8550797 0.7692565 0.5829787
0.9069345 0.7768647 0.5814153
0.3889621 0.7406608 0.6258829
0.4086487 0.7442221 0.6278503
0.4543069 0.7527663 0.6328362
0.5194325 0.7641275 0.6307294
0.6053818 0.7777739 0.6189026
0.6833156 0.7921208 0.6160321
0.7594451 0.8063110 0.6190512
0.8452309 0.8185616 0.6141629
0.9029084 0.8265117 0.6089753
0.4915648 0.7945432 0.6429780
0.5133098 0.7986041 0.6444108
0.5641087 0.8081982 0.6480510
0.6096640 0.8160433 0.6458305
0.6668285 0.8258724 0.6426311
0.7185714 0.8357442 0.6435530
0.7652135 0.8455354 0.6480850
0.8303825 0.8557611 0.6432966
0.8937935 0.8645322 0.6376267
0.0527985 0.2278396 0.7063683
0.0945865 0.2322172 0.7045887
0.2313278 0.2501451 0.7163056
0.4062791 0.2810058 0.7321658
0.5928971 0.3076247 0.7345217
0.7081814 0.3377065 0.7391482
0.8232886 0.3312572 0.6762235
0.8602480 0.3794276 0.7038714
0.8885199 0.4067517 0.6988677
0.0735623 0.2602692 0.7097276
0.1376001 0.2628530 0.7080424
0.2333628 0.2839100 0.7265555
0.4026076 0.3173359 0.7402765
0.6607682 0.3349364 0.7173963
0.7364402 0.3634244 0.7289494
0.8345782 0.3517532 0.6566615
0.8691993 0.3967901 0.6852193
0.8949209 0.4333382 0.7037218
0.1115919 0.3289105 0.7195696
0.1519746 0.3344277 0.7226130
0.2026543 0.3506040 0.7263495
0.5852858 0.3809129 0.6913679
0.6836901 0.3984427 0.6868935
0.7891830 0.4186291 0.6860352
0.8583607 0.4428143 0.6929809
0.8828406 0.4545677 0.6785154
0.9085028 0.4924981 0.7137978
0.0984002 0.4086207 0.6892160
0.0929990 0.4202921 0.6991040
0.2144193 0.4409355 0.7105100
0.4293653 0.4741253 0.7125019
0.6370403 0.5061277 0.7165083
0.7755845 0.5244342 0.7092542
0.8422478 0.5338645 0.6940823
0.8869630 0.5539336 0.7112160
0.9167347 0.5724894 0.7200243
0.1586876 0.5242198 0.7186029
0.2118177 0.5322191 0.7215674
0.2707919 0.5544773 0.7313225
0.3875331 0.5757962 0.7337287
0.5883245 0.6056013 0.7308545
0.7141188 0.6194036 0.7092704
0.8053235 0.6318977 0.6955538
0.8705496 0.6466560 0.7043970
0.9189711 0.6600206 0.7156914
0.1975921 0.6221264 0.7338028
0.2029209 0.6285244 0.7357276
0.2528092 0.6415779 0.7389792
0.3981995 0.6624790 0.7393731
0.5616725 0.6880565 0.7382684
0.6922029 0.7080839 0.7334587
0.7894028 0.7220212 0.7260439
0.8664687 0.7331914 0.7223710
0.9171636 0.7402418 0.7141331
0.2965046 0.7081611 0.7553199
0.3182488 0.7110159 0.7539796
0.3735653 0.7174629 0.7500701
0.4793772 0.7360157 0.7530504
0.5966787 0.7559603 0.7548406
0.7042807 0.7734392 0.7502872
0.7742503 0.7843307 0.7394391
0.8572847 0.7950288 0.7302304
0.9123913 0.8028048 0.7281811
0.3790457 0.7614794 0.7535914
0.3948417 0.7653860 0.7545832
0.4407367 0.7736854 0.7560835
0.5120918 0.7854840 0.7587100
0.5962268 0.7993618 0.7579092
0.6832184 0.8134454 0.7493753
0.7462102 0.8250608 0.7465653
0.8307062 0.8380268 0.7430026
0.9011132 0.8471144 0.7413133
0.4462178 0.8087664 0.7658870
0.4628917 0.8115751 0.7667800
0.5017897 0.8182540 0.7690213
0.5615286 0.8287810 0.7729832
0.6408530 0.8423051 0.7726977
0.7157874 0.8546928 0.7686728
0.7672127 0.8639642 0.7667941
0.8214443 0.8734735 0.7649692
0.8915768 0.8828377 0.7603723
0.0688508 0.3166481 0.7628027
0.1078711 0.3225126 0.7651606
0.2293039 0.3462193 0.7884611
0.3946325 0.3809294 0.8128614
0.5744175 0.4116086 0.8212816
0.7343480 0.4265233 0.8161437
0.7958534 0.4568897 0.8256604
0.8740510 0.4516465 0.7921225
0.8991563 0.5019937 0.8182508
0.0941409 0.3399093 0.7675930
0.1353832 0.3464930 0.7725784
0.2272318 0.3727025 0.7986768
0.3938084 0.4050476 0.8176672
0.5726666 0.4333134 0.8251681
0.7622523 0.4413504 0.8068523
0.8112413 0.4743293 0.8224928
0.8805695 0.4610722 0.7808984
0.9052739 0.5149653 0.8131245
0.1463943 0.3925764 0.7800683
0.1574613 0.4032847 0.7890078
0.2031541 0.4325866 0.8152097
0.3858368 0.4592028 0.8248282
0.6953386 0.4817303 0.8112188
0.7988161 0.4828040 0.7877443
0.8522931 0.5130432 0.8045462
0.8947933 0.5169226 0.7866544
0.9183284 0.5443394 0.7965545
0.1381686 0.4568521 0.7820337
0.1250332 0.4664349 0.7861106
0.3262881 0.4995724 0.7945381
0.4959680 0.5272781 0.7993060
0.6656469 0.5538499 0.8013361
0.7779042 0.5738519 0.8065116
0.8630752 0.5869403 0.8011710
0.9091167 0.6066785 0.8092864
0.9230435 0.6091118 0.7966063
0.1435275 0.5590081 0.7941716
0.2029971 0.5659439 0.7967858
0.2898763 0.5835614 0.8046549
0.4112907 0.6131459 0.8168280
0.5874129 0.6415699 0.8214371
0.7436544 0.6648479 0.8227514
0.8341365 0.6769723 0.8191710
0.8855411 0.6820072 0.8046833
0.9206544 0.6941921 0.8098435
0.2676269 0.6516088 0.8155883
0.2758792 0.6601993 0.8201810
0.3333022 0.6764236 0.8267864
0.4331191 0.6924210 0.8290752
0.5763663 0.7157992 0.8310093
0.7177749 0.7372543 0.8286994
0.7968881 0.7468525 0.8197488
0.8651351 0.7563027 0.8117946
0.9095269 0.7650329 0.8125849
0.2703666 0.7241552 0.8292184
0.2952049 0.7274001 0.8294294
0.3502909 0.7353269 0.8301030
0.4316765 0.7489320 0.8327487
0.5853771 0.7729499 0.8341694
0.7016596 0.7919490 0.8352367
0.7817630 0.8042106 0.8328910
0.8527728 0.8143805 0.8286981
0.9051178 0.8227139 0.8290462
0.4091470 0.7844344 0.8417273
0.4245614 0.7867805 0.8414192
0.4612103 0.7924842 0.8405749
0.5351738 0.8045850 0.8411464
0.6348341 0.8216140 0.8438169
0.7200966 0.8358644 0.8444316
0.7890113 0.8469650 0.8420325
0.8461795 0.8559896 0.8388036
0.8969875 0.8628955 0.8326526
0.5153638 0.8329310 0.8447942
0.5226147 0.8341532 0.8439333
0.5549643 0.8396755 0.8448599
0.6066041 0.8485913 0.8463990
0.6684951 0.8593462 0.8483333
0.7261747 0.8690985 0.8472999
0.7800170 0.8779191 0.8435205
0.8281359 0.8860352 0.8403955
0.8806289 0.8947097 0.8391730
0.1077581 0.3954638 0.8004606
0.1347395 0.4017024 0.8054228
0.1937063 0.4333753 0.8357751
0.3698502 0.4720141 0.8654266
0.5670131 0.4978400 0.8750617
0.7105782 0.5232774 0.8810076
0.8251119 0.5310092 0.8738636
0.8597522 0.5624453 0.8850208
0.9092264 0.5580663 0.8628473
0.1321304 0.4129210 0.8061652
0.1393799 0.4224327 0.8133303
0.2065664 0.4560723 0.8465183
0.3849384 0.4893563 0.8691797
0.5652729 0.5169516 0.8784638
0.7101194 0.5391277 0.8835691
0.8407868 0.5414357 0.8688921
0.8669147 0.5746804 0.8843240
0.9132507 0.5653732 0.8571640
0.1539505 0.4610348 0.8256726
0.1778900 0.4719996 0.8363215
0.1576170 0.5061437 0.8657182
0.3869928 0.5324811 0.8756032
0.5619266 0.5606857 0.8859447
0.7853477 0.5766098 0.8797148
0.8639970 0.5691572 0.8577110
0.8906971 0.6025790 0.8758861
0.9222640 0.5876201 0.8459358
0.1056632 0.5262324 0.8440149
0.1164948 0.5389194 0.8554736
0.1855810 0.5584698 0.8673552
0.4266189 0.5836611 0.8729691
0.7469052 0.6081725 0.8598263
0.8182891 0.6286137 0.8659282
0.8504204 0.6427287 0.8723750
0.9092602 0.6491398 0.8625693
0.9344980 0.6653336 0.8665923
0.1428003 0.5980484 0.8523709
0.2320921 0.6030623 0.8500012
0.3397608 0.6267332 0.8591222
0.3876578 0.6444303 0.8691663
0.6167725 0.6776401 0.8732197
0.7522181 0.6997868 0.8767871
0.8512684 0.7160586 0.8778632
0.9099037 0.7251438 0.8748529
0.9339537 0.7324355 0.8726707
0.2700437 0.6736370 0.8629012
0.2929854 0.6796898 0.8660786
0.3204700 0.6978248 0.8756225
0.4550933 0.7182225 0.8805307
0.5931488 0.7408802 0.8844672
0.7218078 0.7616357 0.8864660
0.8133775 0.7757041 0.8866164
0.8796763 0.7835418 0.8806577
0.9164311 0.7873484 0.8704619
0.3371185 0.7486275 0.8838987
0.3674257 0.7530117 0.8850754
0.4265961 0.7622192 0.8871906
0.5015941 0.7746620 0.8890430
0.5881501 0.7898294 0.8908358
0.7156696 0.8102643 0.8910742
0.7995293 0.8224227 0.8877665
0.8592412 0.8305542 0.8835079
0.9053124 0.8368965 0.8781823
0.4065742 0.7967913 0.8881723
0.4220721 0.7992186 0.8884020
0.4585356 0.8050805 0.8889040
0.5157666 0.8150200 0.8906089
0.6081728 0.8308718 0.8927960
0.7161896 0.8481215 0.8934687
0.7905192 0.8599811 0.8934633
0.8481328 0.8688064 0.8917378
0.8973880 0.8757082 0.8884002
0.5213001 0.8441858 0.8982147
0.5317001 0.8459122 0.8981113
0.5571293 0.8501559 0.8977957
0.5984600 0.8571267 0.8970591
0.6751209 0.8701156 0.8984951
0.7422736 0.8815973 0.9000009
0.8008906 0.8911663 0.8995973
0.8524064 0.8994811 0.8978642
0.8966826 0.9063773 0.8968933
0.1235893 0.4674469 0.8276694
0.1411822 0.4749452 0.8340412
0.1519718 0.5100092 0.8651577
0.3593709 0.5520135 0.8938912
0.5588149 0.5822299 0.9094680
0.7073630 0.6053160 0.9170638
0.7997563 0.6229825 0.9206761
0.8857198 0.6234042 0.9133999
0.9016594 0.6537563 0.9239084
0.1390100 0.4816916 0.8339808
0.1556584 0.4904584 0.8405180
0.1267928 0.5309694 0.8761527
0.3728244 0.5650990 0.8972910
0.5643259 0.5925174 0.9113086
0.7067321 0.6196282 0.9193090
0.7984189 0.6325168 0.9220124
0.8931200 0.6306843 0.9108514
0.9046775 0.6623766 0.9240384
0.1042545 0.5245866 0.8529236
0.1170012 0.5396622 0.8671204
0.1961064 0.5692768 0.8905875
0.3886572 0.5969621 0.9049130
0.5572401 0.6266696 0.9167310
0.7052588 0.6487311 0.9236364
0.8506833 0.6585297 0.9203833
0.9031177 0.6524180 0.9073825
0.9183182 0.6818796 0.9204072
0.1036026 0.5793617 0.8729464
0.0980987 0.5923248 0.8823171
0.2185970 0.6166439 0.8972152
0.3820929 0.6438692 0.9119080
0.5739250 0.6663057 0.9199251
0.8006213 0.6811502 0.9147274
0.8926814 0.6913011 0.9091702
0.8984998 0.7055498 0.9160649
0.9353830 0.7096785 0.9093583
0.0796399 0.6257432 0.8825904
0.1179451 0.6342336 0.8876788
0.2884986 0.6479517 0.8918437
0.5520591 0.6964167 0.9085791
0.7015241 0.7181718 0.9105750
0.7924172 0.7374034 0.9160188
0.8535585 0.7451206 0.9129863
0.9089388 0.7573486 0.9159060
0.9380260 0.7625841 0.9127355
0.3074566 0.7009028 0.8963554
0.3222591 0.7063796 0.8994263
0.3457069 0.7209876 0.9073657
0.4482828 0.7381824 0.9129551
0.6093028 0.7639691 0.9183668
0.7268087 0.7836516 0.9219248
0.8266819 0.7995383 0.9237320
0.8980992 0.8097337 0.9227591
0.9323555 0.8152548 0.9216477
0.3342144 0.7628655 0.9142298
0.3642630 0.7671236 0.9153640
0.4305068 0.7771274 0.9179444
0.5229628 0.7921528 0.9215964
0.6263767 0.8094691 0.9247736
0.7134137 0.8243905 0.9268876
0.8046532 0.8387854 0.9286075
0.8757918 0.8491952 0.9276966
0.9134486 0.8532470 0.9230116
0.4669399 0.8176001 0.9243598
0.4835021 0.8203391 0.9250075
0.5210620 0.8266470 0.9263965
0.5764179 0.8361265 0.9280237
0.6441338 0.8480151 0.9298492
0.7155228 0.8602456 0.9305974
0.8025165 0.8737547 0.9305609
0.8606076 0.8817794 0.9281568
0.9017620 0.8877012 0.9267241
0.5221033 0.8514431 0.9271536
0.5324322 0.8531925 0.9273820
0.5575528 0.8575081 0.9279264
0.5989116 0.8648131 0.9290835
0.6514639 0.8743368 0.9308923
0.7333232 0.8878788 0.9319649
0.8005158 0.8989153 0.9325473
0.8556241 0.9077136 0.9327246
0.8950031 0.9138181 0.9316875
