LumaGrade-Vercel/public/luts/portra-400.cube
TITLE "Kodak Portra 400 Spectral Print"
LUT_3D_SIZE 33
0.1087000 0.0756195 0.0762055
0.1091817 0.0756801 0.0762145
0.1115705 0.0759923 0.0762628
0.1183080 0.0769045 0.0763991
0.1369016 0.0794579 0.0767345
0.1765918 0.0849225 0.0771784
0.2333897 0.0919769 0.0770126
0.2935460 0.0981546 0.0758434
0.3538362 0.1029303 0.0737028
0.4125494 0.1064538 0.0707092
0.4692928 0.1084518 0.0669022
0.5221411 0.1106606 0.0646444
0.5688081 0.1110756 0.0631334
0.6037849 0.1109067 0.0618443
0.6329091 0.1105036 0.0606698
0.6564525 0.1144729 0.0581417
0.6765475 0.1185625 0.0557495
0.6945245 0.1223667 0.0535490
0.7104176 0.1251189 0.0534211
0.7239693 0.1267858 0.0555022
0.7358732 0.1285962 0.0573273
0.7463439 0.1306927 0.0589305
0.7554855 0.1330014 0.0603287
0.7638518 0.1355040 0.0616070
0.7716311 0.1382519 0.0627946
0.7788937 0.1411449 0.0639024
0.7856855 0.1440884 0.0649377
0.7923135 0.1472951 0.0659473
0.7989132 0.1508102 0.0669520
0.8054976 0.1545828 0.0679537
0.8121780 0.1586260 0.0689693
0.8190838 0.1629841 0.0700187
0.8252680 0.1691317 0.0709578
0.1087000 0.0756195 0.0762055
0.1087000 0.0756195 0.0762055
0.1101810 0.0758085 0.0762340
0.1131926 0.0762101 0.0762960
0.1215634 0.0774206 0.0764724
0.1439899 0.0806086 0.0768651
0.1947607 0.0875895 0.0772674
0.2583364 0.0951272 0.0766982
0.3212965 0.1010994 0.0750308
0.3835264 0.1055014 0.0723639
0.4433190 0.1083013 0.0688023
0.4988829 0.1107412 0.0653569
0.5522057 0.1116811 0.0637421
0.5927433 0.1118147 0.0623136
0.6243582 0.1117700 0.0610820
0.6506263 0.1141535 0.0591822
0.6722671 0.1186133 0.0566830
0.6912673 0.1227286 0.0544404
0.7079669 0.1262954 0.0530443
0.7224104 0.1280420 0.0552630
0.7349895 0.1300132 0.0571919
0.7460954 0.1322174 0.0588925
0.7556950 0.1345809 0.0603607
0.7643934 0.1371597 0.0616897
0.7724028 0.1399204 0.0629123
0.7797686 0.1427484 0.0640358
0.7867380 0.1457350 0.0650980
0.7935598 0.1490242 0.0661371
0.8003007 0.1525926 0.0671631
0.8069865 0.1563953 0.0681801
0.8137614 0.1604947 0.0692100
0.8206100 0.1651571 0.0702505
0.8262977 0.1724044 0.0711141
0.1083744 0.0761466 0.0762862
0.1085493 0.0762435 0.0763008
0.1098662 0.0764339 0.0763292
0.1117175 0.0767163 0.0763725
0.1210550 0.0780208 0.0765623
0.1406118 0.0807655 0.0769048
0.1746365 0.0855305 0.0772832
0.2288038 0.0924306 0.0771789
0.2907767 0.0990480 0.0760374
0.3572876 0.1045555 0.0736769
0.4206983 0.1082497 0.0703283
0.4797289 0.1108812 0.0660967
0.5343040 0.1126469 0.0644105
0.5789319 0.1134317 0.0629264
0.6125674 0.1138275 0.0616675
0.6412170 0.1141540 0.0605087
0.6646895 0.1183944 0.0581667
0.6852624 0.1228778 0.0558231
0.7036092 0.1270438 0.0536929
0.7196098 0.1296087 0.0548331
0.7332724 0.1316999 0.0569288
0.7453233 0.1339634 0.0587744
0.7557055 0.1364218 0.0603623
0.7648659 0.1390275 0.0617619
0.7731557 0.1417394 0.0630272
0.7807152 0.1445565 0.0641801
0.7879390 0.1476337 0.0652810
0.7949687 0.1509988 0.0663516
0.8018524 0.1546041 0.0673992
0.8086801 0.1584648 0.0684376
0.8155562 0.1626159 0.0694827
0.8216960 0.1688600 0.0704154
0.8274233 0.1760360 0.0712849
0.1078569 0.0770353 0.0764220
0.1088905 0.0772745 0.0764573
0.1097283 0.0774938 0.0764899
0.1115155 0.0777820 0.0765329
0.1174861 0.0786778 0.0766642
0.1349077 0.0811679 0.0769886
0.1737598 0.0866806 0.0774465
0.2219009 0.0930138 0.0774105
0.2707531 0.0986826 0.0766934
0.3261509 0.1040704 0.0751030
0.3855397 0.1085949 0.0725082
0.4480408 0.1120283 0.0687549
0.5068842 0.1147263 0.0654451
0.5590311 0.1163843 0.0638379
0.5983045 0.1173759 0.0624402
0.6298478 0.1181369 0.0612097
0.6570805 0.1190465 0.0600458
0.6787798 0.1238129 0.0576745
0.6980509 0.1282293 0.0555181
0.7150871 0.1320928 0.0541386
0.7298929 0.1341943 0.0564107
0.7431347 0.1365422 0.0584394
0.7547863 0.1390684 0.0602218
0.7646604 0.1416278 0.0617305
0.7735206 0.1443143 0.0630829
0.7817022 0.1472537 0.0643306
0.7894188 0.1504423 0.0655064
0.7968029 0.1538612 0.0666308
0.8039806 0.1575270 0.0677229
0.8110682 0.1614669 0.0688007
0.8173463 0.1671982 0.0697547
0.8231991 0.1740618 0.0706436
0.8289542 0.1810863 0.0715173
0.1064905 0.0797831 0.0768395
0.1077297 0.0801796 0.0768964
0.1089098 0.0806846 0.0769696
0.1110306 0.0811258 0.0770314
0.1168517 0.0821276 0.0771728
0.1297337 0.0840904 0.0774244
0.1567439 0.0880863 0.0778128
0.2098472 0.0954440 0.0779585
0.2643791 0.1021090 0.0772658
0.3134699 0.1073424 0.0759771
0.3622148 0.1117785 0.0740780
0.4145310 0.1156136 0.0713238
0.4709789 0.1186527 0.0674997
0.5248173 0.1207050 0.0653150
0.5751673 0.1225984 0.0636507
0.6127591 0.1239851 0.0622552
0.6438351 0.1252424 0.0610072
0.6704099 0.1265369 0.0598742
0.6921226 0.1304928 0.0579311
0.7111226 0.1350195 0.0558691
0.7276013 0.1383045 0.0560593
0.7417226 0.1405651 0.0582232
0.7541147 0.1428951 0.0601191
0.7647363 0.1453590 0.0617421
0.7741276 0.1480401 0.0631755
0.7827582 0.1509427 0.0644916
0.7910910 0.1542207 0.0657611
0.7989853 0.1577391 0.0669629
0.8065990 0.1615429 0.0681212
0.8129150 0.1677721 0.0690814
0.8189722 0.1742706 0.0700017
0.8248634 0.1809435 0.0708963
0.8306938 0.1877356 0.0717813
0.1048095 0.0855548 0.0776977
0.1057293 0.0859827 0.0777554
0.1074684 0.0865448 0.0778295
0.1100076 0.0874472 0.0779490
0.1178715 0.0885864 0.0780923
0.1286247 0.0903395 0.0782959
0.1492001 0.0934855 0.0785829
0.1832386 0.0985995 0.0788301
0.2399500 0.1062334 0.0784622
0.2999689 0.1132017 0.0771164
0.3526037 0.1184401 0.0751540
0.3992941 0.1224335 0.0728073
0.4462726 0.1258489 0.0698567
0.4941123 0.1286150 0.0668348
0.5452255 0.1307214 0.0657528
0.5877612 0.1320717 0.0639499
0.6243053 0.1333351 0.0623012
0.6556497 0.1348556 0.0609718
0.6820634 0.1364784 0.0598008
0.7048298 0.1382633 0.0587529
0.7236611 0.1427255 0.0568065
0.7398210 0.1457849 0.0579320
0.7539297 0.1483573 0.0600908
0.7662124 0.1510353 0.0619675
0.7766758 0.1538457 0.0635642
0.7860676 0.1568448 0.0649959
0.7944183 0.1605647 0.0662678
0.8016295 0.1656216 0.0673653
0.8083448 0.1710368 0.0683866
0.8146785 0.1767738 0.0693494
0.8207528 0.1828041 0.0702721
0.8267204 0.1892766 0.0711782
0.8327334 0.1962602 0.0720907
0.1029088 0.0936573 0.0788385
0.1034468 0.0940814 0.0788924
0.1054619 0.0946077 0.0789511
0.1114450 0.0959298 0.0791060
0.1166746 0.0973007 0.0792768
0.1310878 0.0991030 0.0794445
0.1471828 0.1017258 0.0796612
0.1781906 0.1064733 0.0798526
0.2152413 0.1119247 0.0797280
0.2708238 0.1191391 0.0787896
0.3295337 0.1257617 0.0769159
0.3855573 0.1311136 0.0743032
0.4364115 0.1352830 0.0711920
0.4802915 0.1384300 0.0679446
0.5232087 0.1410543 0.0678891
0.5639605 0.1432647 0.0666115
0.6046163 0.1449769 0.0648228
0.6371839 0.1463578 0.0632428
0.6655162 0.1477328 0.0617773
0.6926467 0.1495385 0.0603369
0.7159694 0.1516424 0.0590967
0.7360006 0.1542897 0.0580869
0.7522889 0.1573252 0.0598400
0.7662575 0.1608275 0.0619744
0.7780380 0.1647755 0.0637719
0.7878904 0.1691106 0.0652736
0.7965850 0.1737644 0.0665976
0.8043514 0.1787103 0.0677793
0.8114100 0.1838796 0.0688526
0.8179210 0.1892547 0.0698420
0.8241001 0.1950552 0.0707804
0.8300892 0.2013591 0.0716895
0.8359604 0.2080421 0.0725803
0.1006907 0.1047665 0.0803103
0.1011507 0.1051743 0.0803612
0.1035298 0.1057407 0.0804227
0.1110629 0.1068488 0.0805254
0.1211260 0.1089241 0.0807330
0.1297290 0.1107588 0.0808937
0.1520777 0.1134183 0.0809920
0.1755379 0.1172365 0.0810911
0.2118143 0.1226582 0.0809061
0.2493792 0.1280288 0.0803454
0.3010881 0.1346347 0.0789526
0.3578874 0.1410175 0.0766184
0.4187995 0.1467153 0.0731533
0.4696752 0.1509266 0.0694865
0.5150039 0.1542497 0.0677402
0.5541043 0.1568932 0.0688803
0.5912979 0.1593994 0.0674476
0.6222407 0.1615918 0.0661116
0.6534898 0.1635451 0.0645863
0.6806575 0.1654947 0.0631897
0.7042269 0.1675383 0.0619421
0.7268110 0.1700515 0.0607381
0.7470348 0.1730396 0.0596961
0.7633843 0.1764252 0.0615356
0.7773172 0.1802958 0.0636620
0.7887800 0.1844230 0.0654091
0.7984236 0.1888310 0.0668774
0.8069757 0.1936765 0.0681784
0.8147188 0.1990119 0.0693554
0.8218552 0.2047370 0.0704395
0.8285015 0.2107851 0.0714485
0.8347705 0.2171112 0.0723997
0.8407382 0.2236332 0.0733048
0.0981940 0.1184686 0.0819725
0.0987831 0.1187182 0.0819972
0.1015322 0.1192872 0.0820416
0.1097914 0.1200862 0.0820703
0.1263791 0.1225138 0.0822211
0.1359531 0.1246451 0.0823592
0.1524322 0.1272047 0.0824271
0.1825061 0.1314036 0.0823618
0.2090339 0.1358298 0.0821920
0.2469377 0.1414596 0.0815631
0.2860257 0.1469772 0.0805233
0.3316800 0.1528997 0.0788092
0.3906198 0.1594971 0.0757778
0.4484537 0.1652538 0.0718630
0.5025549 0.1698194 0.0673981
0.5475507 0.1733941 0.0685575
0.5872771 0.1764087 0.0696861
0.6191666 0.1790010 0.0685725
0.6470330 0.1816157 0.0673446
0.6715782 0.1841782 0.0662184
0.6970935 0.1865515 0.0648953
0.7200088 0.1889613 0.0636676
0.7404272 0.1915642 0.0625775
0.7582588 0.1944605 0.0616684
0.7747900 0.1981684 0.0632765
0.7887449 0.2022205 0.0654037
0.8001406 0.2068307 0.0671387
0.8099015 0.2119518 0.0686232
0.8185038 0.2173520 0.0699305
0.8262076 0.2229615 0.0711003
0.8332186 0.2287415 0.0721643
0.8396637 0.2346279 0.0731418
0.8456780 0.2406202 0.0740536
0.0956876 0.1339174 0.0835996
0.0967129 0.1340659 0.0836047
0.0994228 0.1345817 0.0836299
0.1084282 0.1350828 0.0836074
0.1264268 0.1372110 0.0836710
0.1450169 0.1405049 0.0837689
0.1573998 0.1432598 0.0838384
0.1852636 0.1471266 0.0836451
0.2172904 0.1520019 0.0832473
0.2448340 0.1567324 0.0827406
0.2841078 0.1625658 0.0815981
0.3238963 0.1682112 0.0800535
0.3644394 0.1737843 0.0780680
0.4247049 0.1805833 0.0742250
0.4788681 0.1865069 0.0699083
0.5352693 0.1916627 0.0678828
0.5797632 0.1957294 0.0689609
0.6185709 0.1991953 0.0700004
0.6473640 0.2020559 0.0699734
0.6719400 0.2049161 0.0688432
0.6950465 0.2081200 0.0678005
0.7158425 0.2114252 0.0668695
0.7369214 0.2145831 0.0658161
0.7569640 0.2177167 0.0647627
0.7738211 0.2209758 0.0639337
0.7880275 0.2243699 0.0652944
0.8011276 0.2283430 0.0672888
0.8123013 0.2327724 0.0689880
0.8217727 0.2373445 0.0704269
0.8301018 0.2423881 0.0716914
0.8375745 0.2477308 0.0728250
0.8443633 0.2532667 0.0738543
0.8506312 0.2589895 0.0748041
0.0933696 0.1508076 0.0851061
0.0947942 0.1509185 0.0851028
0.0974728 0.1513439 0.0851141
0.1069594 0.1519523 0.0850851
0.1262988 0.1540755 0.0850730
0.1516547 0.1578976 0.0850379
0.1701882 0.1619832 0.0850027
0.1856893 0.1655796 0.0849187
0.2221937 0.1704787 0.0842363
0.2548720 0.1760138 0.0834515
0.2833302 0.1811130 0.0825425
0.3224561 0.1871288 0.0808849
0.3630529 0.1930776 0.0787408
0.4033247 0.1989222 0.0761823
0.4582435 0.2057723 0.0718754
0.5118428 0.2120394 0.0667548
0.5631676 0.2175903 0.0683229
0.6122017 0.2221448 0.0686824
0.6465380 0.2257748 0.0695126
0.6751785 0.2290749 0.0702557
0.6977775 0.2320221 0.0706476
0.7185114 0.2351309 0.0696549
0.7378049 0.2385630 0.0687852
0.7556506 0.2421149 0.0680082
0.7733800 0.2455586 0.0671703
0.7894370 0.2488449 0.0664020
0.8031042 0.2522165 0.0675895
0.8145596 0.2556960 0.0693311
0.8240755 0.2593567 0.0707766
0.8334862 0.2639247 0.0722048
0.8416677 0.2686991 0.0734456
0.8489473 0.2736734 0.0745489
0.8556501 0.2792436 0.0755642
0.0915431 0.1681689 0.0863797
0.0932955 0.1682500 0.0863675
0.0959203 0.1685280 0.0863603
0.1053338 0.1693654 0.0863300
0.1255746 0.1715925 0.0862671
0.1517432 0.1755322 0.0861311
0.1840974 0.1819313 0.0858301
0.1993652 0.1855764 0.0856094
0.2177650 0.1899545 0.0852590
0.2601737 0.1956782 0.0839460
0.2944636 0.2019391 0.0826732
0.3227232 0.2073428 0.0813404
0.3612252 0.2135562 0.0791489
0.4032949 0.2198437 0.0762622
0.4430768 0.2258101 0.0730221
0.4905799 0.2323647 0.0684716
0.5441956 0.2388871 0.0676259
0.5930859 0.2448589 0.0706429
0.6421080 0.2498090 0.0699543
0.6729121 0.2535103 0.0695592
0.6996595 0.2570011 0.0692318
0.7229296 0.2603763 0.0693983
0.7417116 0.2635120 0.0698182
0.7594329 0.2669288 0.0702231
0.7763745 0.2707001 0.0701440
0.7913238 0.2745202 0.0696219
0.8049992 0.2782336 0.0691659
0.8181549 0.2817453 0.0698773
0.8289889 0.2853640 0.0715223
0.8380657 0.2891166 0.0728994
0.8460471 0.2930527 0.0741094
0.8537011 0.2976550 0.0752690
0.8610263 0.3029277 0.0763782
0.0894403 0.1873479 0.0874761
0.0916130 0.1874318 0.0874583
0.0942630 0.1875775 0.0874385
0.1032811 0.1887116 0.0874031
0.1245093 0.1909420 0.0872527
0.1519787 0.1949882 0.0869962
0.1881560 0.2018439 0.0864507
0.2149228 0.2082295 0.0858717
0.2325313 0.2127125 0.0853648
0.2584426 0.2178993 0.0844340
0.3003144 0.2240384 0.0825536
0.3350373 0.2306883 0.0806794
0.3629517 0.2362944 0.0788798
0.4016479 0.2427693 0.0759673
0.4439244 0.2492839 0.0722381
0.4824225 0.2554567 0.0683072
0.5226402 0.2617763 0.0637364
0.5777353 0.2686188 0.0680304
0.6252440 0.2747866 0.0720551
0.6649563 0.2800029 0.0725258
0.6987674 0.2839301 0.0720022
0.7239040 0.2877220 0.0717184
0.7462149 0.2914682 0.0715137
0.7652905 0.2950768 0.0713806
0.7818351 0.2985828 0.0712955
0.7972366 0.3024668 0.0713217
0.8108159 0.3066627 0.0714796
0.8229105 0.3109770 0.0717138
0.8339325 0.3152798 0.0722725
0.8442694 0.3191873 0.0738400
0.8531011 0.3232275 0.0751782
0.8608606 0.3274142 0.0763531
0.8677635 0.3317520 0.0773978
0.0868118 0.2097587 0.0883045
0.0894680 0.2098848 0.0882798
0.0926803 0.2100838 0.0882506
0.1016285 0.2113923 0.0881842
0.1226873 0.2137178 0.0879770
0.1510605 0.2179371 0.0875877
0.1883219 0.2250088 0.0868201
0.2295722 0.2339755 0.0855374
0.2492148 0.2393564 0.0847322
0.2679846 0.2445218 0.0838507
0.3016602 0.2502992 0.0820377
0.3417557 0.2568033 0.0795311
0.3770156 0.2640620 0.0769382
0.4053265 0.2701116 0.0744337
0.4427506 0.2767395 0.0707106
0.4844542 0.2834080 0.0659701
0.5218559 0.2898053 0.0610536
0.5588804 0.2960700 0.0653898
0.6111737 0.3032932 0.0671789
0.6562330 0.3095698 0.0710755
0.6903979 0.3149690 0.0741629
0.7249764 0.3192792 0.0748230
0.7485115 0.3232750 0.0745684
0.7695410 0.3272393 0.0743933
0.7888939 0.3312364 0.0742792
0.8050774 0.3350162 0.0742298
0.8184698 0.3386691 0.0742780
0.8306879 0.3427326 0.0744959
0.8417841 0.3470552 0.0748536
0.8513724 0.3513941 0.0753063
0.8597023 0.3557132 0.0761779
0.8681148 0.3595031 0.0774510
0.8754607 0.3633714 0.0785621
0.0837696 0.2349430 0.0887086
0.0875642 0.2352401 0.0886656
0.0920360 0.2356475 0.0886131
0.1007040 0.2368515 0.0885020
0.1197915 0.2393778 0.0882202
0.1494956 0.2437990 0.0876451
0.1885463 0.2511418 0.0865726
0.2321480 0.2604321 0.0848654
0.2672491 0.2693727 0.0830505
0.2854726 0.2744820 0.0818981
0.3054142 0.2801622 0.0805039
0.3462051 0.2862736 0.0775124
0.3848169 0.2933448 0.0742088
0.4199646 0.3008129 0.0706792
0.4475054 0.3069403 0.0674434
0.4830762 0.3136137 0.0628192
0.5248413 0.3204771 0.0566170
0.5614209 0.3268487 0.0611943
0.5981795 0.3331870 0.0665761
0.6433867 0.3400821 0.0701342
0.6851011 0.3460079 0.0710620
0.7164887 0.3512590 0.0719191
0.7452043 0.3560446 0.0743480
0.7721509 0.3597781 0.0771328
0.7921258 0.3635850 0.0773663
0.8104979 0.3673785 0.0773220
0.8263958 0.3710790 0.0773863
0.8384898 0.3744186 0.0775076
0.8491734 0.3777615 0.0776922
0.8589354 0.3815266 0.0780713
0.8673890 0.3854536 0.0786043
0.8749004 0.3894427 0.0792408
0.8816856 0.3935110 0.0799780
0.0834308 0.2598194 0.0885244
0.0876709 0.2602318 0.0884572
0.0921728 0.2606916 0.0883826
0.0995462 0.2616406 0.0882511
0.1163773 0.2643381 0.0879107
0.1476165 0.2692046 0.0871505
0.1877126 0.2768368 0.0857760
0.2328454 0.2863784 0.0836800
0.2795038 0.2968397 0.0808332
0.3038545 0.3038763 0.0789265
0.3230003 0.3092782 0.0772699
0.3436095 0.3151764 0.0753130
0.3917110 0.3216872 0.0706913
0.4278913 0.3292125 0.0665204
0.4611096 0.3365498 0.0621246
0.4879189 0.3426539 0.0579621
0.5225493 0.3493177 0.0519944
0.5643319 0.3560505 0.0567329
0.6007642 0.3624321 0.0618369
0.6361267 0.3686603 0.0672881
0.6725084 0.3748460 0.0730827
0.7106940 0.3804431 0.0740824
0.7404785 0.3855377 0.0749521
0.7661747 0.3904053 0.0758276
0.7940184 0.3943199 0.0766097
0.8131936 0.3980190 0.0773074
0.8302410 0.4016407 0.0780124
0.8445286 0.4051268 0.0791914
0.8568104 0.4085535 0.0805066
0.8663965 0.4117171 0.0811631
0.8746419 0.4148974 0.0815418
0.8822318 0.4185544 0.0821632
0.8891430 0.4223662 0.0829043
0.0851696 0.2850179 0.0877920
0.0892156 0.2854756 0.0877121
0.0936980 0.2860138 0.0876192
0.0999928 0.2868271 0.0874807
0.1138911 0.2895409 0.0871197
0.1454805 0.2946364 0.0861548
0.1868125 0.3023686 0.0844543
0.2337151 0.3121312 0.0819048
0.2803477 0.3226551 0.0786139
0.3231914 0.3336076 0.0747919
0.3415762 0.3388092 0.0728307
0.3613822 0.3444670 0.0709972
0.3881393 0.3506982 0.0688232
0.4354798 0.3573518 0.0619973
0.4691137 0.3648903 0.0559929
0.5013773 0.3721473 0.0503171
0.5282548 0.3783009 0.0447043
0.5617344 0.3847784 0.0524997
0.6036729 0.3915156 0.0607799
0.6389396 0.3978792 0.0629976
0.6711688 0.4037820 0.0671700
0.6995036 0.4092569 0.0718312
0.7341473 0.4144866 0.0772177
0.7630749 0.4193474 0.0780610
0.7873625 0.4240580 0.0789422
0.8102614 0.4284279 0.0798194
0.8329734 0.4318296 0.0805395
0.8483796 0.4352506 0.0812617
0.8614615 0.4385753 0.0819898
0.8728886 0.4418778 0.0827346
0.8821822 0.4450442 0.0834498
0.8894962 0.4480226 0.0840959
0.8960983 0.4510613 0.0847730
0.0884651 0.3102319 0.0864794
0.0923174 0.3107769 0.0863805
0.0965430 0.3114044 0.0862675
0.1023885 0.3123238 0.0861030
0.1142693 0.3148239 0.0857145
0.1432445 0.3199882 0.0846265
0.1859540 0.3278927 0.0825814
0.2336112 0.3377864 0.0795570
0.2814607 0.3484672 0.0756885
0.3302394 0.3597974 0.0708518
0.3610449 0.3683807 0.0679482
0.3800615 0.3737644 0.0661247
0.4003504 0.3795842 0.0640410
0.4331418 0.3859756 0.0606748
0.4762578 0.3926814 0.0513357
0.5099529 0.4003268 0.0426699
0.5418134 0.4074875 0.0408504
0.5681176 0.4134589 0.0471786
0.6001694 0.4197921 0.0549903
0.6418613 0.4264716 0.0648618
0.6742808 0.4324344 0.0669625
0.7022195 0.4377589 0.0688782
0.7266370 0.4426715 0.0706503
0.7560617 0.4476741 0.0756247
0.7842872 0.4522399 0.0808150
0.8073161 0.4567797 0.0822121
0.8281726 0.4611911 0.0831514
0.8509437 0.4646747 0.0839453
0.8650140 0.4678655 0.0846788
0.8771135 0.4710265 0.0854431
0.8874819 0.4741393 0.0862385
0.8961192 0.4771943 0.0870673
0.9031717 0.4801074 0.0878472
0.0898185 0.3353580 0.0848016
0.0937367 0.3359422 0.0846765
0.0981023 0.3366232 0.0845312
0.1042965 0.3376437 0.0843142
0.1155326 0.3398931 0.0838728
0.1410708 0.3449063 0.0827149
0.1852278 0.3529551 0.0802975
0.2335226 0.3628872 0.0768359
0.2828017 0.3737066 0.0724015
0.3315285 0.3849737 0.0676703
0.3776392 0.3963629 0.0662549
0.3991171 0.4025892 0.0621090
0.4182120 0.4080836 0.0580688
0.4381121 0.4139029 0.0554456
0.4760913 0.4203639 0.0489452
0.5170541 0.4273624 0.0371229
0.5508408 0.4348994 0.0389859
0.5811676 0.4417003 0.0436880
0.6068135 0.4475372 0.0495716
0.6376535 0.4537436 0.0574092
0.6772073 0.4600619 0.0675802
0.7053977 0.4653794 0.0707894
0.7298008 0.4702134 0.0725297
0.7516606 0.4747756 0.0741734
0.7764933 0.4795623 0.0760572
0.8034954 0.4840282 0.0781411
0.8260518 0.4883289 0.0824781
0.8459559 0.4925976 0.0862955
0.8638525 0.4965171 0.0876561
0.8803496 0.4993051 0.0884089
0.8914300 0.5023181 0.0892519
0.9007145 0.5052648 0.0901562
0.9086084 0.5081983 0.0911537
0.0947233 0.3601729 0.0829177
0.0984159 0.3608564 0.0827565
0.1026068 0.3616615 0.0825668
0.1087839 0.3629051 0.0822726
0.1184878 0.3649594 0.0817848
0.1410790 0.3696559 0.0805571
0.1846537 0.3775451 0.0778079
0.2335306 0.3874608 0.0738517
0.2831367 0.3982936 0.0688507
0.3330177 0.4096863 0.0651490
0.3820256 0.4211688 0.0647978
0.4181145 0.4310899 0.0595882
0.4360171 0.4362901 0.0553253
0.4548663 0.4418350 0.0503302
0.4746061 0.4477037 0.0448306
0.5192675 0.4543794 0.0332591
0.5577537 0.4614010 0.0372917
0.5903414 0.4686863 0.0446415
0.6194903 0.4752961 0.0489214
0.6445702 0.4810967 0.0519250
0.6730217 0.4870064 0.0593155
0.7081346 0.4926655 0.0687169
0.7329941 0.4974449 0.0745420
0.7549059 0.5019791 0.0761774
0.7751772 0.5063708 0.0777720
0.7957963 0.5109233 0.0794697
0.8215538 0.5152828 0.0814553
0.8438874 0.5194697 0.0833251
0.8624950 0.5236526 0.0851019
0.8778976 0.5275875 0.0867728
0.8940846 0.5304802 0.0902182
0.9046251 0.5332859 0.0925139
0.9129638 0.5360865 0.0943798
0.1056806 0.3850213 0.0806074
0.1097391 0.3858381 0.0803796
0.1136962 0.3868417 0.0801148
0.1192398 0.3883255 0.0797229
0.1265123 0.3903375 0.0791859
0.1456745 0.3948806 0.0778488
0.1842117 0.4021184 0.0750561
0.2336328 0.4120180 0.0705998
0.2834599 0.4228230 0.0650032
0.3347447 0.4343239 0.0638627
0.3832545 0.4456873 0.0618815
0.4299990 0.4570720 0.0585956
0.4540290 0.4643054 0.0525361
0.4720121 0.4695323 0.0472900
0.4911695 0.4751235 0.0409600
0.5154165 0.4812149 0.0317258
0.5622910 0.4878252 0.0347983
0.5969306 0.4947484 0.0428715
0.6289018 0.5019431 0.0501503
0.6567120 0.5083070 0.0540982
0.6801140 0.5138142 0.0569367
0.7048727 0.5192230 0.0603949
0.7352628 0.5242176 0.0688835
0.7579888 0.5286558 0.0749543
0.7782664 0.5329327 0.0800035
0.7972290 0.5371620 0.0816145
0.8153668 0.5414521 0.0832822
0.8385629 0.5457469 0.0852524
0.8604137 0.5497923 0.0871964
0.8775442 0.5537745 0.0890242
0.8916643 0.5575216 0.0907409
0.9045268 0.5609557 0.0923725
0.9165267 0.5632184 0.0936669
0.1135091 0.4102049 0.0782113
0.1170561 0.4111252 0.0779300
0.1209789 0.4121624 0.0776112
0.1264483 0.4136411 0.0771534
0.1337079 0.4156665 0.0765200
0.1516204 0.4195416 0.0751249
0.1841753 0.4259306 0.0724224
0.2340154 0.4357746 0.0674470
0.2841201 0.4465191 0.0611705
0.3355862 0.4579023 0.0648169
0.3846566 0.4692779 0.0591808
0.4318868 0.4805018 0.0584183
0.4724252 0.4914027 0.0496788
0.4898272 0.4963521 0.0441366
0.5084963 0.5016633 0.0373968
0.5282252 0.5073010 0.0298038
0.5585951 0.5135167 0.0304451
0.6033301 0.5197860 0.0409775
0.6351217 0.5268160 0.0484640
0.6660529 0.5338376 0.0555497
0.6911834 0.5397209 0.0590858
0.7117270 0.5447364 0.0616345
0.7325201 0.5495713 0.0642300
0.7596135 0.5541779 0.0687662
0.7809943 0.5584036 0.0747664
0.7999806 0.5625134 0.0799632
0.8177189 0.5665179 0.0847439
0.8342493 0.5704653 0.0876648
0.8544827 0.5746940 0.0895838
0.8750268 0.5785565 0.0914867
0.8910380 0.5821546 0.0932404
0.9042026 0.5856812 0.0949373
0.9154018 0.5890681 0.0965957
0.1221922 0.4343738 0.0759580
0.1256850 0.4352980 0.0756326
0.1296050 0.4363546 0.0752585
0.1351532 0.4378833 0.0747134
0.1424600 0.4399524 0.0739671
0.1592368 0.4430297 0.0725650
0.1872770 0.4487297 0.0699279
0.2349197 0.4581420 0.0646740
0.2852512 0.4688118 0.0602952
0.3364829 0.4800967 0.0640252
0.3862035 0.4914600 0.0619758
0.4328395 0.5025622 0.0558861
0.4795452 0.5137359 0.0506449
0.5083020 0.5219851 0.0415098
0.5262996 0.5270109 0.0347461
0.5451751 0.5323073 0.0308250
0.5646532 0.5378057 0.0323016
0.5995877 0.5440201 0.0363198
0.6415409 0.5503467 0.0468962
0.6716784 0.5572578 0.0540069
0.6999186 0.5638551 0.0605211
0.7212754 0.5690574 0.0638167
0.7389274 0.5735571 0.0660600
0.7570060 0.5779822 0.0683627
0.7818832 0.5822929 0.0714114
0.8023366 0.5863392 0.0747904
0.8200753 0.5902271 0.0798325
0.8365937 0.5940076 0.0844504
0.8520553 0.5977257 0.0887188
0.8691460 0.6016908 0.0934320
0.8881463 0.6053134 0.0959982
0.9033213 0.6086137 0.0977347
0.9155073 0.6119629 0.0994824
0.1324313 0.4577646 0.0741595
0.1359067 0.4587055 0.0737855
0.1397886 0.4597732 0.0733588
0.1452892 0.4613162 0.0727374
0.1545122 0.4632392 0.0718304
0.1683043 0.4655985 0.0705435
0.1958444 0.4711879 0.0676769
0.2363514 0.4794126 0.0627662
0.2868367 0.4899886 0.0602203
0.3376194 0.5011407 0.0638507
0.3868631 0.5123447 0.0656046
0.4339689 0.5235152 0.0577850
0.4804102 0.5346238 0.0544707
0.5234869 0.5456724 0.0423448
0.5443206 0.5516172 0.0347452
0.5622163 0.5566145 0.0338888
0.5806143 0.5618030 0.0353527
0.5993247 0.5671571 0.0369004
0.6392911 0.5734773 0.0430007
0.6775122 0.5797096 0.0525739
0.7049198 0.5861537 0.0590502
0.7292367 0.5920725 0.0646824
0.7474176 0.5966660 0.0682275
0.7631965 0.6008208 0.0702648
0.7793770 0.6049590 0.0723616
0.8027337 0.6090411 0.0752278
0.8222209 0.6128872 0.0777092
0.8387277 0.6166152 0.0798969
0.8541433 0.6202330 0.0842389
0.8687733 0.6238261 0.0884527
0.8828041 0.6275478 0.0924689
0.8999680 0.6308956 0.0974369
0.9144078 0.6339504 0.1016109
0.1439683 0.4807024 0.0738150
0.1473868 0.4816542 0.0734012
0.1512088 0.4827328 0.0729299
0.1575550 0.4842061 0.0722200
0.1681904 0.4859836 0.0711800
0.1810820 0.4882355 0.0698349
