LumaGrade-Vercel/public/luts/portra-400.cube
TITLE "Kodak Portra 400 Spectral Print"
LUT_3D_SIZE 5
0.1087000 0.0756195 0.0762055
0.3538362 0.1029303 0.0737028
0.6765475 0.1185625 0.0557495
0.7716311 0.1382519 0.0627946
0.8252680 0.1691317 0.0709578
0.0981940 0.1184686 0.0819725
0.2090339 0.1358298 0.0821920
0.5872771 0.1764087 0.0696861
0.7747900 0.1981684 0.0632765
0.8456780 0.2406202 0.0740536
0.0851696 0.2850179 0.0877920
0.2803477 0.3226551 0.0786139
0.5282548 0.3783009 0.0447043
0.7873625 0.4240580 0.0789422
0.8960983 0.4510613 0.0847730
0.1439683 0.4807024 0.0738150
0.2886980 0.5105494 0.0626114
0.5965406 0.5848998 0.0385100
0.7853849 0.6264999 0.0743993
0.9107375 0.6548223 0.0965054
0.2773641 0.6303961 0.1358470
0.3409351 0.6436114 0.1300438
0.6624004 0.7162911 0.1272365
0.8013316 0.7527641 0.1245346
0.9106102 0.7779200 0.1432214
0.0934171 0.0938344 0.2035289
0.2592838 0.1141117 0.1824141
0.6720281 0.1403484 0.1217368
0.7967485 0.1803735 0.1486848
0.8446984 0.2262368 0.1356504
0.0893277 0.1643704 0.1619507
0.2318731 0.1844879 0.1519633
0.6259530 0.2328388 0.1329941
0.8021699 0.2599308 0.1259685
0.8655688 0.2993222 0.1319479
0.1757515 0.3871891 0.1850550
0.2841517 0.4067665 0.1789596
0.5476569 0.4559634 0.1654897
0.7951841 0.4882046 0.1253705
0.9074991 0.5161736 0.1470947
0.1938593 0.5594696 0.2117378
0.3410833 0.5873743 0.2058367
0.6179603 0.6420057 0.1973980
0.7819117 0.6781183 0.1972924
0.9168739 0.7024181 0.1979886
0.3191620 0.6874294 0.2869859
0.4254574 0.7090355 0.2838904
0.6682302 0.7581949 0.2807277
0.8040040 0.7885750 0.3023451
0.9016581 0.8103833 0.3182655
0.0706686 0.1528993 0.6104800
0.2307171 0.1781775 0.6043342
0.5853049 0.2367434 0.5981200
0.8141433 0.2689770 0.5159032
0.8680398 0.3103771 0.4799902
0.1000246 0.2545893 0.5827183
0.2742921 0.2835441 0.5439905
0.6766252 0.3361800 0.5249717
0.8339528 0.3840223 0.5507389
0.8963235 0.4203346 0.5128878
0.1319338 0.4831368 0.5744399
0.1925546 0.5093176 0.5802539
0.5525667 0.5590707 0.5665621
0.8114461 0.5936704 0.5458820
0.9213124 0.6176498 0.5448658
0.2559477 0.6692727 0.5988043
0.3210776 0.6844945 0.6036640
0.5537794 0.7213065 0.5963781
0.7730221 0.7574185 0.5846110
0.9069345 0.7768647 0.5814153
0.4915648 0.7945432 0.6429780
0.5641087 0.8081982 0.6480510
0.6668285 0.8258724 0.6426311
0.7652135 0.8455354 0.6480850
0.8937935 0.8645322 0.6376267
0.0688508 0.3166481 0.7628027
0.2293039 0.3462193 0.7884611
0.5744175 0.4116086 0.8212816
0.7958534 0.4568897 0.8256604
0.8991563 0.5019937 0.8182508
0.1463943 0.3925764 0.7800683
0.2031541 0.4325866 0.8152097
0.6953386 0.4817303 0.8112188
0.8522931 0.5130432 0.8045462
0.9183284 0.5443394 0.7965545
0.1435275 0.5590081 0.7941716
0.2898763 0.5835614 0.8046549
0.5874129 0.6415699 0.8214371
0.8341365 0.6769723 0.8191710
0.9206544 0.6941921 0.8098435
0.2703666 0.7241552 0.8292184
0.3502909 0.7353269 0.8301030
0.5853771 0.7729499 0.8341694
0.7817630 0.8042106 0.8328910
0.9051178 0.8227139 0.8290462
0.5153638 0.8329310 0.8447942
0.5549643 0.8396755 0.8448599
0.6684951 0.8593462 0.8483333
0.7800170 0.8779191 0.8435205
0.8806289 0.8947097 0.8391730
0.1235893 0.4674469 0.8276694
0.1519718 0.5100092 0.8651577
0.5588149 0.5822299 0.9094680
0.7997563 0.6229825 0.9206761
0.9016594 0.6537563 0.9239084
0.1042545 0.5245866 0.8529236
0.1961064 0.5692768 0.8905875
0.5572401 0.6266696 0.9167310
0.8506833 0.6585297 0.9203833
0.9183182 0.6818796 0.9204072
0.0796399 0.6257432 0.8825904
0.2884986 0.6479517 0.8918437
0.7015241 0.7181718 0.9105750
0.8535585 0.7451206 0.9129863
0.9380260 0.7625841 0.9127355
0.3342144 0.7628655 0.9142298
0.4305068 0.7771274 0.9179444
0.6263767 0.8094691 0.9247736
0.8046532 0.8387854 0.9286075
0.9134486 0.8532470 0.9230116
0.5221033 0.8514431 0.9271536
0.5575528 0.8575081 0.9279264
0.6514639 0.8743368 0.9308923
0.8005158 0.8989153 0.9325473
0.8950031 0.9138181 0.9316875
