LumaGrade-Vercel/public/luts/provia-100f.cube
TITLE "Fujichrome Provia 100F Spectral Reversal"
LUT_3D_SIZE 33
0.0051623 0.0064487 0.0079701
0.0059821 0.0065645 0.0080636
0.0086254 0.0068925 0.0083216
0.0138417 0.0074091 0.0087070
0.0267149 0.0082993 0.0093213
0.0524248 0.0093313 0.0099892
0.0793295 0.0099398 0.0104137
0.1065266 0.0099936 0.0106162
0.1343970 0.0096842 0.0106775
0.1629918 0.0091890 0.0105494
0.1923044 0.0100227 0.0101909
0.2237577 0.0090787 0.0105938
0.2526492 0.0113271 0.0103203
0.2819370 0.0142043 0.0099600
0.3113250 0.0177024 0.0096174
0.3406848 0.0215424 0.0099869
0.3716733 0.0254247 0.0123787
0.4024621 0.0305389 0.0150224
0.4329894 0.0374256 0.0179117
0.4628022 0.0458247 0.0209960
0.4921138 0.0548468 0.0242863
0.5215565 0.0647938 0.0278536
0.5496786 0.0753060 0.0315110
0.5752434 0.0861944 0.0350514
0.5987903 0.0974435 0.0384968
0.6214054 0.1090899 0.0419329
0.6432406 0.1213529 0.0452379
0.6622325 0.1391155 0.0481068
0.6794274 0.1583063 0.0528543
0.6952757 0.1765746 0.0616025
0.7094967 0.1932959 0.0701301
0.7225320 0.2092287 0.0783607
0.7346030 0.2246282 0.0866904
0.0051627 0.0064245 0.0079609
0.0052832 0.0064227 0.0079677
0.0067360 0.0066341 0.0081319
0.0102109 0.0070725 0.0084553
0.0154798 0.0076250 0.0088321
0.0312897 0.0087287 0.0095319
0.0615823 0.0100643 0.0102743
0.0916289 0.0110868 0.0107602
0.1216293 0.0116811 0.0110159
0.1518678 0.0118117 0.0110607
0.1825604 0.0123541 0.0108784
0.2146594 0.0128040 0.0109078
0.2476884 0.0128463 0.0112282
0.2788936 0.0163971 0.0109506
0.3106687 0.0209221 0.0107119
0.3423020 0.0268320 0.0105275
0.3741114 0.0317337 0.0125783
0.4059140 0.0376966 0.0153356
0.4369649 0.0451060 0.0183079
0.4670143 0.0531907 0.0214530
0.4965874 0.0620940 0.0248113
0.5261818 0.0717610 0.0284383
0.5546061 0.0820123 0.0321773
0.5806199 0.0927004 0.0358224
0.6043128 0.1037430 0.0393307
0.6270583 0.1152202 0.0427893
0.6476613 0.1307900 0.0459061
0.6661692 0.1491556 0.0487008
0.6831148 0.1673850 0.0536624
0.6984953 0.1843901 0.0623010
0.7124390 0.2003205 0.0707729
0.7252691 0.2156681 0.0789554
0.7371643 0.2305853 0.0872456
0.0051513 0.0069761 0.0081662
0.0055374 0.0072122 0.0082747
0.0067774 0.0075369 0.0084580
0.0091614 0.0080339 0.0087379
0.0156457 0.0088970 0.0092370
0.0298936 0.0102258 0.0099276
0.0521960 0.0116843 0.0105789
0.0796435 0.0132238 0.0111445
0.1097756 0.0145974 0.0115241
0.1425934 0.0156510 0.0117290
0.1757139 0.0162942 0.0117769
0.2091163 0.0181383 0.0115256
0.2438253 0.0190138 0.0120384
0.2782978 0.0206125 0.0125903
0.3109835 0.0262722 0.0124353
0.3430429 0.0329367 0.0121977
0.3750721 0.0404797 0.0126573
0.4079186 0.0468866 0.0155191
0.4398586 0.0539416 0.0185992
0.4708486 0.0618346 0.0218736
0.5008754 0.0703723 0.0253202
0.5308237 0.0796327 0.0290317
0.5598460 0.0895747 0.0328943
0.5864673 0.0999148 0.0366714
0.6104153 0.1106800 0.0402638
0.6319839 0.1251860 0.0435350
0.6519220 0.1423356 0.0465499
0.6703619 0.1598787 0.0493333
0.6869282 0.1768712 0.0544952
0.7018719 0.1926773 0.0630295
0.7155873 0.2079019 0.0714564
0.7282184 0.2226641 0.0795916
0.7399427 0.2370981 0.0878439
0.0050117 0.0088624 0.0087991
0.0061596 0.0093000 0.0089975
0.0073282 0.0097743 0.0091941
0.0097621 0.0104708 0.0094973
0.0141895 0.0114733 0.0099192
0.0269300 0.0132338 0.0106375
0.0554605 0.0157708 0.0115015
0.0810123 0.0181016 0.0120877
0.1052195 0.0204402 0.0125634
0.1340309 0.0232009 0.0129693
0.1660532 0.0262358 0.0131824
0.2026010 0.0292957 0.0131299
0.2406013 0.0326063 0.0133267
0.2773840 0.0362524 0.0139046
0.3139023 0.0403620 0.0144193
0.3492514 0.0448289 0.0148818
0.3817514 0.0522755 0.0149265
0.4137300 0.0598393 0.0160575
0.4454928 0.0665849 0.0191734
0.4761414 0.0738555 0.0224614
0.5061312 0.0819662 0.0259516
0.5363860 0.0909962 0.0297515
0.5662056 0.1010552 0.0337761
0.5927750 0.1138025 0.0375996
0.6159487 0.1279220 0.0411058
0.6374810 0.1433339 0.0443668
0.6575708 0.1592049 0.0474030
0.6757751 0.1748272 0.0501495
0.6917709 0.1896721 0.0555500
0.7063777 0.2041342 0.0639890
0.7198130 0.2182720 0.0723644
0.7322027 0.2322246 0.0804446
0.7437302 0.2460662 0.0884483
0.0047076 0.0132559 0.0100106
0.0061499 0.0140874 0.0102800
0.0083752 0.0151882 0.0106254
0.0113138 0.0164522 0.0110001
0.0156602 0.0181689 0.0114637
0.0267276 0.0208637 0.0121813
0.0513236 0.0249159 0.0131252
0.0839576 0.0296905 0.0139594
0.1142758 0.0344315 0.0145043
0.1410209 0.0391173 0.0148362
0.1675173 0.0437737 0.0150459
0.1982664 0.0487010 0.0150639
0.2345894 0.0539920 0.0147713
0.2715004 0.0592625 0.0161616
0.3109759 0.0647178 0.0168140
0.3491630 0.0702164 0.0172466
0.3849756 0.0760178 0.0177622
0.4191037 0.0824140 0.0184701
0.4520826 0.0895443 0.0198568
0.4836044 0.0974615 0.0233045
0.5136268 0.1062744 0.0268667
0.5427149 0.1160222 0.0305823
0.5714650 0.1267657 0.0345150
0.5984878 0.1387962 0.0384513
0.6223549 0.1520497 0.0420768
0.6436614 0.1658182 0.0453014
0.6635930 0.1795851 0.0483120
0.6814976 0.1929186 0.0510119
0.6974223 0.2062774 0.0567883
0.7118449 0.2195637 0.0651260
0.7251331 0.2327038 0.0734597
0.7373556 0.2456899 0.0814861
0.7487173 0.2586612 0.0876389
0.0037818 0.0227727 0.0119309
0.0054525 0.0240453 0.0122151
0.0091962 0.0258617 0.0126248
0.0124742 0.0280112 0.0130745
0.0193752 0.0308557 0.0136630
0.0307559 0.0349212 0.0144173
0.0543966 0.0408370 0.0153089
0.0802953 0.0473192 0.0160980
0.1142194 0.0541708 0.0166741
0.1494108 0.0606325 0.0169324
0.1806140 0.0667905 0.0170216
0.2086629 0.0724164 0.0169163
0.2386095 0.0780596 0.0165429
0.2710682 0.0840134 0.0169088
0.3081254 0.0905756 0.0185007
0.3446789 0.0972715 0.0202807
0.3829027 0.1043780 0.0216629
0.4197997 0.1119242 0.0226169
0.4547818 0.1197137 0.0237602
0.4881775 0.1281834 0.0252350
0.5199548 0.1376860 0.0276527
0.5501970 0.1480305 0.0315807
0.5798911 0.1589022 0.0357173
0.6077764 0.1700030 0.0398587
0.6320317 0.1809934 0.0435421
0.6525939 0.1919040 0.0466513
0.6713852 0.2029567 0.0494875
0.6885645 0.2141905 0.0524131
0.7039778 0.2256833 0.0591027
0.7179617 0.2375668 0.0667450
0.7310057 0.2495832 0.0745135
0.7432319 0.2618197 0.0803737
0.7545583 0.2741196 0.0863745
0.0029397 0.0379178 0.0139731
0.0042716 0.0396038 0.0142408
0.0082200 0.0424504 0.0148025
0.0154465 0.0463379 0.0155206
0.0215148 0.0499324 0.0160799
0.0406857 0.0555822 0.0168792
0.0615154 0.0617906 0.0176853
0.0880493 0.0688881 0.0184138
0.1136125 0.0760817 0.0189969
0.1487695 0.0838711 0.0191964
0.1846599 0.0914933 0.0190052
0.2206535 0.0987563 0.0184665
0.2552809 0.1061161 0.0177856
0.2846756 0.1127037 0.0183325
0.3152952 0.1194148 0.0207561
0.3469267 0.1266275 0.0223109
0.3846394 0.1350255 0.0237781
0.4200771 0.1436782 0.0254267
0.4545342 0.1527024 0.0273927
0.4908950 0.1623002 0.0305693
0.5248614 0.1719469 0.0339843
0.5560596 0.1811864 0.0365158
0.5858585 0.1904292 0.0390464
0.6143660 0.1998089 0.0416693
0.6398039 0.2093315 0.0447180
0.6610550 0.2190172 0.0482809
0.6800517 0.2289309 0.0528174
0.6973882 0.2391312 0.0586134
0.7129372 0.2495726 0.0645552
0.7266841 0.2601813 0.0699803
0.7392879 0.2708979 0.0753180
0.7509128 0.2817364 0.0812713
0.7616943 0.2927522 0.0873870
0.0024281 0.0578183 0.0160480
0.0030671 0.0595612 0.0163486
0.0056360 0.0631704 0.0170651
0.0159221 0.0677597 0.0178243
0.0301074 0.0733758 0.0186862
0.0454613 0.0788686 0.0194273
0.0755493 0.0867779 0.0201252
0.0964918 0.0938294 0.0206984
0.1241984 0.1019662 0.0210165
0.1510701 0.1102960 0.0211931
0.1851781 0.1192364 0.0209752
0.2222601 0.1282956 0.0203091
0.2645852 0.1372410 0.0190068
0.3009790 0.1458921 0.0193146
0.3345942 0.1541363 0.0216077
0.3641958 0.1616582 0.0242848
0.3949860 0.1691434 0.0274560
0.4246413 0.1766285 0.0308381
0.4592999 0.1851112 0.0331210
0.4927441 0.1936330 0.0356352
0.5244510 0.2021424 0.0382230
0.5565573 0.2109007 0.0409536
0.5877437 0.2198165 0.0437445
0.6177447 0.2287788 0.0466414
0.6450611 0.2376812 0.0498005
0.6681199 0.2467110 0.0535206
0.6878439 0.2559907 0.0581542
0.7057386 0.2655568 0.0635252
0.7218139 0.2753473 0.0692878
0.7359096 0.2852949 0.0751056
0.7486031 0.2953989 0.0808129
0.7603211 0.3057382 0.0866827
0.7711412 0.3162962 0.0927177
0.0017423 0.0812140 0.0181452
0.0019716 0.0829604 0.0184052
0.0029936 0.0871006 0.0191823
0.0135292 0.0929100 0.0201147
0.0424836 0.1014859 0.0211773
0.0605963 0.1077641 0.0217801
0.0843170 0.1151304 0.0222172
0.1122920 0.1234168 0.0224716
0.1338539 0.1308683 0.0227693
0.1627858 0.1394710 0.0227063
0.1906323 0.1480576 0.0225655
0.2224818 0.1571374 0.0221612
0.2635798 0.1667965 0.0208863
0.3048723 0.1762902 0.0193116
0.3450514 0.1849439 0.0229283
0.3806309 0.1933936 0.0271543
0.4124556 0.2013063 0.0294894
0.4406393 0.2086650 0.0319985
0.4689316 0.2159811 0.0359444
0.4965599 0.2233238 0.0400405
0.5283995 0.2314745 0.0443959
0.5594771 0.2398089 0.0467541
0.5884870 0.2481611 0.0492677
0.6167284 0.2567116 0.0520808
0.6467398 0.2658304 0.0555560
0.6730381 0.2750873 0.0599192
0.6944386 0.2842800 0.0649888
0.7133142 0.2935341 0.0704198
0.7302647 0.3029721 0.0759751
0.7451437 0.3125326 0.0814348
0.7581900 0.3222514 0.0870411
0.7701371 0.3321562 0.0928219
0.7810722 0.3422222 0.0987611
0.0009200 0.1048704 0.0200074
0.0011140 0.1064996 0.0202475
0.0015475 0.1101436 0.0209221
0.0100263 0.1171678 0.0219169
0.0453952 0.1266130 0.0226975
0.0792680 0.1359995 0.0233997
0.0954678 0.1420287 0.0239100
0.1235627 0.1501917 0.0239122
0.1502242 0.1586128 0.0240070
0.1720136 0.1662313 0.0242587
0.2013952 0.1751049 0.0241633
0.2305749 0.1840483 0.0237026
0.2607462 0.1932970 0.0233210
0.3048442 0.2036486 0.0215828
0.3441491 0.2134037 0.0215498
0.3882081 0.2227182 0.0272374
0.4237603 0.2313553 0.0328143
0.4572671 0.2397255 0.0374451
0.4852977 0.2472241 0.0399611
0.5117894 0.2545136 0.0424587
0.5386032 0.2618740 0.0450985
0.5643799 0.2693101 0.0481970
0.5927950 0.2774913 0.0526647
0.6215718 0.2861347 0.0574768
0.6495550 0.2950520 0.0626923
0.6753700 0.3041305 0.0673095
0.6988480 0.3134377 0.0723857
0.7194735 0.3228649 0.0777811
0.7378393 0.3323334 0.0831001
0.7538555 0.3416617 0.0882798
0.7675927 0.3509938 0.0927755
0.7798784 0.3604323 0.0972373
0.7910346 0.3699768 0.1017031
0.0006741 0.1271680 0.0214460
0.0007409 0.1287932 0.0216402
0.0009039 0.1318657 0.0221194
0.0085125 0.1397805 0.0231556
0.0472722 0.1505573 0.0238853
0.0925197 0.1621571 0.0245105
0.1139522 0.1696055 0.0251938
0.1307993 0.1761848 0.0258877
0.1633361 0.1853297 0.0253181
0.1892515 0.1940377 0.0254995
0.2110500 0.2018708 0.0260690
0.2408648 0.2111330 0.0266562
0.2722245 0.2207804 0.0258308
0.3034380 0.2305568 0.0252279
0.3446759 0.2410836 0.0235204
0.3853901 0.2511139 0.0257029
0.4258717 0.2608447 0.0306892
0.4656395 0.2697528 0.0372730
0.4981400 0.2782635 0.0432376
0.5294008 0.2867419 0.0483158
0.5548710 0.2942829 0.0509656
0.5797675 0.3019029 0.0538938
0.6044782 0.3096734 0.0573350
0.6281605 0.3176005 0.0611812
0.6544430 0.3262651 0.0653921
0.6818412 0.3354638 0.0697885
0.7057433 0.3444881 0.0745983
0.7254696 0.3532834 0.0793278
0.7432094 0.3621262 0.0839471
0.7608272 0.3713754 0.0889514
0.7759677 0.3805942 0.0938062
0.7889702 0.3897950 0.0985541
0.8004917 0.3987526 0.1031811
0.0010438 0.1495852 0.0227808
0.0010806 0.1513376 0.0229772
0.0011405 0.1541090 0.0233702
0.0061194 0.1626585 0.0243432
0.0476226 0.1746804 0.0249730
0.0967102 0.1869559 0.0254833
0.1337057 0.1982931 0.0264190
0.1497035 0.2046768 0.0271251
0.1673660 0.2119263 0.0282169
0.2028703 0.2219403 0.0272955
0.2293009 0.2312204 0.0283893
0.2515056 0.2394869 0.0295368
0.2824642 0.2492908 0.0299674
0.3159186 0.2595438 0.0278793
0.3474881 0.2695759 0.0255803
0.3843467 0.2799950 0.0234170
0.4270586 0.2904561 0.0296440
0.4648415 0.3003898 0.0375623
0.5065600 0.3097871 0.0414714
0.5386835 0.3186460 0.0476015
0.5693372 0.3274797 0.0539433
0.5974811 0.3360890 0.0600527
0.6206967 0.3438539 0.0652612
0.6436309 0.3517290 0.0691460
0.6670495 0.3597303 0.0732142
0.6896277 0.3677520 0.0772482
0.7120529 0.3760574 0.0813433
0.7334050 0.3846845 0.0855079
0.7517908 0.3931555 0.0897247
0.7682868 0.4015861 0.0940187
0.7828894 0.4099561 0.0983824
0.7961888 0.4184163 0.1029921
0.8084329 0.4269603 0.1078227
0.0016187 0.1735596 0.0240531
0.0016753 0.1756158 0.0242334
0.0017486 0.1782219 0.0244609
0.0058386 0.1865587 0.0255677
0.0491204 0.1999128 0.0260917
0.1005330 0.2130127 0.0263550
0.1434117 0.2256468 0.0272405
0.1697161 0.2351609 0.0288671
0.1864443 0.2422234 0.0302021
0.2096358 0.2506555 0.0307314
0.2436226 0.2607383 0.0323532
0.2713221 0.2704904 0.0310998
0.2944218 0.2790293 0.0315181
0.3260424 0.2891322 0.0310993
0.3603056 0.2996657 0.0279642
0.3912858 0.3097543 0.0253239
0.4242855 0.3201491 0.0242630
0.4678323 0.3309571 0.0335393
0.5047487 0.3410823 0.0425168
0.5411906 0.3509102 0.0502793
0.5782771 0.3601271 0.0545979
0.6079833 0.3690751 0.0600941
0.6358641 0.3778263 0.0664809
0.6605309 0.3859966 0.0721317
0.6825163 0.3936282 0.0771823
0.7043523 0.4012901 0.0823293
0.7248493 0.4088357 0.0873630
0.7425337 0.4161549 0.0919797
0.7587441 0.4235011 0.0963788
0.7759581 0.4313906 0.1008867
0.7911896 0.4391541 0.1051251
0.8043246 0.4468038 0.1090727
0.8156959 0.4543799 0.1127780
0.0024276 0.1997863 0.0255065
0.0025124 0.2022252 0.0256868
0.0026101 0.2049789 0.0258900
0.0077937 0.2121180 0.0268412
0.0514561 0.2259765 0.0271938
0.1027414 0.2398392 0.0275903
0.1484999 0.2531170 0.0285974
0.1885159 0.2660105 0.0301558
0.2069256 0.2735050 0.0312001
0.2242711 0.2808333 0.0331350
0.2532018 0.2902196 0.0347795
0.2864802 0.3005151 0.0349202
0.3153968 0.3106339 0.0327257
0.3388129 0.3193325 0.0325668
0.3697701 0.3294600 0.0322772
0.4040008 0.3401297 0.0296589
0.4350697 0.3504437 0.0284882
0.4658739 0.3608209 0.0289553
0.5060859 0.3715855 0.0380955
0.5432856 0.3816885 0.0478011
0.5770826 0.3914206 0.0564321
0.6160316 0.4005920 0.0646094
0.6445242 0.4091707 0.0685473
0.6713256 0.4175496 0.0725611
0.6974913 0.4258956 0.0787227
0.7196711 0.4334778 0.0840761
0.7386473 0.4405733 0.0888410
0.7556260 0.4474455 0.0934144
0.7708459 0.4541669 0.0977983
0.7848578 0.4608641 0.1020311
0.7979124 0.4675924 0.1061406
0.8118888 0.4749096 0.1102770
0.8237560 0.4820868 0.1141172
0.0034828 0.2273841 0.0273673
0.0035914 0.2299482 0.0274969
0.0037211 0.2329561 0.0276391
0.0140444 0.2392794 0.0282875
0.0531184 0.2523135 0.0291131
0.1042856 0.2667130 0.0294804
0.1533824 0.2803713 0.0296425
0.1965725 0.2937003 0.0301344
0.2283589 0.3047182 0.0341483
0.2451399 0.3116773 0.0350560
0.2632627 0.3192908 0.0375181
0.2986726 0.3298201 0.0392458
0.3309502 0.3402404 0.0375953
0.3596087 0.3503956 0.0362791
0.3825703 0.3591061 0.0378816
0.4122632 0.3691075 0.0399670
0.4471939 0.3799534 0.0389132
0.4776490 0.3900947 0.0394013
0.5069656 0.4000616 0.0403837
0.5423362 0.4102869 0.0432009
0.5801846 0.4202224 0.0531499
0.6131386 0.4297149 0.0616666
0.6456606 0.4388160 0.0699744
0.6788899 0.4471679 0.0782961
0.7054951 0.4554698 0.0822669
0.7306469 0.4636301 0.0862484
0.7529889 0.4714539 0.0910104
0.7691525 0.4780746 0.0954637
0.7833283 0.4844841 0.0995950
0.7969442 0.4908480 0.1037745
0.8096027 0.4971653 0.1078692
0.8209873 0.5034336 0.1118173
0.8310304 0.5096440 0.1156124
0.0047776 0.2556215 0.0303976
0.0049181 0.2584277 0.0306175
0.0082505 0.2614256 0.0305720
0.0199993 0.2664586 0.0304478
0.0550134 0.2776781 0.0313306
0.1059779 0.2923447 0.0310101
0.1572676 0.3061542 0.0303122
0.2026275 0.3197303 0.0314392
0.2449774 0.3331094 0.0376891
0.2667802 0.3417473 0.0386165
0.2844343 0.3491618 0.0411629
0.3034962 0.3573255 0.0454539
0.3451894 0.3689983 0.0462097
0.3750768 0.3793526 0.0456632
0.4025198 0.3893530 0.0461381
0.4252121 0.3980345 0.0495816
0.4544275 0.4079064 0.0522838
0.4893205 0.4186089 0.0512637
0.5184925 0.4283687 0.0519863
0.5463654 0.4379526 0.0534547
0.5773895 0.4477963 0.0544729
0.6150970 0.4577137 0.0583289
0.6475596 0.4670206 0.0668669
0.6770363 0.4759412 0.0745570
0.7123699 0.4844398 0.0836128
0.7381403 0.4925273 0.0902309
0.7611678 0.5002615 0.0960868
0.7802948 0.5075172 0.0997648
0.7965987 0.5144021 0.1032922
0.8093733 0.5204792 0.1063760
0.8211676 0.5265310 0.1098886
0.8322474 0.5324928 0.1138279
0.8420786 0.5383640 0.1176526
0.0080675 0.2842175 0.0335140
0.0138803 0.2867501 0.0331612
0.0206590 0.2895545 0.0327477
0.0305606 0.2934397 0.0321402
0.0597339 0.3027638 0.0327526
0.1080465 0.3170984 0.0320737
0.1610774 0.3310957 0.0309281
0.2085471 0.3450553 0.0331766
0.2515661 0.3587733 0.0401190
0.2892035 0.3720524 0.0450079
0.3064190 0.3793688 0.0475783
0.3249638 0.3873103 0.0524151
0.3492473 0.3964618 0.0570429
0.3900160 0.4079708 0.0562924
0.4181492 0.4179950 0.0565938
0.4452083 0.4277697 0.0573967
0.4677914 0.4363299 0.0612652
0.4957778 0.4459037 0.0644267
0.5297490 0.4563606 0.0641839
0.5575417 0.4658122 0.0657874
0.5847011 0.4752225 0.0679595
0.6117455 0.4846496 0.0709156
0.6480768 0.4944327 0.0715069
0.6804170 0.5035713 0.0741416
0.7090945 0.5123584 0.0796152
0.7384798 0.5209655 0.0872898
0.7683941 0.5287106 0.0950254
0.7882431 0.5358678 0.1003149
0.8051513 0.5426600 0.1049222
0.8203755 0.5492994 0.1091479
0.8333133 0.5555502 0.1128164
0.8435615 0.5611857 0.1185177
0.8526316 0.5667394 0.1253131
0.0234909 0.3125157 0.0350450
0.0299604 0.3148937 0.0346065
0.0372484 0.3174872 0.0341174
0.0470852 0.3210157 0.0334395
0.0693409 0.3286823 0.0335959
0.1102325 0.3415717 0.0334833
0.1647513 0.3557962 0.0325011
0.2132514 0.3701206 0.0359207
0.2577899 0.3844051 0.0439823
0.3013600 0.3989967 0.0522486
0.3292326 0.4097925 0.0554611
0.3471906 0.4173440 0.0599878
0.3661633 0.4253664 0.0647873
0.3955791 0.4351795 0.0686195
0.4330345 0.4461386 0.0668093
0.4612518 0.4561512 0.0673726
0.4874526 0.4656779 0.0697764
0.5093208 0.4740530 0.0740959
0.5354709 0.4832215 0.0781129
0.5685098 0.4934221 0.0786139
0.5955776 0.5026782 0.0807988
0.6218595 0.5118525 0.0835155
0.6473395 0.5209376 0.0868182
0.6795490 0.5303129 0.0885734
0.7117886 0.5392202 0.0910959
0.7403184 0.5479535 0.0951655
0.7667347 0.5563387 0.0999072
0.7950506 0.5636769 0.1034854
0.8125994 0.5703093 0.1095723
0.8280955 0.5767577 0.1161513
0.8419396 0.5830293 0.1230295
0.8540082 0.5891114 0.1301849
0.8634723 0.5946323 0.1370023
0.0419673 0.3406388 0.0368184
0.0480660 0.3427919 0.0363969
0.0544664 0.3451850 0.0359204
0.0629095 0.3485384 0.0352365
0.0797847 0.3547469 0.0352862
0.1121000 0.3660974 0.0368152
0.1679481 0.3806204 0.0370993
0.2173451 0.3952892 0.0409075
0.2637850 0.4099830 0.0489468
0.3081994 0.4247024 0.0583521
0.3499661 0.4390569 0.0625567
0.3700345 0.4472413 0.0675365
0.3881116 0.4548469 0.0722911
0.4068018 0.4628409 0.0774848
0.4409397 0.4732601 0.0806560
0.4759720 0.4839017 0.0782564
0.5035353 0.4937328 0.0793963
0.5282608 0.5028459 0.0834726
0.5489398 0.5109110 0.0881603
0.5734781 0.5197068 0.0925773
0.6062339 0.5297627 0.0939010
0.6323886 0.5387595 0.0964448
0.6575758 0.5476343 0.0995083
0.6816967 0.5563822 0.1031439
0.7095617 0.5653028 0.1061034
0.7417194 0.5741805 0.1086814
0.7700586 0.5826756 0.1126806
0.7940826 0.5905843 0.1177436
0.8147053 0.5976344 0.1232017
0.8350646 0.6036705 0.1279143
0.8492231 0.6097944 0.1342991
0.8615741 0.6157168 0.1409986
0.8721055 0.6214417 0.1479834
0.0591420 0.3688383 0.0409925
0.0643816 0.3709092 0.0406652
0.0699800 0.3732114 0.0402953
0.0777130 0.3764265 0.0398257
0.0907433 0.3810812 0.0401171
0.1162475 0.3913410 0.0437142
0.1706307 0.4054900 0.0452934
0.2211406 0.4202825 0.0475541
0.2688295 0.4350910 0.0543305
0.3150635 0.4499644 0.0631663
0.3602837 0.4648917 0.0700284
0.3931661 0.4769791 0.0757696
0.4102230 0.4841479 0.0804529
0.4281437 0.4917557 0.0855622
0.4469814 0.4998044 0.0910793
0.4860235 0.5108719 0.0917110
0.5178152 0.5209714 0.0907917
0.5440738 0.5304506 0.0930469
0.5670875 0.5390875 0.0980279
0.5871106 0.5469442 0.1028252
0.6105031 0.5554582 0.1074462
0.6423669 0.5652713 0.1096537
0.6677437 0.5740545 0.1125732
0.6917066 0.5826536 0.1160790
0.7146106 0.5911339 0.1200804
0.7388011 0.5997431 0.1243273
0.7704898 0.6085719 0.1264452
0.7975743 0.6166486 0.1303035
0.8183047 0.6239386 0.1355787
0.8358575 0.6307253 0.1414307
0.8553792 0.6365773 0.1461365
0.8686882 0.6423180 0.1522301
0.8794755 0.6478999 0.1588500
0.0743087 0.3974459 0.0485971
0.0789915 0.3994151 0.0483610
0.0851025 0.4015367 0.0483555
0.0935415 0.4044884 0.0484257
0.1039713 0.4083283 0.0485435
0.1263794 0.4174990 0.0518399
0.1733326 0.4301165 0.0543242
0.2250389 0.4448512 0.0559657
0.2738009 0.4597483 0.0597449
0.3219371 0.4749109 0.0683745
0.3675589 0.4898580 0.0779884
0.4103851 0.5043184 0.0827979
0.4326874 0.5133353 0.0892046
0.4500284 0.5206333 0.0941782
0.4682178 0.5283504 0.0995314
0.4902129 0.5368731 0.1047311
0.5297058 0.5478251 0.1035083
0.5577604 0.5572958 0.1040733
0.5828319 0.5664884 0.1078222
0.6048824 0.5748856 0.1129301
0.6243191 0.5826233 0.1179273
0.6464513 0.5908960 0.1228169
0.6769838 0.6004150 0.1260164
0.7016252 0.6089911 0.1291613
0.7243630 0.6172922 0.1329023
0.7466925 0.6255899 0.1369613
0.7690993 0.6339379 0.1414886
0.7975527 0.6423544 0.1440356
0.8219926 0.6497393 0.1480004
0.8403726 0.6564730 0.1533888
0.8565472 0.6628957 0.1592556
0.8715986 0.6688949 0.1652114
0.8862409 0.6737922 0.1704236
0.0910309 0.4259900 0.0574769
0.0962385 0.4277727 0.0574978
0.1018621 0.4297563 0.0575266
0.1095012 0.4325424 0.0575730
0.1191039 0.4361862 0.0576487
0.1373806 0.4436797 0.0596822
0.1763668 0.4546146 0.0628935
0.2290418 0.4693671 0.0645658
0.2787769 0.4843935 0.0671396
0.3279346 0.4997612 0.0740475
0.3748135 0.5148895 0.0834266
0.4187681 0.5295185 0.0891484
0.4557120 0.5427700 0.0983557
0.4723927 0.5497360 0.1031252
0.4898251 0.5570796 0.1082451
0.5078281 0.5647553 0.1137415
0.5341220 0.5737882 0.1182940
0.5711663 0.5841259 0.1160119
0.5962438 0.5931294 0.1180147
0.6206129 0.6020970 0.1231605
0.6415735 0.6101472 0.1283758
0.6602664 0.6176261 0.1334638
0.6809603 0.6255022 0.1384841
0.7100133 0.6345978 0.1423893
0.7338630 0.6428498 0.1458338
0.7561331 0.6509081 0.1496636
0.7779195 0.6589266 0.1538179
0.7985215 0.6667604 0.1584170
0.8218945 0.6744081 0.1623462
0.8431414 0.6810741 0.1663339
0.8606030 0.6872974 0.1716478
0.8753797 0.6932626 0.1776784
0.8880344 0.6988807 0.1840859
0.1089819 0.4543278 0.0662672
0.1136644 0.4560133 0.0663136
0.1187740 0.4578943 0.0663693
0.1257941 0.4605461 0.0664562
0.1347346 0.4640297 0.0665843
0.1490893 0.4698906 0.0677978
0.1821741 0.4795408 0.0717067
0.2331402 0.4937691 0.0737932
0.2838095 0.5088645 0.0763460
0.3337503 0.5243544 0.0801372
0.3820597 0.5396359 0.0892186
0.4260947 0.5541496 0.0976779
0.4690273 0.5684190 0.1048937
0.4949598 0.5784647 0.1124125
0.5115404 0.5853797 0.1174040
0.5286260 0.5925919 0.1227554
0.5460283 0.6000461 0.1284462
0.5755592 0.6092722 0.1321859
0.6096045 0.6190262 0.1299306
0.6335071 0.6276646 0.1333705
0.6569855 0.6362558 0.1388944
0.6766863 0.6438112 0.1441021
0.6944505 0.6508844 0.1492479
0.7136493 0.6582455 0.1544088
0.7412271 0.6668434 0.1584705
0.7651120 0.6748413 0.1626711
0.7866794 0.6824991 0.1666907
0.8069150 0.6899231 0.1711871
0.8250791 0.6969681 0.1762411
0.8428165 0.7035988 0.1815799
0.8622553 0.7097251 0.1854499
0.8787575 0.7153652 0.1906420
0.8919507 0.7207355 0.1967669
0.1270930 0.4821023 0.0758706
0.1313748 0.4837023 0.0759418
0.1360694 0.4854879 0.0760262
0.1425424 0.4880010 0.0761551
0.1508116 0.4912938 0.0763415
0.1617031 0.4954857 0.0766961
0.1935738 0.5047653 0.0806023
0.2374820 0.5174036 0.0837265
0.2889796 0.5325044 0.0862516
0.3395582 0.5479985 0.0895437
0.3884029 0.5632866 0.0954356
0.4333309 0.5777519 0.1048364
0.4764277 0.5919259 0.1116977
0.5144804 0.6050273 0.1212754
0.5330821 0.6125040 0.1270969
0.5491759 0.6191717 0.1322612
0.5655311 0.6260387 0.1377239
0.5821630 0.6330999 0.1434706
0.6152122 0.6425579 0.1453053
0.6461521 0.6516526 0.1442882
0.6690825 0.6597999 0.1493835
0.6914216 0.6678585 0.1550407
0.7097492 0.6748057 0.1602937
0.7265289 0.6813738 0.1655500
0.7442712 0.6881431 0.1709189
0.7713046 0.6963767 0.1751816
0.7947751 0.7039680 0.1800072
0.8146352 0.7109443 0.1845580
0.8323315 0.7175009 0.1894842
0.8473975 0.7235494 0.1949647
0.8614883 0.7293938 0.2011494
0.8792488 0.7350084 0.2052179
0.8944171 0.7400761 0.2103519
0.1455091 0.5086065 0.0863615
0.1493964 0.5101021 0.0864614
0.1536800 0.5117728 0.0865774
0.1596265 0.5141291 0.0867493
0.1672861 0.5172253 0.0869901
