LumaGrade-Vercel/public/luts/provia-100f.cube
TITLE "Fujichrome Provia 100F Spectral Reversal"
LUT_3D_SIZE 5
0.0051623 0.0064487 0.0079701
0.1343970 0.0096842 0.0106775
0.3716733 0.0254247 0.0123787
0.5987903 0.0974435 0.0384968
0.7346030 0.2246282 0.0866904
0.0017423 0.0812140 0.0181452
0.1338539 0.1308683 0.0227693
0.4124556 0.2013063 0.0294894
0.6467398 0.2658304 0.0555560
0.7810722 0.3422222 0.0987611
0.0080675 0.2842175 0.0335140
0.2515661 0.3587733 0.0401190
0.4677914 0.4363299 0.0612652
0.7090945 0.5123584 0.0796152
0.8526316 0.5667394 0.1253131
0.1455091 0.5086065 0.0863615
0.2944240 0.5545847 0.0968276
0.5846586 0.6500131 0.1474184
0.7565807 0.7086619 0.1827035
0.8942676 0.7572783 0.2253010
0.3154151 0.6652377 0.1850419
0.3818300 0.6842896 0.1904992
0.6799513 0.7723587 0.2379746
0.8164832 0.8169087 0.2964015
0.9189803 0.8488022 0.3366211
0.0036259 0.0091527 0.0829253
0.1031492 0.0179905 0.1171370
0.3924524 0.0436043 0.1549154
0.6302471 0.1268578 0.2097881
0.7483240 0.2573838 0.2499667
0.0068591 0.1113028 0.1303304
0.1465588 0.1586369 0.1623096
0.4403709 0.2277183 0.2001958
0.6731593 0.2912225 0.2294757
0.7890591 0.3641587 0.2621357
0.1674091 0.3650229 0.2088413
0.2564424 0.3932891 0.2195866
0.4786150 0.4635291 0.2492713
0.7066711 0.5309504 0.2695096
0.8536089 0.5844179 0.3090384
0.2251757 0.5650865 0.2516468
0.3692967 0.6051726 0.2696705
0.6063016 0.6718600 0.2968377
0.7553870 0.7256296 0.3314768
0.8993740 0.7719926 0.3664444
0.3961841 0.7108101 0.3225353
0.4965529 0.7396607 0.3410355
0.6989769 0.7941235 0.3698262
0.8285055 0.8305274 0.4030457
0.9156836 0.8587430 0.4403794
0.0122615 0.0075709 0.2384904
0.1337569 0.0251129 0.3025631
0.3758288 0.1017195 0.3896992
0.6536402 0.1924712 0.4484434
0.7670293 0.2867810 0.4842776
0.0414062 0.1454514 0.3248119
0.1979158 0.1975219 0.3811267
0.5013931 0.2626487 0.4399064
0.7034291 0.3288119 0.4901513
0.8108261 0.4004583 0.5155752
0.1560581 0.3995366 0.4369366
0.2480020 0.4260899 0.4544094
0.5017090 0.4942665 0.4961172
0.7380379 0.5581681 0.5306553
0.8688895 0.6086481 0.5616605
0.3580276 0.6334304 0.5090394
0.4186585 0.6498581 0.5178166
0.5832574 0.6961206 0.5418504
0.7664133 0.7508374 0.5726751
0.8982085 0.7903106 0.5975205
0.5920359 0.7867158 0.5697326
0.6470421 0.8007815 0.5802171
0.7188950 0.8203204 0.5909674
0.8123558 0.8478054 0.6160429
0.9195709 0.8757926 0.6362094
0.0378396 0.0487617 0.4124874
0.1822438 0.0875050 0.4825206
0.4226615 0.1721126 0.5664921
0.6422337 0.2730660 0.6406392
0.7953694 0.3834521 0.6914573
0.1229177 0.1895375 0.5098239
0.2274258 0.2257877 0.5597141
0.5405385 0.3025103 0.6277112
0.7321730 0.3736153 0.6707655
0.8308427 0.4439735 0.7028056
0.2361061 0.4320754 0.6167906
0.3184636 0.4603992 0.6399150
0.5478561 0.5241833 0.6855963
0.7761415 0.5838407 0.7234023
0.8746779 0.6292734 0.7427178
0.4209567 0.6628246 0.6993137
0.4696296 0.6776534 0.7077776
0.6241633 0.7204677 0.7321813
0.7944395 0.7693083 0.7595817
0.9070702 0.8039378 0.7790432
0.6274698 0.8086741 0.7493490
0.6557564 0.8158990 0.7530023
0.7388061 0.8366194 0.7651880
0.8371509 0.8627803 0.7800444
0.9164918 0.8857877 0.7965286
0.1208937 0.1493836 0.5529963
0.2259158 0.1867398 0.6067649
0.4799437 0.2457545 0.6763046
0.6812887 0.3353700 0.7354952
0.8075253 0.4427994 0.7816683
0.1926246 0.2518461 0.6219035
0.3037946 0.2818445 0.6621457
0.5132306 0.3455227 0.7167496
0.7507881 0.4318504 0.7698025
0.8408353 0.5051692 0.7989171
0.2358488 0.4620366 0.7104709
0.3386438 0.4936074 0.7356206
0.6486511 0.5635955 0.7864197
0.8090180 0.6170217 0.8155257
0.8985565 0.6566375 0.8339741
0.4819435 0.6890919 0.7981847
0.5386792 0.7042652 0.8074772
0.6685510 0.7406654 0.8283197
0.8279316 0.7855152 0.8527581
0.9194998 0.8161974 0.8656267
0.6483049 0.8195830 0.8399594
0.6725508 0.8259292 0.8434774
0.7367296 0.8432388 0.8532951
0.8627045 0.8733273 0.8697888
0.9316872 0.8926371 0.8805110
