LumaGrade-Vercel/public/luts/provia-100f.cube
TITLE "Fujichrome Provia 100F Spectral Reversal"
LUT_3D_SIZE 9
0.0051623 0.0064487 0.0079701
0.0267149 0.0082993 0.0093213
0.1343970 0.0096842 0.0106775
0.2526492 0.0113271 0.0103203
0.3716733 0.0254247 0.0123787
0.4921138 0.0548468 0.0242863
0.5987903 0.0974435 0.0384968
0.6794274 0.1583063 0.0528543
0.7346030 0.2246282 0.0866904
0.0047076 0.0132559 0.0100106
0.0156602 0.0181689 0.0114637
0.1142758 0.0344315 0.0145043
0.2345894 0.0539920 0.0147713
0.3849756 0.0760178 0.0177622
0.5136268 0.1062744 0.0268667
0.6223549 0.1520497 0.0420768
0.6974223 0.2062774 0.0567883
0.7487173 0.2586612 0.0876389
0.0017423 0.0812140 0.0181452
0.0424836 0.1014859 0.0211773
0.1338539 0.1308683 0.0227693
0.2635798 0.1667965 0.0208863
0.4124556 0.2013063 0.0294894
0.5283995 0.2314745 0.0443959
0.6467398 0.2658304 0.0555560
0.7302647 0.3029721 0.0759751
0.7810722 0.3422222 0.0987611
0.0016187 0.1735596 0.0240531
0.0491204 0.1999128 0.0260917
0.1864443 0.2422234 0.0302021
0.2944218 0.2790293 0.0315181
0.4242855 0.3201491 0.0242630
0.5782771 0.3601271 0.0545979
0.6825163 0.3936282 0.0771823
0.7587441 0.4235011 0.0963788
0.8156959 0.4543799 0.1127780
0.0080675 0.2842175 0.0335140
0.0597339 0.3027638 0.0327526
0.2515661 0.3587733 0.0401190
0.3492473 0.3964618 0.0570429
0.4677914 0.4363299 0.0612652
0.5847011 0.4752225 0.0679595
0.7090945 0.5123584 0.0796152
0.8051513 0.5426600 0.1049222
0.8526316 0.5667394 0.1253131
0.0743087 0.3974459 0.0485971
0.1039713 0.4083283 0.0485435
0.2738009 0.4597483 0.0597449
0.4326874 0.5133353 0.0892046
0.5297058 0.5478251 0.1035083
0.6243191 0.5826233 0.1179273
0.7243630 0.6172922 0.1329023
0.8219926 0.6497393 0.1480004
0.8862409 0.6737922 0.1704236
0.1455091 0.5086065 0.0863615
0.1672861 0.5172253 0.0869901
0.2944240 0.5545847 0.0968276
0.4835865 0.6135949 0.1191520
0.5846586 0.6500131 0.1474184
0.6807612 0.6811683 0.1605110
0.7565807 0.7086619 0.1827035
0.8388821 0.7358826 0.2031556
0.8942676 0.7572783 0.2253010
0.2230121 0.5974242 0.1341804
0.2464803 0.6036235 0.1349410
0.3225818 0.6263655 0.1434918
0.5091136 0.6819182 0.1603857
0.6560931 0.7281927 0.1935991
0.7124419 0.7494468 0.2177884
0.8009239 0.7757192 0.2328996
0.8588182 0.7959839 0.2570778
0.9083344 0.8130845 0.2796710
0.3154151 0.6652377 0.1850419
0.3333528 0.6701929 0.1859647
0.3818300 0.6842896 0.1904992
0.5320652 0.7287560 0.2095754
0.6799513 0.7723587 0.2379746
0.7693781 0.8004780 0.2714548
0.8164832 0.8169087 0.2964015
0.8852962 0.8360977 0.3121085
0.9189803 0.8488022 0.3366211
0.0036338 0.0078804 0.0197109
0.0145774 0.0091676 0.0230198
0.1224803 0.0131828 0.0332580
0.2631847 0.0124902 0.0434802
0.3928294 0.0175028 0.0544008
0.4999471 0.0546326 0.0674559
0.6030523 0.1011987 0.0850580
0.6800311 0.1642193 0.1068935
0.7358110 0.2274311 0.1319625
0.0046279 0.0162426 0.0227796
0.0180490 0.0223655 0.0278599
0.1254095 0.0412126 0.0407387
0.2607287 0.0610819 0.0509826
0.3929297 0.0852225 0.0634546
0.5205235 0.1187864 0.0758354
0.6308357 0.1650216 0.0939462
0.7029893 0.2172633 0.1132947
0.7521585 0.2669283 0.1352319
0.0060865 0.0950291 0.0468981
0.0380764 0.1096100 0.0528284
0.1404288 0.1409525 0.0661145
0.2680109 0.1753696 0.0739830
0.4098309 0.2097651 0.0861169
0.5357824 0.2418682 0.0967718
0.6482592 0.2744052 0.1060246
0.7329847 0.3108159 0.1225983
0.7837955 0.3497825 0.1444510
0.0317779 0.2078362 0.0724934
0.1023470 0.2259412 0.0797671
0.1960604 0.2536998 0.0873879
0.2944545 0.2903180 0.0987136
0.4379591 0.3324085 0.1089568
0.5788296 0.3701652 0.1175405
0.6847724 0.4032598 0.1316738
0.7598386 0.4317261 0.1451575
0.8151650 0.4606178 0.1633610
0.0104843 0.3114215 0.0919950
0.1180690 0.3372356 0.1013695
0.2596280 0.3752203 0.1107108
0.3553395 0.4080620 0.1239337
0.4647364 0.4461713 0.1353252
0.6002066 0.4861563 0.1458396
0.7140600 0.5206216 0.1590206
0.8034866 0.5491905 0.1732634
0.8527045 0.5730458 0.1928207
0.1258101 0.4325571 0.1232677
0.1876388 0.4518207 0.1311533
0.3049088 0.4873930 0.1442908
0.4502776 0.5241318 0.1461288
0.5149014 0.5540926 0.1677628
0.6211625 0.5901068 0.1801233
0.7327182 0.6253006 0.1924998
0.8226863 0.6563090 0.2108223
0.8849444 0.6790920 0.2286412
0.1873384 0.5362248 0.1530005
0.2331452 0.5503621 0.1587935
0.3307439 0.5808699 0.1727227
0.5000789 0.6293188 0.1857442
0.5960974 0.6577326 0.1955002
0.6639061 0.6845421 0.2170426
0.7510024 0.7138207 0.2350240
0.8432364 0.7419069 0.2509995
0.8943487 0.7623539 0.2741862
0.2487817 0.6147645 0.1868411
0.2910401 0.6268329 0.1920842
0.3775151 0.6531523 0.2052748
0.5296280 0.6980907 0.2238471
0.6653903 0.7355218 0.2387161
0.7199118 0.7551996 0.2578270
0.7882795 0.7782250 0.2790539
0.8531649 0.7996601 0.3006082
0.9102404 0.8175140 0.3193644
0.3218530 0.6748808 0.2265946
0.3566878 0.6848070 0.2315506
0.4288810 0.7063572 0.2440132
0.5518155 0.7424782 0.2633582
0.6931449 0.7826517 0.2885922
0.7757530 0.8055766 0.3057057
0.8216125 0.8212466 0.3280821
0.8788440 0.8386558 0.3484375
0.9154060 0.8517083 0.3707690
0.0036259 0.0091527 0.0829253
0.0146786 0.0117463 0.0950242
0.1031492 0.0179905 0.1171370
0.2483543 0.0286273 0.1345891
0.3924524 0.0436043 0.1549154
0.5176638 0.0783633 0.1823851
0.6302471 0.1268578 0.2097881
0.7004969 0.1899805 0.2304913
0.7483240 0.2573838 0.2499667
0.0035751 0.0246747 0.0931379
0.0210688 0.0348959 0.1061755
0.1549452 0.0567505 0.1326122
0.2746707 0.0789019 0.1556301
0.4244229 0.1032829 0.1723362
0.5460769 0.1364886 0.1946347
0.6500893 0.1882884 0.2152988
0.7148200 0.2359579 0.2316044
0.7596105 0.2811681 0.2498185
0.0068591 0.1113028 0.1303304
0.0250364 0.1287872 0.1430718
0.1465588 0.1586369 0.1623096
0.2853452 0.1923201 0.1810135
0.4403709 0.2277183 0.2001958
0.5755361 0.2580680 0.2133120
0.6731593 0.2912225 0.2294757
0.7417303 0.3266394 0.2450556
0.7890591 0.3641587 0.2621357
0.0276618 0.2337079 0.1716187
0.0871020 0.2450453 0.1776408
0.1778451 0.2702093 0.1890846
0.2957791 0.3075288 0.2060037
0.4426245 0.3467429 0.2229359
0.5669467 0.3814603 0.2347348
0.6845595 0.4151604 0.2507238
0.7737640 0.4474146 0.2712201
0.8223329 0.4743956 0.2831579
0.1674091 0.3650229 0.2088413
0.1971443 0.3745048 0.2140846
0.2564424 0.3932891 0.2195866
0.3359073 0.4232987 0.2353425
0.4786150 0.4635291 0.2492713
0.6074235 0.4995778 0.2599631
0.7066711 0.5309504 0.2695096
0.8006516 0.5602649 0.2881190
0.8536089 0.5844179 0.3090384
0.2737003 0.4857023 0.2369881
0.2978528 0.4934791 0.2406276
0.3450072 0.5103828 0.2489646
0.4351082 0.5380969 0.2591064
0.5193159 0.5687119 0.2731657
0.6238974 0.6038156 0.2869608
0.7325362 0.6372871 0.3014401
0.8230847 0.6669303 0.3159579
0.8837081 0.6895769 0.3320917
0.2251757 0.5650865 0.2516468
0.2729199 0.5774689 0.2568301
0.3692967 0.6051726 0.2696705
0.5034074 0.6430851 0.2860621
0.6063016 0.6718600 0.2968377
0.6587442 0.6969764 0.3218927
0.7553870 0.7256296 0.3314768
0.8454870 0.7524548 0.3477883
0.8993740 0.7719926 0.3664444
0.2770391 0.6410435 0.2817244
0.3233055 0.6534259 0.2877123
0.4253159 0.6821451 0.3028169
0.5493491 0.7177438 0.3225919
0.6666738 0.7462700 0.3279225
0.7307988 0.7672046 0.3465990
0.7802887 0.7873994 0.3720625
0.8551247 0.8089321 0.3839893
0.9126163 0.8260488 0.3998324
0.3961841 0.7108101 0.3225353
0.4277904 0.7197431 0.3278965
0.4965529 0.7396607 0.3410355
0.5920497 0.7678233 0.3633598
0.6989769 0.7941235 0.3698262
0.7923516 0.8165988 0.3783709
0.8285055 0.8305274 0.4030457
0.8709462 0.8452250 0.4254539
0.9156836 0.8587430 0.4403794
0.0034959 0.0089979 0.1585348
0.0193471 0.0155555 0.1670152
0.1091352 0.0256469 0.2013516
0.2285976 0.0420522 0.2433982
0.3869122 0.0782326 0.2756330
0.5150596 0.1266568 0.3076048
0.6351906 0.1476884 0.3174669
0.7107941 0.2074815 0.3499426
0.7610738 0.2694038 0.3843070
0.0043016 0.0330144 0.1836247
0.0358593 0.0433950 0.2007355
0.1995883 0.0731012 0.2398860
0.3120543 0.0935246 0.2609350
0.4493741 0.1211122 0.2897905
0.5529785 0.1768460 0.3258391
0.6615676 0.2096810 0.3340516
0.7273471 0.2530101 0.3610753
0.7741942 0.3050017 0.3880911
0.0075673 0.1310741 0.2272314
0.0522387 0.1472006 0.2434448
0.1687569 0.1781547 0.2716523
0.3095653 0.2105363 0.2969696
0.4466787 0.2423745 0.3160367
0.5799870 0.2773784 0.3454891
0.6972137 0.3088459 0.3592691
0.7602222 0.3421393 0.3772167
0.7996829 0.3812104 0.3923088
0.0336536 0.2534549 0.2801410
0.0862238 0.2642024 0.2872353
0.1952627 0.2906381 0.3043856
0.3196843 0.3261722 0.3261589
0.4616557 0.3633208 0.3472374
0.6014493 0.4001931 0.3661368
0.7185255 0.4332626 0.3848666
0.7946218 0.4613105 0.3981094
0.8327698 0.4873836 0.4077601
0.1684877 0.3841527 0.3236691
0.1973169 0.3920236 0.3270441
0.2677816 0.4118538 0.3376410
0.3606227 0.4415353 0.3517455
0.4708067 0.4777278 0.3695687
0.6139582 0.5143039 0.3891210
0.7173063 0.5446219 0.4037779
0.8044361 0.5728733 0.4186943
0.8567906 0.5953315 0.4309225
0.2429986 0.5012980 0.3574593
0.2715760 0.5088326 0.3613369
0.3358397 0.5261650 0.3701455
0.4254407 0.5529385 0.3813370
0.5069057 0.5826839 0.3972411
0.6393447 0.6198171 0.4146799
0.7385899 0.6500891 0.4290730
0.8290260 0.6780748 0.4380174
0.8763480 0.6993057 0.4521606
0.3955577 0.6239073 0.3939241
0.4194324 0.6308790 0.3982341
0.4576723 0.6429908 0.4038607
0.5126095 0.6606700 0.4110571
0.5752212 0.6832045 0.4252890
0.6608018 0.7110314 0.4423828
0.7658823 0.7400194 0.4560069
0.8524355 0.7640134 0.4690714
0.8979328 0.7817708 0.4795734
0.4961773 0.7106308 0.4216891
0.5188602 0.7167816 0.4255361
0.5486999 0.7257746 0.4310330
0.5913106 0.7395548 0.4407502
0.6577966 0.7590066 0.4521012
0.7232895 0.7789495 0.4645406
0.7799307 0.7985345 0.4813838
0.8575094 0.8201435 0.4950800
0.9098628 0.8355114 0.5088035
0.5115213 0.7540531 0.4402244
0.5316029 0.7595122 0.4437837
0.5763789 0.7718082 0.4524422
0.6422921 0.7900915 0.4669378
0.6987433 0.8058850 0.4789956
0.7766020 0.8253331 0.4895536
0.8300202 0.8411593 0.5075161
0.8686531 0.8546295 0.5273174
0.9165745 0.8675718 0.5357469
0.0122615 0.0075709 0.2384904
0.0296153 0.0183688 0.2579093
0.1337569 0.0251129 0.3025631
0.2485121 0.0556889 0.3463305
0.3758288 0.1017195 0.3896992
0.5437785 0.1370094 0.4076357
0.6536402 0.1924712 0.4484434
0.7223766 0.2686579 0.4867527
0.7670293 0.2867810 0.4842776
0.0115010 0.0446871 0.2767356
0.0629520 0.0550719 0.2998146
0.1489281 0.0806926 0.3347638
0.3266530 0.1177513 0.3793972
0.4359626 0.1547226 0.4087660
0.5845992 0.1870970 0.4324443
0.6753436 0.2321375 0.4587945
0.7397345 0.2914045 0.4912966
0.7811481 0.3224729 0.4944381
0.0414062 0.1454514 0.3248119
0.0759801 0.1701182 0.3535659
0.1979158 0.1975219 0.3811267
0.3464940 0.2309266 0.4124448
0.5013931 0.2626487 0.4399064
0.6199715 0.2922429 0.4644899
0.7034291 0.3288119 0.4901513
0.7704661 0.3660734 0.5084823
0.8108261 0.4004583 0.5155752
0.1030591 0.2702236 0.3872470
0.1353025 0.2833988 0.3993769
0.2160806 0.3087303 0.4202138
0.3484638 0.3445225 0.4477428
0.4852599 0.3809176 0.4679738
0.6021159 0.4134797 0.4835215
0.6993071 0.4439990 0.5052790
0.8000678 0.4782627 0.5307934
0.8436996 0.5023669 0.5397046
0.1560581 0.3995366 0.4369366
0.1859606 0.4073776 0.4419427
0.2480020 0.4260899 0.4544094
0.3818436 0.4598920 0.4755901
0.5017090 0.4942665 0.4961172
0.6227563 0.5271550 0.5146841
0.7380379 0.5581681 0.5306553
0.8224078 0.5867733 0.5488135
0.8688895 0.6086481 0.5616605
0.2945246 0.5235268 0.4791178
0.3110872 0.5292100 0.4816141
0.3718176 0.5460574 0.4914176
0.4531202 0.5704503 0.5051852
0.5497818 0.6004035 0.5207676
0.6345655 0.6312610 0.5346032
0.7630562 0.6643717 0.5531145
0.8321883 0.6894667 0.5686037
0.8836838 0.7101277 0.5794086
0.3580276 0.6334304 0.5090394
0.3763173 0.6382771 0.5116218
0.4186585 0.6498581 0.5178166
0.4881905 0.6692511 0.5280101
0.5832574 0.6961206 0.5418504
0.6532908 0.7204625 0.5557700
0.7664133 0.7508374 0.5726751
0.8493484 0.7738370 0.5868569
0.8982085 0.7903106 0.5975205
0.4956908 0.7248065 0.5435801
0.5097641 0.7286492 0.5460387
0.5422282 0.7376720 0.5519966
0.5877839 0.7510707 0.5590025
0.6494411 0.7687936 0.5661990
0.7093408 0.7875127 0.5782176
0.7833636 0.8094355 0.5948206
0.8656259 0.8305511 0.6080658
0.9126861 0.8440465 0.6175171
0.5920359 0.7867158 0.5697326
0.6083867 0.7909038 0.5727883
0.6470421 0.8007815 0.5802171
0.6783651 0.8092464 0.5847911
0.7188950 0.8203204 0.5909674
0.7636908 0.8332490 0.6014934
0.8123558 0.8478054 0.6160429
0.8706816 0.8631387 0.6264970
0.9195709 0.8757926 0.6362094
0.0243688 0.0175066 0.3225360
0.0476828 0.0356761 0.3452168
0.1501771 0.0573986 0.3880607
0.2634628 0.0927042 0.4273011
0.4015803 0.1266212 0.4805464
0.5163974 0.1923905 0.5242508
0.6680858 0.2250574 0.5455382
0.7326440 0.2908230 0.5799797
0.7837651 0.3355100 0.6011391
0.0238915 0.0664129 0.3623727
0.0872698 0.0813018 0.3831488
0.1759043 0.0972486 0.4238577
0.2930188 0.1348004 0.4678751
0.4665584 0.1858115 0.5091711
0.5579114 0.2298133 0.5395405
0.6904578 0.2561511 0.5525204
0.7488478 0.3127698 0.5828618
0.7955049 0.3636959 0.6098121
0.0762704 0.1662222 0.4252286
0.1204386 0.1792978 0.4466392
0.1909409 0.2086603 0.4743156
0.4265940 0.2535668 0.5156786
0.5185874 0.2833595 0.5373659
0.6385854 0.3112180 0.5602929
0.7316067 0.3435610 0.5846692
0.7787624 0.3819655 0.5998097
0.8211036 0.4266014 0.6282699
0.1131098 0.2929028 0.4823954
0.1568762 0.3014428 0.4901962
0.2214029 0.3242921 0.5111080
0.3731716 0.3630188 0.5425965
0.5238878 0.4015105 0.5728873
0.6581940 0.4326367 0.5948868
0.7448291 0.4622860 0.6088966
0.8044393 0.4905078 0.6290927
0.8473325 0.5198978 0.6475946
0.1924164 0.4180626 0.5359192
0.2317976 0.4267514 0.5428830
0.3105823 0.4463159 0.5575364
0.3961312 0.4739928 0.5761495
0.5361181 0.5102885 0.5999361
0.6399570 0.5410962 0.6131283
0.7400748 0.5702570 0.6269311
0.8123523 0.5943580 0.6435277
0.8698192 0.6201380 0.6628405
0.2893223 0.5357220 0.5750552
0.3102246 0.5417964 0.5787034
0.3564871 0.5562255 0.5875385
0.4494830 0.5821998 0.6030850
0.5612745 0.6137470 0.6219694
0.6612207 0.6440209 0.6388887
0.7605493 0.6729022 0.6539309
0.8400473 0.6979575 0.6685253
0.8913954 0.7195177 0.6799195
0.4225135 0.6527629 0.6136543
0.4367938 0.6571193 0.6155925
0.4692114 0.6676475 0.6206301
0.5412070 0.6876624 0.6326172
0.6221534 0.7112537 0.6465624
0.7061933 0.7362074 0.6603607
0.7781121 0.7599782 0.6721666
0.8594232 0.7824310 0.6852596
0.9082233 0.7987317 0.6977952
0.4997340 0.7360125 0.6380377
0.5142227 0.7397672 0.6401143
0.5476313 0.7485409 0.6450081
0.5967044 0.7615317 0.6526989
0.6547099 0.7776484 0.6617135
0.7177436 0.7962630 0.6711085
0.7759166 0.8148089 0.6833199
0.8584422 0.8364617 0.6984990
0.9161400 0.8510805 0.7115375
0.5743483 0.7919660 0.6619508
0.5855273 0.7947294 0.6636674
0.6122030 0.8013462 0.6678439
0.6542900 0.8118379 0.6746998
0.7107656 0.8260279 0.6834682
0.7727757 0.8418360 0.6932914
0.8223724 0.8557090 0.7040965
0.8687183 0.8689662 0.7157429
0.9219671 0.8821227 0.7268019
0.0378396 0.0487617 0.4124874
0.0691468 0.0711748 0.4264390
0.1822438 0.0875050 0.4825206
0.2974967 0.1210436 0.5173766
0.4226615 0.1721126 0.5664921
0.5571885 0.2160125 0.6078721
0.6422337 0.2730660 0.6406392
0.7487571 0.3131915 0.6583920
0.7953694 0.3834521 0.6914573
0.0569697 0.1006046 0.4418144
0.1116228 0.1112043 0.4688176
0.2033544 0.1308762 0.5107858
0.3205839 0.1626898 0.5506176
0.4395166 0.2074242 0.5873030
0.5954708 0.2557185 0.6227105
0.6676444 0.3033297 0.6508238
0.7630145 0.3344742 0.6627594
0.8065730 0.4018069 0.6953138
0.1229177 0.1895375 0.5098239
0.1531566 0.2016591 0.5286674
0.2274258 0.2257877 0.5597141
0.3452454 0.2569569 0.5902968
0.5405385 0.3025103 0.6277112
0.6590579 0.3394123 0.6489670
0.7321730 0.3736153 0.6707655
0.7937131 0.4028594 0.6837442
0.8308427 0.4439735 0.7028056
0.1106176 0.3035167 0.5592865
0.1190440 0.3201355 0.5762811
0.3078703 0.3536221 0.6072515
0.4317149 0.3860611 0.6323019
0.5538867 0.4214960 0.6575289
0.6723862 0.4512815 0.6806497
0.7726067 0.4795061 0.6976508
0.8294509 0.5034894 0.7140199
0.8557775 0.5316008 0.7219583
0.2361061 0.4320754 0.6167906
0.2535143 0.4417484 0.6251650
0.3184636 0.4603992 0.6399150
0.4269570 0.4897733 0.6621170
0.5478561 0.5241833 0.6855963
0.6757171 0.5571913 0.7075215
0.7761415 0.5838407 0.7234023
0.8339282 0.6087865 0.7308517
0.8746779 0.6292734 0.7427178
0.3351727 0.5537794 0.6666163
0.3616414 0.5603155 0.6713302
0.4195620 0.5753841 0.6816912
0.4858195 0.5971425 0.6949624
0.5826026 0.6265182 0.7122673
0.6918716 0.6575614 0.7287558
0.7767385 0.6851006 0.7405255
0.8449694 0.7090377 0.7502014
0.8886893 0.7265990 0.7598228
0.4209567 0.6628246 0.6993137
0.4355286 0.6671839 0.7017997
0.4696296 0.6776534 0.7077776
0.5212493 0.6942948 0.7175629
0.6241633 0.7204677 0.7321813
0.7134295 0.7458254 0.7469833
0.7944395 0.7693083 0.7595817
0.8609772 0.7886222 0.7692615
0.9070702 0.8039378 0.7790432
0.5342842 0.7484291 0.7286889
0.5447520 0.7513743 0.7300854
0.5700835 0.7585625 0.7334598
0.6201780 0.7720765 0.7408984
0.6874408 0.7901161 0.7517332
0.7576562 0.8091501 0.7627653
0.8257018 0.8281527 0.7732437
0.8758371 0.8433244 0.7819128
0.9169302 0.8558735 0.7889357
0.6274698 0.8086741 0.7493490
0.6325917 0.8101832 0.7497153
0.6557564 0.8158990 0.7530023
0.6924318 0.8250030 0.7582952
0.7388061 0.8366194 0.7651880
0.7889529 0.8496152 0.7725760
0.8371509 0.8627803 0.7800444
0.8767543 0.8743793 0.7876728
0.9164918 0.8857877 0.7965286
0.0687058 0.1023770 0.4815954
0.1005836 0.1197224 0.4912847
0.2073139 0.1350209 0.5540364
0.3313048 0.1640924 0.5920855
0.4498116 0.1988062 0.6273155
0.5611130 0.2481712 0.6641316
0.6846215 0.3009182 0.6959590
0.7393140 0.3582550 0.7224028
0.8085678 0.4018369 0.7382678
0.1040676 0.1370836 0.5199035
0.1437789 0.1495808 0.5365608
0.2276384 0.1780076 0.5769902
0.3513838 0.1981526 0.6117633
0.4623020 0.2380356 0.6436890
0.5709812 0.2782490 0.6754258
0.7094688 0.3331068 0.7070041
0.7536944 0.3831132 0.7302604
0.8181685 0.4201101 0.7425424
0.1634364 0.2182823 0.5756035
0.1913009 0.2286301 0.5914649
0.2652493 0.2504013 0.6175286
0.3745185 0.2805645 0.6474319
0.4892094 0.3148849 0.6762582
0.6563128 0.3635757 0.7101748
0.7533262 0.4033892 0.7285835
0.7944340 0.4410900 0.7468696
0.8389869 0.4628220 0.7525569
0.1471367 0.3314731 0.6321029
0.1918129 0.3419794 0.6435477
0.2796147 0.3638300 0.6613926
0.4217221 0.3987977 0.6892643
0.6352440 0.4445783 0.7227843
0.7215332 0.4759119 0.7427744
0.7688408 0.4992967 0.7551143
0.8354327 0.5218836 0.7661747
0.8683136 0.5465077 0.7781099
0.2517044 0.4516796 0.6779090
0.2906879 0.4611478 0.6849238
0.3792451 0.4839169 0.7031038
0.4283126 0.5028247 0.7159101
0.5767566 0.5399110 0.7417615
0.6958641 0.5728241 0.7634762
0.7995110 0.6019183 0.7810938
0.8604428 0.6221684 0.7914739
0.8902527 0.6419510 0.7993315
0.3499458 0.5671681 0.7225513
0.3723766 0.5730897 0.7266699
0.4263700 0.5877084 0.7365965
0.5103251 0.6113045 0.7520341
0.6031521 0.6390289 0.7686944
0.7045419 0.6687556 0.7856073
0.7993863 0.6963257 0.8010063
0.8620357 0.7181169 0.8101006
0.8995937 0.7381424 0.8151945
0.4708198 0.6787646 0.7621914
0.4892880 0.6835216 0.7652409
0.5262786 0.6939112 0.7715718
0.5758308 0.7094261 0.7803168
0.6362320 0.7293872 0.7911482
0.7339312 0.7555113 0.8051646
0.8175328 0.7783369 0.8161286
0.8707361 0.7962385 0.8240756
0.9104948 0.8106981 0.8296442
0.5428258 0.7560751 0.7842169
0.5526872 0.7589066 0.7857894
0.5764570 0.7658073 0.7895898
0.6145298 0.7771055 0.7959939
0.6771517 0.7941657 0.8055096
0.7618494 0.8152751 0.8170564
0.8337176 0.8343654 0.8278711
0.8816039 0.8484051 0.8352691
0.9199294 0.8595436 0.8407084
0.6387083 0.8144581 0.8054444
0.6463160 0.8164226 0.8064221
0.6647161 0.8212003 0.8087829
0.6945059 0.8290082 0.8125873
0.7491319 0.8422844 0.8204303
0.8081492 0.8568703 0.8291861
0.8588015 0.8696275 0.8364672
0.8982620 0.8805383 0.8427201
0.9303441 0.8896334 0.8484694
0.1208937 0.1493836 0.5529963
0.1546804 0.1586752 0.5667563
0.2259158 0.1867398 0.6067649
0.3599664 0.2158615 0.6459800
0.4799437 0.2457545 0.6763046
0.5844357 0.2859627 0.7067883
0.6812887 0.3353700 0.7354952
0.7742619 0.3895952 0.7607153
0.8075253 0.4427994 0.7816683
0.1551990 0.1777179 0.5727583
0.1767565 0.1902565 0.5858200
0.2499451 0.2185367 0.6252585
0.3759453 0.2424514 0.6590724
0.4910446 0.2679856 0.6869861
0.5951285 0.3175666 0.7186632
0.6872660 0.3580823 0.7430303
0.7892050 0.4154348 0.7686866
0.8156765 0.4614942 0.7870871
0.1926246 0.2518461 0.6219035
0.2134577 0.2656388 0.6400892
0.3037946 0.2818445 0.6621457
0.4079138 0.3077190 0.6885567
0.5132306 0.3455227 0.7167496
0.6159497 0.3821914 0.7415833
0.7507881 0.4318504 0.7698025
0.8146881 0.4702477 0.7844075
0.8408353 0.5051692 0.7989171
0.2021982 0.3593376 0.6774549
0.2437476 0.3679599 0.6863763
0.3280210 0.3870121 0.7049850
0.4332165 0.4141046 0.7279468
0.5480689 0.4475340 0.7508986
0.7176760 0.4899287 0.7781559
0.8145379 0.5238347 0.7963514
0.8323192 0.5482319 0.8054965
0.8739051 0.5675317 0.8131654
0.2358488 0.4620366 0.7104709
0.2657113 0.4714842 0.7180508
0.3386438 0.4936074 0.7356206
0.5409477 0.5347687 0.7683693
0.6486511 0.5635955 0.7864197
0.7420979 0.5932267 0.8044835
0.8090180 0.6170217 0.8155257
0.8659369 0.6376979 0.8269416
0.8985565 0.6566375 0.8339741
0.3918377 0.5865753 0.7637829
0.4103092 0.5916247 0.7672291
0.4528648 0.6036386 0.7752332
0.5181865 0.6232106 0.7875406
0.6226686 0.6524318 0.8051310
0.7190257 0.6824703 0.8220040
0.8188071 0.7113354 0.8377529
0.8823439 0.7319362 0.8476438
0.9159710 0.7470222 0.8541723
0.4819435 0.6890919 0.7981847
0.4993216 0.6936631 0.8010181
0.5386792 0.7042652 0.8074772
0.5978794 0.7207192 0.8172324
0.6685510 0.7406654 0.8283197
0.7392711 0.7621923 0.8396462
0.8279316 0.7855152 0.8527581
0.8872352 0.8028949 0.8612863
0.9194998 0.8161974 0.8656267
0.5877653 0.7689709 0.8254631
0.5986615 0.7718843 0.8271653
0.6241024 0.7788234 0.8311459
0.6619540 0.7896779 0.8370919
0.7098854 0.8038585 0.8446761
0.7699184 0.8211281 0.8534514
0.8479987 0.8405415 0.8634902
0.8942379 0.8533934 0.8691175
0.9257365 0.8640273 0.8743836
0.6483049 0.8195830 0.8399594
0.6553799 0.8214276 0.8409851
0.6725508 0.8259292 0.8434774
0.7003226 0.8333440 0.8476418
0.7367296 0.8432388 0.8532951
0.8067618 0.8596208 0.8621712
0.8627045 0.8733273 0.8697888
0.9042712 0.8843224 0.8761571
0.9316872 0.8926371 0.8805110
