LumaGrade-Vercel/public/luts/tri-x-400.cube
TITLE "Kodak Tri-X 400 Spectral Print Display Normalized"
LUT_3D_SIZE 9
0.0180000 0.0180000 0.0180000
0.0181543 0.0181543 0.0181543
0.0227599 0.0227599 0.0227599
0.0418040 0.0418040 0.0418040
0.1018143 0.1018143 0.1018143
0.1814326 0.1814326 0.1814326
0.2660443 0.2660443 0.2660443
0.3363783 0.3363783 0.3363783
0.3991026 0.3991026 0.3991026
0.0197664 0.0197664 0.0197664
0.0217770 0.0217770 0.0217770
0.0300788 0.0300788 0.0300788
0.0585031 0.0585031 0.0585031
0.1209127 0.1209127 0.1209127
0.1973896 0.1973896 0.1973896
0.2782408 0.2782408 0.2782408
0.3438715 0.3438715 0.3438715
0.4061128 0.4061128 0.4061128
0.0386896 0.0386896 0.0386896
0.0455163 0.0455163 0.0455163
0.0656592 0.0656592 0.0656592
0.1082686 0.1082686 0.1082686
0.1675044 0.1675044 0.1675044
0.2382022 0.2382022 0.2382022
0.3064844 0.3064844 0.3064844
0.3628940 0.3628940 0.3628940
0.4244219 0.4244219 0.4244219
0.1224345 0.1224345 0.1224345
0.1317083 0.1317083 0.1317083
0.1542415 0.1542415 0.1542415
0.1894328 0.1894328 0.1894328
0.2378290 0.2378290 0.2378290
0.2947452 0.2947452 0.2947452
0.3447825 0.3447825 0.3447825
0.3979466 0.3979466 0.3979466
0.4573852 0.4573852 0.4573852
0.2358342 0.2358342 0.2358342
0.2425405 0.2425405 0.2425405
0.2615440 0.2615440 0.2615440
0.2871046 0.2871046 0.2871046
0.3178424 0.3178424 0.3178424
0.3522317 0.3522317 0.3522317
0.3939575 0.3939575 0.3939575
0.4450491 0.4450491 0.4450491
0.4996262 0.4996262 0.4996262
0.3372125 0.3372125 0.3372125
0.3407125 0.3407125 0.3407125
0.3508945 0.3508945 0.3508945
0.3677924 0.3677924 0.3677924
0.3900340 0.3900340 0.3900340
0.4207060 0.4207060 0.4207060
0.4591278 0.4591278 0.4591278
0.5032684 0.5032684 0.5032684
0.5509796 0.5509796 0.5509796
0.4255528 0.4255528 0.4255528
0.4287248 0.4287248 0.4287248
0.4376245 0.4376245 0.4376245
0.4543834 0.4543834 0.4543834
0.4754001 0.4754001 0.4754001
0.5012743 0.5012743 0.5012743
0.5320581 0.5320581 0.5320581
0.5681092 0.5681092 0.5681092
0.6088414 0.6088414 0.6088414
0.5206572 0.5206572 0.5206572
0.5231532 0.5231532 0.5231532
0.5296937 0.5296937 0.5296937
0.5429647 0.5429647 0.5429647
0.5615823 0.5615823 0.5615823
0.5823492 0.5823492 0.5823492
0.6084746 0.6084746 0.6084746
0.6392135 0.6392135 0.6392135
0.6749995 0.6749995 0.6749995
0.6120156 0.6120156 0.6120156
0.6140795 0.6140795 0.6140795
0.6193793 0.6193793 0.6193793
0.6301646 0.6301646 0.6301646
0.6464921 0.6464921 0.6464921
0.6660699 0.6660699 0.6660699
0.6883913 0.6883913 0.6883913
0.7154423 0.7154423 0.7154423
0.7457893 0.7457893 0.7457893
0.0264477 0.0264477 0.0264477
0.0308268 0.0308268 0.0308268
0.0414863 0.0414863 0.0414863
0.0851943 0.0851943 0.0851943
0.1410579 0.1410579 0.1410579
0.2082262 0.2082262 0.2082262
0.2837033 0.2837033 0.2837033
0.3469759 0.3469759 0.3469759
0.4089912 0.4089912 0.4089912
0.0277306 0.0277306 0.0277306
0.0318205 0.0318205 0.0318205
0.0471753 0.0471753 0.0471753
0.0894511 0.0894511 0.0894511
0.1521616 0.1521616 0.1521616
0.2224859 0.2224859 0.2224859
0.2953348 0.2953348 0.2953348
0.3547050 0.3547050 0.3547050
0.4163339 0.4163339 0.4163339
0.0626488 0.0626488 0.0626488
0.0709994 0.0709994 0.0709994
0.0950944 0.0950944 0.0950944
0.1334369 0.1334369 0.1334369
0.1937274 0.1937274 0.1937274
0.2616331 0.2616331 0.2616331
0.3218711 0.3218711 0.3218711
0.3742395 0.3742395 0.3742395
0.4349316 0.4349316 0.4349316
0.1499645 0.1499645 0.1499645
0.1587505 0.1587505 0.1587505
0.1794798 0.1794798 0.1794798
0.2109479 0.2109479 0.2109479
0.2575981 0.2575981 0.2575981
0.3088772 0.3088772 0.3088772
0.3568050 0.3568050 0.3568050
0.4096178 0.4096178 0.4096178
0.4685417 0.4685417 0.4685417
0.2516393 0.2516393 0.2516393
0.2593873 0.2593873 0.2593873
0.2787473 0.2787473 0.2787473
0.3028234 0.3028234 0.3028234
0.3294263 0.3294263 0.3294263
0.3626925 0.3626925 0.3626925
0.4042320 0.4042320 0.4042320
0.4545397 0.4545397 0.4545397
0.5086779 0.5086779 0.5086779
0.3461555 0.3461555 0.3461555
0.3499208 0.3499208 0.3499208
0.3595923 0.3595923 0.3595923
0.3789311 0.3789311 0.3789311
0.4004772 0.4004772 0.4004772
0.4305797 0.4305797 0.4305797
0.4683709 0.4683709 0.4683709
0.5112772 0.5112772 0.5112772
0.5582296 0.5582296 0.5582296
0.4337188 0.4337188 0.4337188
0.4371011 0.4371011 0.4371011
0.4456343 0.4456343 0.4456343
0.4626719 0.4626719 0.4626719
0.4849187 0.4849187 0.4849187
0.5093350 0.5093350 0.5093350
0.5395307 0.5395307 0.5395307
0.5751259 0.5751259 0.5751259
0.6152564 0.6152564 0.6152564
0.5269442 0.5269442 0.5269442
0.5296014 0.5296014 0.5296014
0.5362905 0.5362905 0.5362905
0.5490793 0.5490793 0.5490793
0.5690611 0.5690611 0.5690611
0.5895170 0.5895170 0.5895170
0.6148416 0.6148416 0.6148416
0.6452755 0.6452755 0.6452755
0.6808292 0.6808292 0.6808292
0.6170922 0.6170922 0.6170922
0.6193022 0.6193022 0.6193022
0.6248916 0.6248916 0.6248916
0.6353482 0.6353482 0.6353482
0.6516849 0.6516849 0.6516849
0.6723728 0.6723728 0.6723728
0.6942452 0.6942452 0.6942452
0.7207003 0.7207003 0.7207003
0.7506576 0.7506576 0.7506576
0.1181856 0.1181856 0.1181856
0.1286084 0.1286084 0.1286084
0.1534894 0.1534894 0.1534894
0.1638849 0.1638849 0.1638849
0.2109026 0.2109026 0.2109026
0.2888638 0.2888638 0.2888638
0.3470117 0.3470117 0.3470117
0.3914690 0.3914690 0.3914690
0.4474834 0.4474834 0.4474834
0.0877331 0.0877331 0.0877331
0.0904770 0.0904770 0.0904770
0.1227708 0.1227708 0.1227708
0.1773759 0.1773759 0.1773759
0.2212232 0.2212232 0.2212232
0.2944464 0.2944464 0.2944464
0.3446608 0.3446608 0.3446608
0.3907789 0.3907789 0.3907789
0.4462365 0.4462365 0.4462365
0.1293565 0.1293565 0.1293565
0.1386981 0.1386981 0.1386981
0.1607712 0.1607712 0.1607712
0.1988967 0.1988967 0.1988967
0.2507675 0.2507675 0.2507675
0.3046853 0.3046853 0.3046853
0.3547080 0.3547080 0.3547080
0.4069535 0.4069535 0.4069535
0.4648665 0.4648665 0.4648665
0.2066395 0.2066395 0.2066395
0.2159788 0.2159788 0.2159788
0.2321535 0.2321535 0.2321535
0.2607450 0.2607450 0.2607450
0.3018853 0.3018853 0.3018853
0.3402512 0.3402512 0.3402512
0.3847101 0.3847101 0.3847101
0.4398215 0.4398215 0.4398215
0.4952108 0.4952108 0.4952108
0.3030263 0.3030263 0.3030263
0.3083073 0.3083073 0.3083073
0.3171858 0.3171858 0.3171858
0.3338162 0.3338162 0.3338162
0.3580569 0.3580569 0.3580569
0.3886633 0.3886633 0.3886633
0.4277122 0.4277122 0.4277122
0.4788958 0.4788958 0.4788958
0.5325872 0.5325872 0.5325872
0.3795776 0.3795776 0.3795776
0.3829347 0.3829347 0.3829347
0.3905221 0.3905221 0.3905221
0.4053186 0.4053186 0.4053186
0.4263733 0.4263733 0.4263733
0.4547041 0.4547041 0.4547041
0.4902540 0.4902540 0.4902540
0.5304514 0.5304514 0.5304514
0.5758735 0.5758735 0.5758735
0.4566858 0.4566858 0.4566858
0.4601450 0.4601450 0.4601450
0.4690205 0.4690205 0.4690205
0.4860338 0.4860338 0.4860338
0.5070805 0.5070805 0.5070805
0.5300115 0.5300115 0.5300115
0.5575502 0.5575502 0.5575502
0.5921657 0.5921657 0.5921657
0.6315793 0.6315793 0.6315793
0.5419200 0.5419200 0.5419200
0.5445695 0.5445695 0.5445695
0.5527201 0.5527201 0.5527201
0.5667974 0.5667974 0.5667974
0.5865348 0.5865348 0.5865348
0.6078126 0.6078126 0.6078126
0.6316072 0.6316072 0.6316072
0.6602010 0.6602010 0.6602010
0.6951740 0.6951740 0.6951740
0.6302356 0.6302356 0.6302356
0.6324718 0.6324718 0.6324718
0.6381312 0.6381312 0.6381312
0.6489034 0.6489034 0.6489034
0.6662041 0.6662041 0.6662041
0.6887433 0.6887433 0.6887433
0.7094242 0.7094242 0.7094242
0.7343246 0.7343246 0.7343246
0.7627988 0.7627988 0.7627988
0.2763569 0.2763569 0.2763569
0.2839861 0.2839861 0.2839861
0.2986750 0.2986750 0.2986750
0.3212320 0.3212320 0.3212320
0.3327861 0.3327861 0.3327861
0.3679378 0.3679378 0.3679378
0.3804342 0.3804342 0.3804342
0.4470761 0.4470761 0.4470761
0.5239179 0.5239179 0.5239179
0.2861163 0.2861163 0.2861163
0.2810424 0.2810424 0.2810424
0.2446742 0.2446742 0.2446742
0.2703476 0.2703476 0.2703476
0.3132343 0.3132343 0.3132343
0.3714078 0.3714078 0.3714078
0.3887669 0.3887669 0.3887669
0.4571315 0.4571315 0.4571315
0.5222778 0.5222778 0.5222778
0.2282132 0.2282132 0.2282132
0.2418959 0.2418959 0.2418959
0.2646178 0.2646178 0.2646178
0.2910258 0.2910258 0.2910258
0.3230033 0.3230033 0.3230033
0.3745136 0.3745136 0.3745136
0.4090795 0.4090795 0.4090795
0.4645843 0.4645843 0.4645843
0.5180782 0.5180782 0.5180782
0.2920267 0.2920267 0.2920267
0.2966945 0.2966945 0.2966945
0.3100619 0.3100619 0.3100619
0.3290689 0.3290689 0.3290689
0.3567954 0.3567954 0.3567954
0.3892043 0.3892043 0.3892043
0.4336640 0.4336640 0.4336640
0.4823074 0.4823074 0.4823074
0.5321534 0.5321534 0.5321534
0.3552029 0.3552029 0.3552029
0.3577083 0.3577083 0.3577083
0.3677395 0.3677395 0.3677395
0.3797779 0.3797779 0.3797779
0.4003703 0.4003703 0.4003703
0.4356509 0.4356509 0.4356509
0.4758730 0.4758730 0.4758730
0.5187252 0.5187252 0.5187252
0.5654223 0.5654223 0.5654223
0.4206280 0.4206280 0.4206280
0.4255736 0.4255736 0.4255736
0.4372416 0.4372416 0.4372416
0.4490109 0.4490109 0.4490109
0.4682967 0.4682967 0.4682967
0.4958674 0.4958674 0.4958674
0.5291610 0.5291610 0.5291610
0.5632456 0.5632456 0.5632456
0.6060784 0.6060784 0.6060784
0.5052291 0.5052291 0.5052291
0.5088393 0.5088393 0.5088393
0.5151759 0.5151759 0.5151759
0.5260853 0.5260853 0.5260853
0.5418912 0.5418912 0.5418912
0.5634165 0.5634165 0.5634165
0.5911232 0.5911232 0.5911232
0.6237463 0.6237463 0.6237463
0.6579623 0.6579623 0.6579623
0.5868139 0.5868139 0.5868139
0.5901534 0.5901534 0.5901534
0.5959534 0.5959534 0.5959534
0.6051102 0.6051102 0.6051102
0.6189421 0.6189421 0.6189421
0.6360153 0.6360153 0.6360153
0.6590880 0.6590880 0.6590880
0.6871633 0.6871633 0.6871633
0.7198930 0.7198930 0.7198930
0.6638242 0.6638242 0.6638242
0.6660291 0.6660291 0.6660291
0.6716030 0.6716030 0.6716030
0.6814043 0.6814043 0.6814043
0.6935916 0.6935916 0.6935916
0.7121571 0.7121571 0.7121571
0.7336332 0.7336332 0.7336332
0.7571221 0.7571221 0.7571221
0.7831396 0.7831396 0.7831396
0.4015546 0.4015546 0.4015546
0.4069080 0.4069080 0.4069080
0.4161604 0.4161604 0.4161604
0.4334782 0.4334782 0.4334782
0.4583701 0.4583701 0.4583701
0.4174547 0.4174547 0.4174547
0.4734818 0.4734818 0.4734818
0.5459136 0.5459136 0.5459136
0.5484464 0.5484464 0.5484464
0.4075426 0.4075426 0.4075426
0.4114116 0.4114116 0.4114116
0.4213242 0.4213242 0.4213242
0.3972112 0.3972112 0.3972112
0.4277906 0.4277906 0.4277906
0.4239752 0.4239752 0.4239752
0.4672986 0.4672986 0.4672986
0.5366216 0.5366216 0.5366216
0.5551151 0.5551151 0.5551151
0.3696956 0.3696956 0.3696956
0.3425672 0.3425672 0.3425672
0.3533797 0.3533797 0.3533797
0.3726097 0.3726097 0.3726097
0.4009492 0.4009492 0.4009492
0.4441389 0.4441389 0.4441389
0.5005512 0.5005512 0.5005512
0.5375775 0.5375775 0.5375775
0.5717086 0.5717086 0.5717086
0.3701197 0.3701197 0.3701197
0.3758134 0.3758134 0.3758134
0.3875611 0.3875611 0.3875611
0.4062402 0.4062402 0.4062402
0.4229208 0.4229208 0.4229208
0.4504795 0.4504795 0.4504795
0.5039756 0.5039756 0.5039756
0.5552393 0.5552393 0.5552393
0.5911134 0.5911134 0.5911134
0.4196387 0.4196387 0.4196387
0.4222374 0.4222374 0.4222374
0.4324876 0.4324876 0.4324876
0.4481542 0.4481542 0.4481542
0.4696458 0.4696458 0.4696458
0.4993283 0.4993283 0.4993283
0.5326846 0.5326846 0.5326846
0.5732020 0.5732020 0.5732020
0.6159672 0.6159672 0.6159672
0.4906726 0.4906726 0.4906726
0.4906308 0.4906308 0.4906308
0.4982719 0.4982719 0.4982719
0.5126113 0.5126113 0.5126113
0.5280853 0.5280853 0.5280853
0.5454906 0.5454906 0.5454906
0.5771322 0.5771322 0.5771322
0.6145513 0.6145513 0.6145513
0.6535689 0.6535689 0.6535689
0.5503814 0.5503814 0.5503814
0.5534208 0.5534208 0.5534208
0.5610720 0.5610720 0.5610720
0.5728050 0.5728050 0.5728050
0.5868122 0.5868122 0.5868122
0.6051266 0.6051266 0.6051266
0.6316762 0.6316762 0.6316762
0.6649304 0.6649304 0.6649304
0.7017827 0.7017827 0.7017827
0.6303628 0.6303628 0.6303628
0.6334101 0.6334101 0.6334101
0.6410319 0.6410319 0.6410319
0.6494730 0.6494730 0.6494730
0.6591871 0.6591871 0.6591871
0.6755118 0.6755118 0.6755118
0.6983856 0.6983856 0.6983856
0.7264736 0.7264736 0.7264736
0.7573194 0.7573194 0.7573194
0.7071135 0.7071135 0.7071135
0.7098002 0.7098002 0.7098002
0.7166767 0.7166767 0.7166767
0.7241223 0.7241223 0.7241223
0.7350352 0.7350352 0.7350352
0.7494585 0.7494585 0.7494585
0.7670707 0.7670707 0.7670707
0.7889802 0.7889802 0.7889802
0.8148396 0.8148396 0.8148396
0.5335114 0.5335114 0.5335114
0.5380216 0.5380216 0.5380216
0.5450745 0.5450745 0.5450745
0.5573634 0.5573634 0.5573634
0.5711423 0.5711423 0.5711423
0.5999485 0.5999485 0.5999485
0.5592455 0.5592455 0.5592455
0.6234782 0.6234782 0.6234782
0.6560170 0.6560170 0.6560170
0.5384861 0.5384861 0.5384861
0.5415366 0.5415366 0.5415366
0.5480402 0.5480402 0.5480402
0.5612943 0.5612943 0.5612943
0.5368142 0.5368142 0.5368142
0.5803352 0.5803352 0.5803352
0.5387188 0.5387188 0.5387188
0.6041651 0.6041651 0.6041651
0.6593517 0.6593517 0.6593517
0.5490854 0.5490854 0.5490854
0.5518578 0.5518578 0.5518578
0.5132867 0.5132867 0.5132867
0.4681710 0.4681710 0.4681710
0.4899199 0.4899199 0.4899199
0.5258519 0.5258519 0.5258519
0.5691586 0.5691586 0.5691586
0.5967852 0.5967852 0.5967852
0.6677553 0.6677553 0.6677553
0.4482137 0.4482137 0.4482137
0.4562074 0.4562074 0.4562074
0.4746982 0.4746982 0.4746982
0.4902700 0.4902700 0.4902700
0.5196230 0.5196230 0.5196230
0.5477328 0.5477328 0.5477328
0.5731681 0.5731681 0.5731681
0.6283426 0.6283426 0.6283426
0.6779373 0.6779373 0.6779373
0.5051642 0.5051642 0.5051642
0.5104439 0.5104439 0.5104439
0.5207975 0.5207975 0.5207975
0.5324832 0.5324832 0.5324832
0.5505149 0.5505149 0.5505149
0.5630627 0.5630627 0.5630627
0.5889908 0.5889908 0.5889908
0.6353639 0.6353639 0.6353639
0.6876549 0.6876549 0.6876549
0.5550478 0.5550478 0.5550478
0.5569245 0.5569245 0.5569245
0.5634261 0.5634261 0.5634261
0.5757842 0.5757842 0.5757842
0.5923926 0.5923926 0.5923926
0.6129770 0.6129770 0.6129770
0.6390365 0.6390365 0.6390365
0.6734508 0.6734508 0.6734508
0.7083250 0.7083250 0.7083250
0.6243366 0.6243366 0.6243366
0.6249612 0.6249612 0.6249612
0.6263749 0.6263749 0.6263749
0.6383213 0.6383213 0.6383213
0.6544393 0.6544393 0.6544393
0.6711906 0.6711906 0.6711906
0.6893039 0.6893039 0.6893039
0.7167805 0.7167805 0.7167805
0.7504289 0.7504289 0.7504289
0.6805438 0.6805438 0.6805438
0.6828202 0.6828202 0.6828202
0.6885698 0.6885698 0.6885698
0.6992547 0.6992547 0.6992547
0.7114670 0.7114670 0.7114670
0.7227600 0.7227600 0.7227600
0.7411218 0.7411218 0.7411218
0.7666512 0.7666512 0.7666512
0.7979492 0.7979492 0.7979492
0.7492734 0.7492734 0.7492734
0.7517181 0.7517181 0.7517181
0.7578717 0.7578717 0.7578717
0.7685894 0.7685894 0.7685894
0.7793835 0.7793835 0.7793835
0.7912523 0.7912523 0.7912523
0.8065577 0.8065577 0.8065577
0.8257984 0.8257984 0.8257984
0.8508088 0.8508088 0.8508088
0.6607347 0.6607347 0.6607347
0.6648535 0.6648535 0.6648535
0.6710263 0.6710263 0.6710263
0.6803924 0.6803924 0.6803924
0.6957529 0.6957529 0.6957529
0.6957243 0.6957243 0.6957243
0.7388648 0.7388648 0.7388648
0.7001241 0.7001241 0.7001241
0.7795824 0.7795824 0.7795824
0.6646076 0.6646076 0.6646076
0.6677255 0.6677255 0.6677255
0.6730635 0.6730635 0.6730635
0.6828211 0.6828211 0.6828211
0.6977385 0.6977385 0.6977385
0.6662066 0.6662066 0.6662066
0.7255743 0.7255743 0.7255743
0.6768760 0.6768760 0.6768760
0.7666523 0.7666523 0.7666523
0.6730895 0.6730895 0.6730895
0.6753249 0.6753249 0.6753249
0.6809509 0.6809509 0.6809509
0.6771412 0.6771412 0.6771412
0.6370609 0.6370609 0.6370609
0.6102262 0.6102262 0.6102262
0.6747696 0.6747696 0.6747696
0.6773406 0.6773406 0.6773406
0.7314913 0.7314913 0.7314913
0.6179826 0.6179826 0.6179826
0.5991478 0.5991478 0.5991478
0.5694803 0.5694803 0.5694803
0.5752990 0.5752990 0.5752990
0.5945643 0.5945643 0.5945643
0.6323717 0.6323717 0.6323717
0.6581128 0.6581128 0.6581128
0.7086054 0.7086054 0.7086054
0.7277510 0.7277510 0.7277510
0.5827352 0.5827352 0.5827352
0.5870212 0.5870212 0.5870212
0.5982387 0.5982387 0.5982387
0.6157694 0.6157694 0.6157694
0.6356828 0.6356828 0.6356828
0.6595309 0.6595309 0.6595309
0.6851574 0.6851574 0.6851574
0.7020706 0.7020706 0.7020706
0.7496930 0.7496930 0.7496930
0.6386753 0.6386753 0.6386753
0.6427231 0.6427231 0.6427231
0.6512597 0.6512597 0.6512597
0.6599479 0.6599479 0.6599479
0.6730520 0.6730520 0.6730520
0.6891618 0.6891618 0.6891618
0.7045755 0.7045755 0.7045755
0.7278004 0.7278004 0.7278004
0.7657838 0.7657838 0.7657838
0.6862360 0.6862360 0.6862360
0.6877181 0.6877181 0.6877181
0.6919488 0.6919488 0.6919488
0.7026384 0.7026384 0.7026384
0.7160469 0.7160469 0.7160469
0.7336890 0.7336890 0.7336890
0.7537815 0.7537815 0.7537815
0.7771410 0.7771410 0.7771410
0.8095189 0.8095189 0.8095189
0.7543603 0.7543603 0.7543603
0.7549624 0.7549624 0.7549624
0.7565288 0.7565288 0.7565288
0.7630141 0.7630141 0.7630141
0.7760597 0.7760597 0.7760597
0.7912088 0.7912088 0.7912088
0.8064494 0.8064494 0.8064494
0.8255966 0.8255966 0.8255966
0.8466845 0.8466845 0.8466845
0.8088703 0.8088703 0.8088703
0.8087700 0.8087700 0.8087700
0.8129508 0.8129508 0.8129508
0.8203417 0.8203417 0.8203417
0.8312871 0.8312871 0.8312871
0.8419961 0.8419961 0.8419961
0.8529294 0.8529294 0.8529294
0.8683919 0.8683919 0.8683919
0.8896871 0.8896871 0.8896871
0.7848117 0.7848117 0.7848117
0.7879979 0.7879979 0.7879979
0.7929891 0.7929891 0.7929891
0.7999708 0.7999708 0.7999708
0.8102636 0.8102636 0.8102636
0.8253755 0.8253755 0.8253755
0.8125906 0.8125906 0.8125906
0.8656194 0.8656194 0.8656194
0.8322021 0.8322021 0.8322021
0.7876472 0.7876472 0.7876472
0.7905364 0.7905364 0.7905364
0.7950977 0.7950977 0.7950977
0.8015964 0.8015964 0.8015964
0.8124581 0.8124581 0.8124581
0.8268151 0.8268151 0.8268151
0.7909407 0.7909407 0.7909407
0.8576013 0.8576013 0.8576013
0.8154379 0.8154379 0.8154379
0.7939898 0.7939898 0.7939898
0.7956492 0.7956492 0.7956492
0.7998416 0.7998416 0.7998416
0.8074093 0.8074093 0.8074093
0.8180361 0.8180361 0.8180361
0.7886154 0.7886154 0.7886154
0.7463315 0.7463315 0.7463315
0.8215800 0.8215800 0.8215800
0.7831049 0.7831049 0.7831049
0.8054568 0.8054568 0.8054568
0.8070509 0.8070509 0.8070509
0.7737434 0.7737434 0.7737434
0.7373972 0.7373972 0.7373972
0.6848618 0.6848618 0.6848618
0.7232201 0.7232201 0.7232201
0.7676589 0.7676589 0.7676589
0.7761930 0.7761930 0.7761930
0.8170396 0.8170396 0.8170396
0.6984984 0.6984984 0.6984984
0.6776753 0.6776753 0.6776753
0.6773612 0.6773612 0.6773612
0.7014357 0.7014357 0.7014357
0.7128266 0.7128266 0.7128266
0.7408544 0.7408544 0.7408544
0.7703785 0.7703785 0.7703785
0.7968540 0.7968540 0.7968540
0.8253995 0.8253995 0.8253995
0.7156035 0.7156035 0.7156035
0.7193185 0.7193185 0.7193185
0.7276288 0.7276288 0.7276288
0.7406497 0.7406497 0.7406497
0.7557758 0.7557758 0.7557758
0.7738467 0.7738467 0.7738467
0.7951470 0.7951470 0.7951470
0.8116544 0.8116544 0.8116544
0.8256565 0.8256565 0.8256565
0.7701538 0.7701538 0.7701538
0.7731661 0.7731661 0.7731661
0.7790634 0.7790634 0.7790634
0.7853207 0.7853207 0.7853207
0.7943034 0.7943034 0.7943034
0.8069315 0.8069315 0.8069315
0.8207152 0.8207152 0.8207152
0.8373145 0.8373145 0.8373145
0.8572454 0.8572454 0.8572454
0.8113226 0.8113226 0.8113226
0.8124015 0.8124015 0.8124015
0.8151396 0.8151396 0.8151396
0.8225136 0.8225136 0.8225136
0.8334607 0.8334607 0.8334607
0.8465690 0.8465690 0.8465690
0.8630771 0.8630771 0.8630771
0.8808381 0.8808381 0.8808381
0.9002267 0.9002267 0.9002267
0.8733919 0.8733919 0.8733919
0.8738473 0.8738473 0.8738473
0.8749999 0.8749999 0.8749999
0.8770488 0.8770488 0.8770488
0.8859083 0.8859083 0.8859083
0.8987411 0.8987411 0.8987411
0.9120259 0.9120259 0.9120259
0.9251273 0.9251273 0.9251273
0.9427238 0.9427238 0.9427238
0.8960671 0.8960671 0.8960671
0.8983830 0.8983830 0.8983830
0.9025535 0.9025535 0.9025535
0.9081978 0.9081978 0.9081978
0.9157410 0.9157410 0.9157410
0.9260546 0.9260546 0.9260546
0.9388138 0.9388138 0.9388138
0.9175793 0.9175793 0.9175793
0.9694309 0.9694309 0.9694309
0.8981132 0.8981132 0.8981132
0.9006049 0.9006049 0.9006049
0.9041062 0.9041062 0.9041062
0.9092135 0.9092135 0.9092135
0.9163145 0.9163145 0.9163145
0.9276187 0.9276187 0.9276187
0.9393282 0.9393282 0.9393282
0.9017947 0.9017947 0.9017947
0.9656800 0.9656800 0.9656800
0.9033985 0.9033985 0.9033985
0.9047060 0.9047060 0.9047060
0.9073329 0.9073329 0.9073329
0.9125088 0.9125088 0.9125088
0.9208150 0.9208150 0.9208150
0.9307662 0.9307662 0.9307662
0.9089681 0.9089681 0.9089681
0.8756679 0.8756679 0.8756679
0.9434510 0.9434510 0.9434510
0.9112790 0.9112790 0.9112790
0.9124503 0.9124503 0.9124503
0.9153970 0.9153970 0.9153970
0.9144167 0.9144167 0.9144167
0.8912139 0.8912139 0.8912139
0.8465127 0.8465127 0.8465127
0.8393522 0.8393522 0.8393522
0.8888858 0.8888858 0.8888858
0.8934838 0.8934838 0.8934838
0.8583836 0.8583836 0.8583836
0.8427984 0.8427984 0.8427984
0.8092511 0.8092511 0.8092511
0.7903889 0.7903889 0.7903889
0.7923547 0.7923547 0.7923547
0.8263254 0.8263254 0.8263254
0.8348728 0.8348728 0.8348728
0.8729988 0.8729988 0.8729988
0.8925716 0.8925716 0.8925716
0.7887736 0.7887736 0.7887736
0.7926244 0.7926244 0.7926244
0.8022339 0.8022339 0.8022339
0.8166360 0.8166360 0.8166360
0.8288844 0.8288844 0.8288844
0.8478402 0.8478402 0.8478402
0.8711041 0.8711041 0.8711041
0.8916694 0.8916694 0.8916694
0.9153501 0.9153501 0.9153501
0.8393071 0.8393071 0.8393071
0.8415352 0.8415352 0.8415352
0.8471564 0.8471564 0.8471564
0.8569872 0.8569872 0.8569872
0.8674441 0.8674441 0.8674441
0.8807908 0.8807908 0.8807908
0.8984006 0.8984006 0.8984006
0.9146230 0.9146230 0.9146230
0.9252875 0.9252875 0.9252875
0.8875126 0.8875126 0.8875126
0.8893686 0.8893686 0.8893686
0.8934907 0.8934907 0.8934907
0.8980834 0.8980834 0.8980834
0.9048274 0.9048274 0.9048274
0.9130954 0.9130954 0.9130954
0.9248839 0.9248839 0.9248839
0.9352430 0.9352430 0.9352430
0.9501704 0.9501704 0.9501704
0.9220041 0.9220041 0.9220041
0.9227618 0.9227618 0.9227618
0.9246643 0.9246643 0.9246643
0.9290588 0.9290588 0.9290588
0.9368951 0.9368951 0.9368951
0.9457911 0.9457911 0.9457911
0.9564720 0.9564720 0.9564720
0.9691144 0.9691144 0.9691144
0.9820000 0.9820000 0.9820000
