LumaGrade-Vercel/public/luts/tri-x-400.cube
TITLE "Kodak Tri-X 400 Spectral Print Display Normalized"
LUT_3D_SIZE 5
0.0180000 0.0180000 0.0180000
0.0227599 0.0227599 0.0227599
0.1018143 0.1018143 0.1018143
0.2660443 0.2660443 0.2660443
0.3991026 0.3991026 0.3991026
0.0386896 0.0386896 0.0386896
0.0656592 0.0656592 0.0656592
0.1675044 0.1675044 0.1675044
0.3064844 0.3064844 0.3064844
0.4244219 0.4244219 0.4244219
0.2358342 0.2358342 0.2358342
0.2615440 0.2615440 0.2615440
0.3178424 0.3178424 0.3178424
0.3939575 0.3939575 0.3939575
0.4996262 0.4996262 0.4996262
0.4255528 0.4255528 0.4255528
0.4376245 0.4376245 0.4376245
0.4754001 0.4754001 0.4754001
0.5320581 0.5320581 0.5320581
0.6088414 0.6088414 0.6088414
0.6120156 0.6120156 0.6120156
0.6193793 0.6193793 0.6193793
0.6464921 0.6464921 0.6464921
0.6883913 0.6883913 0.6883913
0.7457893 0.7457893 0.7457893
0.1181856 0.1181856 0.1181856
0.1534894 0.1534894 0.1534894
0.2109026 0.2109026 0.2109026
0.3470117 0.3470117 0.3470117
0.4474834 0.4474834 0.4474834
0.1293565 0.1293565 0.1293565
0.1607712 0.1607712 0.1607712
0.2507675 0.2507675 0.2507675
0.3547080 0.3547080 0.3547080
0.4648665 0.4648665 0.4648665
0.3030263 0.3030263 0.3030263
0.3171858 0.3171858 0.3171858
0.3580569 0.3580569 0.3580569
0.4277122 0.4277122 0.4277122
0.5325872 0.5325872 0.5325872
0.4566858 0.4566858 0.4566858
0.4690205 0.4690205 0.4690205
0.5070805 0.5070805 0.5070805
0.5575502 0.5575502 0.5575502
0.6315793 0.6315793 0.6315793
0.6302356 0.6302356 0.6302356
0.6381312 0.6381312 0.6381312
0.6662041 0.6662041 0.6662041
0.7094242 0.7094242 0.7094242
0.7627988 0.7627988 0.7627988
0.4015546 0.4015546 0.4015546
0.4161604 0.4161604 0.4161604
0.4583701 0.4583701 0.4583701
0.4734818 0.4734818 0.4734818
0.5484464 0.5484464 0.5484464
0.3696956 0.3696956 0.3696956
0.3533797 0.3533797 0.3533797
0.4009492 0.4009492 0.4009492
0.5005512 0.5005512 0.5005512
0.5717086 0.5717086 0.5717086
0.4196387 0.4196387 0.4196387
0.4324876 0.4324876 0.4324876
0.4696458 0.4696458 0.4696458
0.5326846 0.5326846 0.5326846
0.6159672 0.6159672 0.6159672
0.5503814 0.5503814 0.5503814
0.5610720 0.5610720 0.5610720
0.5868122 0.5868122 0.5868122
0.6316762 0.6316762 0.6316762
0.7017827 0.7017827 0.7017827
0.7071135 0.7071135 0.7071135
0.7166767 0.7166767 0.7166767
0.7350352 0.7350352 0.7350352
0.7670707 0.7670707 0.7670707
0.8148396 0.8148396 0.8148396
0.6607347 0.6607347 0.6607347
0.6710263 0.6710263 0.6710263
0.6957529 0.6957529 0.6957529
0.7388648 0.7388648 0.7388648
0.7795824 0.7795824 0.7795824
0.6730895 0.6730895 0.6730895
0.6809509 0.6809509 0.6809509
0.6370609 0.6370609 0.6370609
0.6747696 0.6747696 0.6747696
0.7314913 0.7314913 0.7314913
0.5827352 0.5827352 0.5827352
0.5982387 0.5982387 0.5982387
0.6356828 0.6356828 0.6356828
0.6851574 0.6851574 0.6851574
0.7496930 0.7496930 0.7496930
0.6862360 0.6862360 0.6862360
0.6919488 0.6919488 0.6919488
0.7160469 0.7160469 0.7160469
0.7537815 0.7537815 0.7537815
0.8095189 0.8095189 0.8095189
0.8088703 0.8088703 0.8088703
0.8129508 0.8129508 0.8129508
0.8312871 0.8312871 0.8312871
0.8529294 0.8529294 0.8529294
0.8896871 0.8896871 0.8896871
0.8960671 0.8960671 0.8960671
0.9025535 0.9025535 0.9025535
0.9157410 0.9157410 0.9157410
0.9388138 0.9388138 0.9388138
0.9694309 0.9694309 0.9694309
0.9033985 0.9033985 0.9033985
0.9073329 0.9073329 0.9073329
0.9208150 0.9208150 0.9208150
0.9089681 0.9089681 0.9089681
0.9434510 0.9434510 0.9434510
0.8583836 0.8583836 0.8583836
0.8092511 0.8092511 0.8092511
0.7923547 0.7923547 0.7923547
0.8348728 0.8348728 0.8348728
0.8925716 0.8925716 0.8925716
0.8393071 0.8393071 0.8393071
0.8471564 0.8471564 0.8471564
0.8674441 0.8674441 0.8674441
0.8984006 0.8984006 0.8984006
0.9252875 0.9252875 0.9252875
0.9220041 0.9220041 0.9220041
0.9246643 0.9246643 0.9246643
0.9368951 0.9368951 0.9368951
0.9564720 0.9564720 0.9564720
0.9820000 0.9820000 0.9820000
