LumaGrade-Vercel/public/luts/tri-x-400.cube
TITLE "Kodak Tri-X 400 Spectral Print Display Normalized"
LUT_3D_SIZE 33
0.0180000 0.0180000 0.0180000
0.0180000 0.0180000 0.0180000
0.0180000 0.0180000 0.0180000
0.0180000 0.0180000 0.0180000
0.0181543 0.0181543 0.0181543
0.0187843 0.0187843 0.0187843
0.0196311 0.0196311 0.0196311
0.0209286 0.0209286 0.0209286
0.0227599 0.0227599 0.0227599
0.0256340 0.0256340 0.0256340
0.0295004 0.0295004 0.0295004
0.0345655 0.0345655 0.0345655
0.0418040 0.0418040 0.0418040
0.0525081 0.0525081 0.0525081
0.0664900 0.0664900 0.0664900
0.0837736 0.0837736 0.0837736
0.1018143 0.1018143 0.1018143
0.1206373 0.1206373 0.1206373
0.1401436 0.1401436 0.1401436
0.1604958 0.1604958 0.1604958
0.1814326 0.1814326 0.1814326
0.2022132 0.2022132 0.2022132
0.2234766 0.2234766 0.2234766
0.2449871 0.2449871 0.2449871
0.2660443 0.2660443 0.2660443
0.2859552 0.2859552 0.2859552
0.3041176 0.3041176 0.3041176
0.3207451 0.3207451 0.3207451
0.3363783 0.3363783 0.3363783
0.3515782 0.3515782 0.3515782
0.3668132 0.3668132 0.3668132
0.3825325 0.3825325 0.3825325
0.3991026 0.3991026 0.3991026
0.0180000 0.0180000 0.0180000
0.0180000 0.0180000 0.0180000
0.0180000 0.0180000 0.0180000
0.0181481 0.0181481 0.0181481
0.0186518 0.0186518 0.0186518
0.0193120 0.0193120 0.0193120
0.0202559 0.0202559 0.0202559
0.0216931 0.0216931 0.0216931
0.0237763 0.0237763 0.0237763
0.0268499 0.0268499 0.0268499
0.0308925 0.0308925 0.0308925
0.0362729 0.0362729 0.0362729
0.0440013 0.0440013 0.0440013
0.0553902 0.0553902 0.0553902
0.0697306 0.0697306 0.0697306
0.0871368 0.0871368 0.0871368
0.1049557 0.1049557 0.1049557
0.1236829 0.1236829 0.1236829
0.1430629 0.1430629 0.1430629
0.1633518 0.1633518 0.1633518
0.1841221 0.1841221 0.1841221
0.2047434 0.2047434 0.2047434
0.2259230 0.2259230 0.2259230
0.2472807 0.2472807 0.2472807
0.2681312 0.2681312 0.2681312
0.2877882 0.2877882 0.2877882
0.3056959 0.3056959 0.3056959
0.3221373 0.3221373 0.3221373
0.3376515 0.3376515 0.3376515
0.3527787 0.3527787 0.3527787
0.3679827 0.3679827 0.3679827
0.3837044 0.3837044 0.3837044
0.4002819 0.4002819 0.4002819
0.0180000 0.0180000 0.0180000
0.0180781 0.0180781 0.0180781
0.0183212 0.0183212 0.0183212
0.0186837 0.0186837 0.0186837
0.0192089 0.0192089 0.0192089
0.0199555 0.0199555 0.0199555
0.0211315 0.0211315 0.0211315
0.0227087 0.0227087 0.0227087
0.0251225 0.0251225 0.0251225
0.0283550 0.0283550 0.0283550
0.0325862 0.0325862 0.0325862
0.0384551 0.0384551 0.0384551
0.0468718 0.0468718 0.0468718
0.0588594 0.0588594 0.0588594
0.0736430 0.0736430 0.0736430
0.0909378 0.0909378 0.0909378
0.1085440 0.1085440 0.1085440
0.1271529 0.1271529 0.1271529
0.1464056 0.1464056 0.1464056
0.1665962 0.1665962 0.1665962
0.1871556 0.1871556 0.1871556
0.2076176 0.2076176 0.2076176
0.2286847 0.2286847 0.2286847
0.2498587 0.2498587 0.2498587
0.2704633 0.2704633 0.2704633
0.2898298 0.2898298 0.2898298
0.3074575 0.3074575 0.3074575
0.3236988 0.3236988 0.3236988
0.3390803 0.3390803 0.3390803
0.3541343 0.3541343 0.3541343
0.3693056 0.3693056 0.3693056
0.3850329 0.3850329 0.3850329
0.4016152 0.4016152 0.4016152
0.0186212 0.0186212 0.0186212
0.0188747 0.0188747 0.0188747
0.0191347 0.0191347 0.0191347
0.0195326 0.0195326 0.0195326
0.0201388 0.0201388 0.0201388
0.0210975 0.0210975 0.0210975
0.0223918 0.0223918 0.0223918
0.0243799 0.0243799 0.0243799
0.0271817 0.0271817 0.0271817
0.0308002 0.0308002 0.0308002
0.0354677 0.0354677 0.0354677
0.0419606 0.0419606 0.0419606
0.0514223 0.0514223 0.0514223
0.0639426 0.0639426 0.0639426
0.0794507 0.0794507 0.0794507
0.0963677 0.0963677 0.0963677
0.1138671 0.1138671 0.1138671
0.1322493 0.1322493 0.1322493
0.1513306 0.1513306 0.1513306
0.1713178 0.1713178 0.1713178
0.1914894 0.1914894 0.1914894
0.2117543 0.2117543 0.2117543
0.2326514 0.2326514 0.2326514
0.2535529 0.2535529 0.2535529
0.2737992 0.2737992 0.2737992
0.2927304 0.2927304 0.2927304
0.3099640 0.3099640 0.3099640
0.3259268 0.3259268 0.3259268
0.3411284 0.3411284 0.3411284
0.3560748 0.3560748 0.3560748
0.3712022 0.3712022 0.3712022
0.3869427 0.3869427 0.3869427
0.4035254 0.4035254 0.4035254
0.0197664 0.0197664 0.0197664
0.0200838 0.0200838 0.0200838
0.0204742 0.0204742 0.0204742
0.0210200 0.0210200 0.0210200
0.0217770 0.0217770 0.0217770
0.0228859 0.0228859 0.0228859
0.0246084 0.0246084 0.0246084
0.0269819 0.0269819 0.0269819
0.0300788 0.0300788 0.0300788
0.0340323 0.0340323 0.0340323
0.0397026 0.0397026 0.0397026
0.0476757 0.0476757 0.0476757
0.0585031 0.0585031 0.0585031
0.0716838 0.0716838 0.0716838
0.0872983 0.0872983 0.0872983
0.1035764 0.1035764 0.1035764
0.1209127 0.1209127 0.1209127
0.1389986 0.1389986 0.1389986
0.1579560 0.1579560 0.1579560
0.1776560 0.1776560 0.1776560
0.1973896 0.1973896 0.1973896
0.2174908 0.2174908 0.2174908
0.2380870 0.2380870 0.2380870
0.2585556 0.2585556 0.2585556
0.2782408 0.2782408 0.2782408
0.2965214 0.2965214 0.2965214
0.3132736 0.3132736 0.3132736
0.3288898 0.3288898 0.3288898
0.3438715 0.3438715 0.3438715
0.3586976 0.3586976 0.3586976
0.3737818 0.3737818 0.3737818
0.3895471 0.3895471 0.3895471
0.4061128 0.4061128 0.4061128
0.0217649 0.0217649 0.0217649
0.0221588 0.0221588 0.0221588
0.0227050 0.0227050 0.0227050
0.0234526 0.0234526 0.0234526
0.0245432 0.0245432 0.0245432
0.0260352 0.0260352 0.0260352
0.0280485 0.0280485 0.0280485
0.0306927 0.0306927 0.0306927
0.0342201 0.0342201 0.0342201
0.0391227 0.0391227 0.0391227
0.0458629 0.0458629 0.0458629
0.0553042 0.0553042 0.0553042
0.0673234 0.0673234 0.0673234
0.0821132 0.0821132 0.0821132
0.0973735 0.0973735 0.0973735
0.1133834 0.1133834 0.1133834
0.1301558 0.1301558 0.1301558
0.1475682 0.1475682 0.1475682
0.1663000 0.1663000 0.1663000
0.1855499 0.1855499 0.1855499
0.2047986 0.2047986 0.2047986
0.2246971 0.2246971 0.2246971
0.2449056 0.2449056 0.2449056
0.2648270 0.2648270 0.2648270
0.2838516 0.2838516 0.2838516
0.3014032 0.3014032 0.3014032
0.3175388 0.3175388 0.3175388
0.3327166 0.3327166 0.3327166
0.3474167 0.3474167 0.3474167
0.3620557 0.3620557 0.3620557
0.3770747 0.3770747 0.3770747
0.3928858 0.3928858 0.3928858
0.4094172 0.4094172 0.4094172
0.0252123 0.0252123 0.0252123
0.0257824 0.0257824 0.0257824
0.0265406 0.0265406 0.0265406
0.0276107 0.0276107 0.0276107
0.0289190 0.0289190 0.0289190
0.0306978 0.0306978 0.0306978
0.0330052 0.0330052 0.0330052
0.0362085 0.0362085 0.0362085
0.0405789 0.0405789 0.0405789
0.0467633 0.0467633 0.0467633
0.0553765 0.0553765 0.0553765
0.0658978 0.0658978 0.0658978
0.0789204 0.0789204 0.0789204
0.0931493 0.0931493 0.0931493
0.1085198 0.1085198 0.1085198
0.1249068 0.1249068 0.1249068
0.1414084 0.1414084 0.1414084
0.1588886 0.1588886 0.1588886
0.1770954 0.1770954 0.1770954
0.1952659 0.1952659 0.1952659
0.2138402 0.2138402 0.2138402
0.2334007 0.2334007 0.2334007
0.2530665 0.2530665 0.2530665
0.2722703 0.2722703 0.2722703
0.2904253 0.2904253 0.2904253
0.3071043 0.3071043 0.3071043
0.3225993 0.3225993 0.3225993
0.3373380 0.3373380 0.3373380
0.3517761 0.3517761 0.3517761
0.3663062 0.3663062 0.3663062
0.3813161 0.3813161 0.3813161
0.3971513 0.3971513 0.3971513
0.4135962 0.4135962 0.4135962
0.0305968 0.0305968 0.0305968
0.0312595 0.0312595 0.0312595
0.0321555 0.0321555 0.0321555
0.0335334 0.0335334 0.0335334
0.0352893 0.0352893 0.0352893
0.0375615 0.0375615 0.0375615
0.0407103 0.0407103 0.0407103
0.0449123 0.0449123 0.0449123
0.0508396 0.0508396 0.0508396
0.0585090 0.0585090 0.0585090
0.0679317 0.0679317 0.0679317
0.0797745 0.0797745 0.0797745
0.0929315 0.0929315 0.0929315
0.1065826 0.1065826 0.1065826
0.1212783 0.1212783 0.1212783
0.1367412 0.1367412 0.1367412
0.1536917 0.1536917 0.1536917
0.1716169 0.1716169 0.1716169
0.1892287 0.1892287 0.1892287
0.2069910 0.2069910 0.2069910
0.2255068 0.2255068 0.2255068
0.2442273 0.2442273 0.2442273
0.2627446 0.2627446 0.2627446
0.2807687 0.2807687 0.2807687
0.2978504 0.2978504 0.2978504
0.3136154 0.3136154 0.3136154
0.3284445 0.3284445 0.3284445
0.3427445 0.3427445 0.3427445
0.3569224 0.3569224 0.3569224
0.3713428 0.3713428 0.3713428
0.3863719 0.3863719 0.3863719
0.4022339 0.4022339 0.4022339
0.4185962 0.4185962 0.4185962
0.0386896 0.0386896 0.0386896
0.0396064 0.0396064 0.0396064
0.0408385 0.0408385 0.0408385
0.0427735 0.0427735 0.0427735
0.0455163 0.0455163 0.0455163
0.0488127 0.0488127 0.0488127
0.0532344 0.0532344 0.0532344
0.0588672 0.0588672 0.0588672
0.0656592 0.0656592 0.0656592
0.0743266 0.0743266 0.0743266
0.0846574 0.0846574 0.0846574
0.0958813 0.0958813 0.0958813
0.1082686 0.1082686 0.1082686
0.1217545 0.1217545 0.1217545
0.1361493 0.1361493 0.1361493
0.1513611 0.1513611 0.1513611
0.1675044 0.1675044 0.1675044
0.1842719 0.1842719 0.1842719
0.2017929 0.2017929 0.2017929
0.2200360 0.2200360 0.2200360
0.2382022 0.2382022 0.2382022
0.2563320 0.2563320 0.2563320
0.2741096 0.2741096 0.2741096
0.2910061 0.2910061 0.2910061
0.3064844 0.3064844 0.3064844
0.3210133 0.3210133 0.3210133
0.3350504 0.3350504 0.3350504
0.3489434 0.3489434 0.3489434
0.3628940 0.3628940 0.3628940
0.3772455 0.3772455 0.3772455
0.3923466 0.3923466 0.3923466
0.4081702 0.4081702 0.4081702
0.4244219 0.4244219 0.4244219
0.0522900 0.0522900 0.0522900
0.0536159 0.0536159 0.0536159
0.0552928 0.0552928 0.0552928
0.0579931 0.0579931 0.0579931
0.0616210 0.0616210 0.0616210
0.0659205 0.0659205 0.0659205
0.0710486 0.0710486 0.0710486
0.0775909 0.0775909 0.0775909
0.0852694 0.0852694 0.0852694
0.0937847 0.0937847 0.0937847
0.1032681 0.1032681 0.1032681
0.1139316 0.1139316 0.1139316
0.1256352 0.1256352 0.1256352
0.1386346 0.1386346 0.1386346
0.1525781 0.1525781 0.1525781
0.1677170 0.1677170 0.1677170
0.1833283 0.1833283 0.1833283
0.1992562 0.1992562 0.1992562
0.2157385 0.2157385 0.2157385
0.2330411 0.2330411 0.2330411
0.2511452 0.2511452 0.2511452
0.2690751 0.2690751 0.2690751
0.2858612 0.2858612 0.2858612
0.3013643 0.3013643 0.3013643
0.3158855 0.3158855 0.3158855
0.3297158 0.3297158 0.3297158
0.3430696 0.3430696 0.3430696
0.3563058 0.3563058 0.3563058
0.3698008 0.3698008 0.3698008
0.3840741 0.3840741 0.3840741
0.3992474 0.3992474 0.3992474
0.4149792 0.4149792 0.4149792
0.4310852 0.4310852 0.4310852
0.0722682 0.0722682 0.0722682
0.0738430 0.0738430 0.0738430
0.0757268 0.0757268 0.0757268
0.0788302 0.0788302 0.0788302
0.0830447 0.0830447 0.0830447
0.0881989 0.0881989 0.0881989
0.0934429 0.0934429 0.0934429
0.0994307 0.0994307 0.0994307
0.1066067 0.1066067 0.1066067
0.1146957 0.1146957 0.1146957
0.1238154 0.1238154 0.1238154
0.1339757 0.1339757 0.1339757
0.1451506 0.1451506 0.1451506
0.1574173 0.1574173 0.1574173
0.1709716 0.1709716 0.1709716
0.1852881 0.1852881 0.1852881
0.2000403 0.2000403 0.2000403
0.2156230 0.2156230 0.2156230
0.2318073 0.2318073 0.2318073
0.2484121 0.2484121 0.2484121
0.2648659 0.2648659 0.2648659
0.2811777 0.2811777 0.2811777
0.2970323 0.2970323 0.2970323
0.3118545 0.3118545 0.3118545
0.3256207 0.3256207 0.3256207
0.3386864 0.3386864 0.3386864
0.3516614 0.3516614 0.3516614
0.3648135 0.3648135 0.3648135
0.3784139 0.3784139 0.3784139
0.3925604 0.3925604 0.3925604
0.4074003 0.4074003 0.4074003
0.4226805 0.4226805 0.4226805
0.4385858 0.4385858 0.4385858
0.0967866 0.0967866 0.0967866
0.0982608 0.0982608 0.0982608
0.0999725 0.0999725 0.0999725
0.1027330 0.1027330 0.1027330
0.1066114 0.1066114 0.1066114
0.1114668 0.1114668 0.1114668
0.1170451 0.1170451 0.1170451
0.1228502 0.1228502 0.1228502
0.1295737 0.1295737 0.1295737
0.1374175 0.1374175 0.1374175
0.1460723 0.1460723 0.1460723
0.1558139 0.1558139 0.1558139
0.1666209 0.1666209 0.1666209
0.1783699 0.1783699 0.1783699
0.1907735 0.1907735 0.1907735
0.2039412 0.2039412 0.2039412
0.2182588 0.2182588 0.2182588
0.2332563 0.2332563 0.2332563
0.2489332 0.2489332 0.2489332
0.2644985 0.2644985 0.2644985
0.2798549 0.2798549 0.2798549
0.2945751 0.2945751 0.2945751
0.3083449 0.3083449 0.3083449
0.3217276 0.3217276 0.3217276
0.3349455 0.3349455 0.3349455
0.3480053 0.3480053 0.3480053
0.3609755 0.3609755 0.3609755
0.3739657 0.3739657 0.3739657
0.3876103 0.3876103 0.3876103
0.4020395 0.4020395 0.4020395
0.4169767 0.4169767 0.4169767
0.4321722 0.4321722 0.4321722
0.4475191 0.4475191 0.4475191
0.1224345 0.1224345 0.1224345
0.1238565 0.1238565 0.1238565
0.1254638 0.1254638 0.1254638
0.1280058 0.1280058 0.1280058
0.1317083 0.1317083 0.1317083
0.1363785 0.1363785 0.1363785
0.1419167 0.1419167 0.1419167
0.1477760 0.1477760 0.1477760
0.1542415 0.1542415 0.1542415
0.1617038 0.1617038 0.1617038
0.1702066 0.1702066 0.1702066
0.1794301 0.1794301 0.1794301
0.1894328 0.1894328 0.1894328
0.2001529 0.2001529 0.2001529
0.2118691 0.2118691 0.2118691
0.2244589 0.2244589 0.2244589
0.2378290 0.2378290 0.2378290
0.2520866 0.2520866 0.2520866
0.2664692 0.2664692 0.2664692
0.2808069 0.2808069 0.2808069
0.2947452 0.2947452 0.2947452
0.3078763 0.3078763 0.3078763
0.3205091 0.3205091 0.3205091
0.3327418 0.3327418 0.3327418
0.3447825 0.3447825 0.3447825
0.3571887 0.3571887 0.3571887
0.3701465 0.3701465 0.3701465
0.3837014 0.3837014 0.3837014
0.3979466 0.3979466 0.3979466
0.4122809 0.4122809 0.4122809
0.4270392 0.4270392 0.4270392
0.4421121 0.4421121 0.4421121
0.4573852 0.4573852 0.4573852
0.1494476 0.1494476 0.1494476
0.1508084 0.1508084 0.1508084
0.1523454 0.1523454 0.1523454
0.1546825 0.1546825 0.1546825
0.1582064 0.1582064 0.1582064
0.1627285 0.1627285 0.1627285
0.1681601 0.1681601 0.1681601
0.1743499 0.1743499 0.1743499
0.1804881 0.1804881 0.1804881
0.1873664 0.1873664 0.1873664
0.1951006 0.1951006 0.1951006
0.2036553 0.2036553 0.2036553
0.2130338 0.2130338 0.2130338
0.2233141 0.2233141 0.2233141
0.2344399 0.2344399 0.2344399
0.2463117 0.2463117 0.2463117
0.2586642 0.2586642 0.2586642
0.2712786 0.2712786 0.2712786
0.2842561 0.2842561 0.2842561
0.2969205 0.2969205 0.2969205
0.3091023 0.3091023 0.3091023
0.3211278 0.3211278 0.3211278
0.3327004 0.3327004 0.3327004
0.3442388 0.3442388 0.3442388
0.3559205 0.3559205 0.3559205
0.3678318 0.3678318 0.3678318
0.3802218 0.3802218 0.3802218
0.3936981 0.3936981 0.3936981
0.4080432 0.4080432 0.4080432
0.4228611 0.4228611 0.4228611
0.4379996 0.4379996 0.4379996
0.4527675 0.4527675 0.4527675
0.4676813 0.4676813 0.4676813
0.1779421 0.1779421 0.1779421
0.1792200 0.1792200 0.1792200
0.1806591 0.1806591 0.1806591
0.1827940 0.1827940 0.1827940
0.1859461 0.1859461 0.1859461
0.1901034 0.1901034 0.1901034
0.1951095 0.1951095 0.1951095
0.2008739 0.2008739 0.2008739
0.2070243 0.2070243 0.2070243
0.2134768 0.2134768 0.2134768
0.2207488 0.2207488 0.2207488
0.2290221 0.2290221 0.2290221
0.2379802 0.2379802 0.2379802
0.2475633 0.2475633 0.2475633
0.2577549 0.2577549 0.2577549
0.2684464 0.2684464 0.2684464
0.2794931 0.2794931 0.2794931
0.2905867 0.2905867 0.2905867
0.3015030 0.3015030 0.3015030
0.3124629 0.3124629 0.3124629
0.3233959 0.3233959 0.3233959
0.3341883 0.3341883 0.3341883
0.3450890 0.3450890 0.3450890
0.3562632 0.3562632 0.3562632
0.3676371 0.3676371 0.3676371
0.3795457 0.3795457 0.3795457
0.3921908 0.3921908 0.3921908
0.4053769 0.4053769 0.4053769
0.4190325 0.4190325 0.4190325
0.4334861 0.4334861 0.4334861
0.4483869 0.4483869 0.4483869
0.4634740 0.4634740 0.4634740
0.4786348 0.4786348 0.4786348
0.2064908 0.2064908 0.2064908
0.2076705 0.2076705 0.2076705
0.2090032 0.2090032 0.2090032
0.2109470 0.2109470 0.2109470
0.2137824 0.2137824 0.2137824
0.2177137 0.2177137 0.2177137
0.2225119 0.2225119 0.2225119
0.2281170 0.2281170 0.2281170
0.2345219 0.2345219 0.2345219
0.2406791 0.2406791 0.2406791
0.2474453 0.2474453 0.2474453
0.2548639 0.2548639 0.2548639
0.2631385 0.2631385 0.2631385
0.2717403 0.2717403 0.2717403
0.2807113 0.2807113 0.2807113
0.2899449 0.2899449 0.2899449
0.2993036 0.2993036 0.2993036
0.3087723 0.3087723 0.3087723
0.3182720 0.3182720 0.3182720
0.3278026 0.3278026 0.3278026
0.3375409 0.3375409 0.3375409
0.3476843 0.3476843 0.3476843
0.3580529 0.3580529 0.3580529
0.3688116 0.3688116 0.3688116
0.3803329 0.3803329 0.3803329
0.3923392 0.3923392 0.3923392
0.4050200 0.4050200 0.4050200
0.4182015 0.4182015 0.4182015
0.4317829 0.4317829 0.4317829
0.4455404 0.4455404 0.4455404
0.4595382 0.4595382 0.4595382
0.4741324 0.4741324 0.4741324
0.4888478 0.4888478 0.4888478
0.2358342 0.2358342 0.2358342
0.2369432 0.2369432 0.2369432
0.2381949 0.2381949 0.2381949
0.2399801 0.2399801 0.2399801
0.2425405 0.2425405 0.2425405
0.2461416 0.2461416 0.2461416
0.2505615 0.2505615 0.2505615
0.2557479 0.2557479 0.2557479
0.2615440 0.2615440 0.2615440
0.2676690 0.2676690 0.2676690
0.2736535 0.2736535 0.2736535
0.2801417 0.2801417 0.2801417
0.2871046 0.2871046 0.2871046
0.2945670 0.2945670 0.2945670
0.3021087 0.3021087 0.3021087
0.3098690 0.3098690 0.3098690
0.3178424 0.3178424 0.3178424
0.3260359 0.3260359 0.3260359
0.3345042 0.3345042 0.3345042
0.3432249 0.3432249 0.3432249
0.3522317 0.3522317 0.3522317
0.3616297 0.3616297 0.3616297
0.3717926 0.3717926 0.3717926
0.3825317 0.3825317 0.3825317
0.3939575 0.3939575 0.3939575
0.4060681 0.4060681 0.4060681
0.4187998 0.4187998 0.4187998
0.4317490 0.4317490 0.4317490
0.4450491 0.4450491 0.4450491
0.4586161 0.4586161 0.4586161
0.4723032 0.4723032 0.4723032
0.4859654 0.4859654 0.4859654
0.4996262 0.4996262 0.4996262
0.2648892 0.2648892 0.2648892
0.2658745 0.2658745 0.2658745
0.2669821 0.2669821 0.2669821
0.2685612 0.2685612 0.2685612
0.2707751 0.2707751 0.2707751
0.2738231 0.2738231 0.2738231
0.2776733 0.2776733 0.2776733
0.2821609 0.2821609 0.2821609
0.2871793 0.2871793 0.2871793
0.2926682 0.2926682 0.2926682
0.2978970 0.2978970 0.2978970
0.3032803 0.3032803 0.3032803
0.3090257 0.3090257 0.3090257
0.3152002 0.3152002 0.3152002
0.3217600 0.3217600 0.3217600
0.3285020 0.3285020 0.3285020
0.3355452 0.3355452 0.3355452
0.3429301 0.3429301 0.3429301
0.3506922 0.3506922 0.3506922
0.3589207 0.3589207 0.3589207
0.3676091 0.3676091 0.3676091
0.3768172 0.3768172 0.3768172
0.3866488 0.3866488 0.3866488
0.3974558 0.3974558 0.3974558
0.4089212 0.4089212 0.4089212
0.4208071 0.4208071 0.4208071
0.4331249 0.4331249 0.4331249
0.4460547 0.4460547 0.4460547
0.4589932 0.4589932 0.4589932
0.4721260 0.4721260 0.4721260
0.4853816 0.4853816 0.4853816
0.4986722 0.4986722 0.4986722
0.5118674 0.5118674 0.5118674
0.2918653 0.2918653 0.2918653
0.2926845 0.2926845 0.2926845
0.2936076 0.2936076 0.2936076
0.2949114 0.2949114 0.2949114
0.2967011 0.2967011 0.2967011
0.2991137 0.2991137 0.2991137
0.3022821 0.3022821 0.3022821
0.3059749 0.3059749 0.3059749
0.3101677 0.3101677 0.3101677
0.3147387 0.3147387 0.3147387
0.3195940 0.3195940 0.3195940
0.3242069 0.3242069 0.3242069
0.3291613 0.3291613 0.3291613
0.3344843 0.3344843 0.3344843
0.3403124 0.3403124 0.3403124
0.3465247 0.3465247 0.3465247
0.3530440 0.3530440 0.3530440
0.3599905 0.3599905 0.3599905
0.3674092 0.3674092 0.3674092
0.3753654 0.3753654 0.3753654
0.3839902 0.3839902 0.3839902
0.3932982 0.3932982 0.3932982
0.4031980 0.4031980 0.4031980
0.4136086 0.4136086 0.4136086
0.4246860 0.4246860 0.4246860
0.4363875 0.4363875 0.4363875
0.4484037 0.4484037 0.4484037
0.4606955 0.4606955 0.4606955
0.4732714 0.4732714 0.4732714
0.4861418 0.4861418 0.4861418
0.4988401 0.4988401 0.4988401
0.5115787 0.5115787 0.5115787
0.5244530 0.5244530 0.5244530
0.3156280 0.3156280 0.3156280
0.3163052 0.3163052 0.3163052
0.3170698 0.3170698 0.3170698
0.3181548 0.3181548 0.3181548
0.3196181 0.3196181 0.3196181
0.3215877 0.3215877 0.3215877
0.3242362 0.3242362 0.3242362
0.3273855 0.3273855 0.3273855
0.3310046 0.3310046 0.3310046
0.3350366 0.3350366 0.3350366
0.3394853 0.3394853 0.3394853
0.3439241 0.3439241 0.3439241
0.3484309 0.3484309 0.3484309
0.3533445 0.3533445 0.3533445
0.3586756 0.3586756 0.3586756
0.3646287 0.3646287 0.3646287
0.3709861 0.3709861 0.3709861
0.3777931 0.3777931 0.3777931
0.3851699 0.3851699 0.3851699
0.3931787 0.3931787 0.3931787
0.4017837 0.4017837 0.4017837
0.4110048 0.4110048 0.4110048
0.4207369 0.4207369 0.4207369
0.4309208 0.4309208 0.4309208
0.4415138 0.4415138 0.4415138
0.4525569 0.4525569 0.4525569
0.4642179 0.4642179 0.4642179
0.4760985 0.4760985 0.4760985
0.4880996 0.4880996 0.4880996
0.5002029 0.5002029 0.5002029
0.5126285 0.5126285 0.5126285
0.5249830 0.5249830 0.5249830
0.5374676 0.5374676 0.5374676
0.3372125 0.3372125 0.3372125
0.3378072 0.3378072 0.3378072
0.3384762 0.3384762 0.3384762
0.3394328 0.3394328 0.3394328
0.3407125 0.3407125 0.3407125
0.3424466 0.3424466 0.3424466
0.3447354 0.3447354 0.3447354
0.3475847 0.3475847 0.3475847
0.3508945 0.3508945 0.3508945
0.3546669 0.3546669 0.3546669
0.3588250 0.3588250 0.3588250
0.3634154 0.3634154 0.3634154
0.3677924 0.3677924 0.3677924
0.3725523 0.3725523 0.3725523
0.3777812 0.3777812 0.3777812
0.3835426 0.3835426 0.3835426
0.3900340 0.3900340 0.3900340
0.3969697 0.3969697 0.3969697
0.4043751 0.4043751 0.4043751
0.4122922 0.4122922 0.4122922
0.4207060 0.4207060 0.4207060
0.4296051 0.4296051 0.4296051
0.4390480 0.4390480 0.4390480
0.4489091 0.4489091 0.4489091
0.4591278 0.4591278 0.4591278
0.4696540 0.4696540 0.4696540
0.4804635 0.4804635 0.4804635
0.4917770 0.4917770 0.4917770
0.5032684 0.5032684 0.5032684
0.5148325 0.5148325 0.5148325
0.5265984 0.5265984 0.5265984
0.5386123 0.5386123 0.5386123
0.5509796 0.5509796 0.5509796
0.3580159 0.3580159 0.3580159
0.3585703 0.3585703 0.3585703
0.3591968 0.3591968 0.3591968
0.3600931 0.3600931 0.3600931
0.3612943 0.3612943 0.3612943
0.3629003 0.3629003 0.3629003
0.3649882 0.3649882 0.3649882
0.3677128 0.3677128 0.3677128
0.3709030 0.3709030 0.3709030
0.3745825 0.3745825 0.3745825
0.3787124 0.3787124 0.3787124
0.3833282 0.3833282 0.3833282
0.3881520 0.3881520 0.3881520
0.3929735 0.3929735 0.3929735
0.3982724 0.3982724 0.3982724
0.4040405 0.4040405 0.4040405
0.4103654 0.4103654 0.4103654
0.4173065 0.4173065 0.4173065
0.4245585 0.4245585 0.4245585
0.4322505 0.4322505 0.4322505
0.4403950 0.4403950 0.4403950
0.4489647 0.4489647 0.4489647
0.4579357 0.4579357 0.4579357
0.4673715 0.4673715 0.4673715
0.4771289 0.4771289 0.4771289
0.4871502 0.4871502 0.4871502
0.4973750 0.4973750 0.4973750
0.5077680 0.5077680 0.5077680
0.5186306 0.5186306 0.5186306
0.5298524 0.5298524 0.5298524
0.5412519 0.5412519 0.5412519
0.5528316 0.5528316 0.5528316
0.5646139 0.5646139 0.5646139
0.3792440 0.3792440 0.3792440
0.3797896 0.3797896 0.3797896
0.3804100 0.3804100 0.3804100
0.3812995 0.3812995 0.3812995
0.3824939 0.3824939 0.3824939
0.3840577 0.3840577 0.3840577
0.3860901 0.3860901 0.3860901
0.3888022 0.3888022 0.3888022
0.3920339 0.3920339 0.3920339
0.3957648 0.3957648 0.3957648
0.3999940 0.3999940 0.3999940
0.4046360 0.4046360 0.4046360
0.4097933 0.4097933 0.4097933
0.4147094 0.4147094 0.4147094
0.4199003 0.4199003 0.4199003
0.4255325 0.4255325 0.4255325
0.4316019 0.4316019 0.4316019
0.4382449 0.4382449 0.4382449
0.4453820 0.4453820 0.4453820
0.4527844 0.4527844 0.4527844
0.4605714 0.4605714 0.4605714
0.4687453 0.4687453 0.4687453
0.4772633 0.4772633 0.4772633
0.4860968 0.4860968 0.4860968
0.4953094 0.4953094 0.4953094
0.5047513 0.5047513 0.5047513
0.5144412 0.5144412 0.5144412
0.5243975 0.5243975 0.5243975
0.5346050 0.5346050 0.5346050
0.5452044 0.5452044 0.5452044
0.5562672 0.5562672 0.5562672
0.5675388 0.5675388 0.5675388
0.5789687 0.5789687 0.5789687
0.4018984 0.4018984 0.4018984
0.4024498 0.4024498 0.4024498
0.4030730 0.4030730 0.4030730
0.4039652 0.4039652 0.4039652
0.4051632 0.4051632 0.4051632
0.4066936 0.4066936 0.4066936
0.4087198 0.4087198 0.4087198
0.4113118 0.4113118 0.4113118
0.4144939 0.4144939 0.4144939
0.4181504 0.4181504 0.4181504
0.4222942 0.4222942 0.4222942
0.4268627 0.4268627 0.4268627
0.4318740 0.4318740 0.4318740
0.4371233 0.4371233 0.4371233
0.4421733 0.4421733 0.4421733
0.4475944 0.4475944 0.4475944
0.4534191 0.4534191 0.4534191
0.4596376 0.4596376 0.4596376
0.4664359 0.4664359 0.4664359
0.4735867 0.4735867 0.4735867
0.4809675 0.4809675 0.4809675
0.4886631 0.4886631 0.4886631
0.4966743 0.4966743 0.4966743
0.5049528 0.5049528 0.5049528
0.5135223 0.5135223 0.5135223
0.5225086 0.5225086 0.5225086
0.5317930 0.5317930 0.5317930
0.5413594 0.5413594 0.5413594
0.5511902 0.5511902 0.5511902
0.5612714 0.5612714 0.5612714
0.5716477 0.5716477 0.5716477
0.5825755 0.5825755 0.5825755
0.5937419 0.5937419 0.5937419
0.4255528 0.4255528 0.4255528
0.4260887 0.4260887 0.4260887
0.4266943 0.4266943 0.4266943
0.4275617 0.4275617 0.4275617
0.4287248 0.4287248 0.4287248
