LumaGrade-Vercel/public/luts/velvia-50.cube
TITLE "FUJIFILM Velvia Official F-Log2 Photo Transform"
LUT_3D_SIZE 33
DOMAIN_MIN 0.0 0.0 0.0
DOMAIN_MAX 1.0 1.0 1.0
0.0000000 0.0000000 0.0000000
0.0000223 0.0000251 0.0000137
0.0000858 0.0001089 0.0000169
0.0024560 0.0002784 0.0000898
0.0064396 0.0004536 0.0002493
0.0165475 0.0008955 0.0001204
0.0305925 0.0014252 0.0001140
0.0534225 0.0016409 0.0004419
0.0823786 0.0019027 0.0003747
0.1141701 0.0024101 0.0002491
0.1656384 0.0021039 0.0005580
0.2195336 0.0020785 0.0004063
0.2807287 0.0011023 0.0001591
0.3465783 0.0001262 0.0002725
0.4177715 0.0013560 0.0004276
0.4896535 0.0010501 0.0003547
0.5624533 0.0007014 0.0001100
0.6337933 0.0003285 0.0000170
0.7047292 0.0030555 0.0001198
0.7680304 0.0035792 0.0000748
0.8251644 0.0029316 0.0000101
0.8804646 0.0041644 0.0000599
0.9318530 0.0145340 0.0000961
0.9795846 0.0255207 0.0006132
1.0000000 0.0369952 0.0008289
1.0000000 0.0483144 0.0000225
1.0000000 0.0683701 0.0012450
1.0000000 0.0902329 0.0049357
1.0000000 0.1107943 0.0052069
1.0000000 0.1300272 0.0019393
1.0000000 0.1538858 0.0064099
1.0000000 0.1800270 0.0143549
1.0000000 0.2040586 0.0160800
0.0006687 0.0007506 0.0005316
0.0007191 0.0008856 0.0003050
0.0007782 0.0010227 0.0000547
0.0033776 0.0010108 0.0001620
0.0067225 0.0010249 0.0002563
0.0159781 0.0016856 0.0000914
0.0320123 0.0021449 0.0001164
0.0556878 0.0025083 0.0004030
0.0849018 0.0032782 0.0002929
0.1203457 0.0037037 0.0001869
0.1708872 0.0037429 0.0002456
0.2259479 0.0033257 0.0001030
0.2867643 0.0025401 0.0001566
0.3526856 0.0031601 0.0002938
0.4250524 0.0028163 0.0003207
0.4977905 0.0014667 0.0001757
0.5704563 0.0014296 0.0000321
0.6393101 0.0042570 0.0002082
0.7075465 0.0055592 0.0002065
0.7682917 0.0049559 0.0000942
0.8239996 0.0036632 0.0000156
0.8786814 0.0132453 0.0000533
0.9294042 0.0229533 0.0000776
0.9767166 0.0334204 0.0004256
1.0000000 0.0442760 0.0002877
1.0000000 0.0603852 0.0001265
1.0000000 0.0799330 0.0012765
1.0000000 0.1007806 0.0039441
1.0000000 0.1204035 0.0032550
1.0000000 0.1396670 0.0000570
1.0000000 0.1644880 0.0058655
1.0000000 0.1896363 0.0123372
1.0000000 0.2127469 0.0127603
0.0010411 0.0020471 0.0007567
0.0010226 0.0022330 0.0004852
0.0017097 0.0023095 0.0003516
0.0035525 0.0022463 0.0002887
0.0076391 0.0024790 0.0001456
0.0161483 0.0034322 0.0000344
0.0337193 0.0040410 0.0001262
0.0559474 0.0045690 0.0003111
0.0885162 0.0049138 0.0001610
0.1272067 0.0050836 0.0000584
0.1760917 0.0061034 0.0000130
0.2308339 0.0064613 0.0000674
0.2915994 0.0063197 0.0002118
0.3596079 0.0060569 0.0002617
0.4331048 0.0040709 0.0001590
0.5057532 0.0039231 0.0000561
0.5765381 0.0066225 0.0001709
0.6451870 0.0082160 0.0003817
0.7104522 0.0080831 0.0002812
0.7684112 0.0063413 0.0001075
0.8229315 0.0138374 0.0000151
0.8768371 0.0228858 0.0000437
0.9267957 0.0319539 0.0000539
0.9736728 0.0418926 0.0001977
1.0000000 0.0554914 0.0000745
1.0000000 0.0735020 0.0002454
1.0000000 0.0924791 0.0012464
1.0000000 0.1122500 0.0027866
1.0000000 0.1308729 0.0010360
1.0000000 0.1521394 0.0000579
1.0000000 0.1760923 0.0052012
1.0000000 0.2001680 0.0100527
1.0000000 0.2222785 0.0097120
0.0004106 0.0049487 0.0010303
0.0006838 0.0049631 0.0009267
0.0018368 0.0046758 0.0005993
0.0032748 0.0042843 0.0001565
0.0090887 0.0047920 0.0000040
0.0169693 0.0061074 0.0000575
0.0364553 0.0072121 0.0001849
0.0597415 0.0082664 0.0002437
0.0930207 0.0092362 0.0001251
0.1329071 0.0103193 0.0000221
0.1801855 0.0111358 0.0000047
0.2368843 0.0111040 0.0001021
0.2986749 0.0111218 0.0002253
0.3694449 0.0110632 0.0001439
0.4427309 0.0109905 0.0000700
0.5144614 0.0121452 0.0001363
0.5849663 0.0132350 0.0003690
0.6529304 0.0131241 0.0005633
0.7128668 0.0149285 0.0002912
0.7674859 0.0206610 0.0000615
0.8216963 0.0275777 0.0000123
0.8744635 0.0356817 0.0000260
0.9233120 0.0440018 0.0000149
0.9691255 0.0571508 0.0000405
1.0000000 0.0738866 0.0001664
1.0000000 0.0913648 0.0003905
1.0000000 0.1095608 0.0010875
1.0000000 0.1279049 0.0010618
1.0000000 0.1480768 0.0001742
1.0000000 0.1692802 0.0000586
1.0000000 0.1920543 0.0041622
1.0000000 0.2146778 0.0067722
1.0000000 0.2354364 0.0057766
0.0003755 0.0107691 0.0006098
0.0009701 0.0110431 0.0005458
0.0015452 0.0113916 0.0004973
0.0039582 0.0119073 0.0005047
0.0102921 0.0124097 0.0006152
0.0204594 0.0128454 0.0006793
0.0401189 0.0133263 0.0005895
0.0658732 0.0141123 0.0004200
0.0979781 0.0155330 0.0001115
0.1393636 0.0177831 0.0000186
0.1858203 0.0199446 0.0001061
0.2464348 0.0210535 0.0001839
0.3098274 0.0215564 0.0001104
0.3823540 0.0211828 0.0000554
0.4544577 0.0214514 0.0000804
0.5257713 0.0216816 0.0002792
0.5927728 0.0252153 0.0004280
0.6551643 0.0296324 0.0003688
0.7123813 0.0339431 0.0001348
0.7668605 0.0383079 0.0000206
0.8204660 0.0441064 0.0000047
0.8715023 0.0525839 0.0000000
0.9181301 0.0659784 0.0000000
0.9629441 0.0808504 0.0000875
1.0000000 0.0969826 0.0003085
1.0000000 0.1138057 0.0005436
1.0000000 0.1309998 0.0006718
1.0000000 0.1510571 0.0003090
1.0000000 0.1711538 0.0001310
1.0000000 0.1910501 0.0000578
1.0000000 0.2123421 0.0026145
1.0000000 0.2331553 0.0023532
1.0000000 0.2536751 0.0032857
0.0003715 0.0229172 0.0004620
0.0005309 0.0236156 0.0004735
0.0018319 0.0241202 0.0004762
0.0057992 0.0242924 0.0004684
0.0103729 0.0245240 0.0004411
0.0241358 0.0254296 0.0003597
0.0405773 0.0267279 0.0002901
0.0689325 0.0288030 0.0001384
0.1002123 0.0313444 0.0000064
0.1470345 0.0332916 0.0002166
0.1947953 0.0353094 0.0005332
0.2603229 0.0340148 0.0003250
0.3241794 0.0344639 0.0000213
0.3949534 0.0379457 0.0000491
0.4627159 0.0428198 0.0000692
0.5298763 0.0460640 0.0001476
0.5947441 0.0489991 0.0001683
0.6559232 0.0521356 0.0000926
0.7127310 0.0550783 0.0000118
0.7665719 0.0603826 0.0000006
0.8183864 0.0701242 0.0000000
0.8669132 0.0818515 0.0000000
0.9118549 0.0942458 0.0000000
0.9561109 0.1084401 0.0001758
0.9993785 0.1241076 0.0004379
1.0000000 0.1423658 0.0005513
1.0000000 0.1613798 0.0004011
1.0000000 0.1800026 0.0001893
1.0000000 0.1985204 0.0000900
1.0000000 0.2169907 0.0000527
1.0000000 0.2365207 0.0004011
1.0000000 0.2571896 0.0008949
1.0000000 0.2776485 0.0041371
0.0002589 0.0419929 0.0001250
0.0020150 0.0423423 0.0000957
0.0038194 0.0427778 0.0000644
0.0061154 0.0434694 0.0000221
0.0134723 0.0447386 0.0000042
0.0253640 0.0464726 0.0000165
0.0429694 0.0486680 0.0000277
0.0729840 0.0517848 0.0000152
0.1079699 0.0549913 0.0000635
0.1537177 0.0576935 0.0002629
0.2044966 0.0596872 0.0003262
0.2699282 0.0598880 0.0001418
0.3356394 0.0615229 0.0000425
0.4036352 0.0659421 0.0000373
0.4687827 0.0707559 0.0000242
0.5343225 0.0728204 0.0000188
0.5971767 0.0767598 0.0000176
0.6565027 0.0813145 0.0000125
0.7122475 0.0866653 0.0000098
0.7657958 0.0931817 0.0000021
0.8157413 0.1029727 0.0000000
0.8620336 0.1138915 0.0000000
0.9053113 0.1252559 0.0000000
0.9491459 0.1432233 0.0002005
0.9916519 0.1612052 0.0003062
1.0000000 0.1787075 0.0002990
1.0000000 0.1956942 0.0001849
1.0000000 0.2125559 0.0000897
1.0000000 0.2294720 0.0000551
1.0000000 0.2473694 0.0000480
1.0000000 0.2668366 0.0000897
1.0000000 0.2862919 0.0018157
1.0000000 0.3051572 0.0040005
0.0018493 0.0765626 0.0001859
0.0024120 0.0775357 0.0001103
0.0029772 0.0786508 0.0000263
0.0081825 0.0790211 0.0000303
0.0160544 0.0790313 0.0000823
0.0248706 0.0790035 0.0001491
0.0504872 0.0807068 0.0000955
0.0781958 0.0827415 0.0000218
0.1168475 0.0849509 0.0000093
0.1590728 0.0882061 0.0000575
0.2152171 0.0905351 0.0001011
0.2783013 0.0927038 0.0001021
0.3422785 0.0963654 0.0000913
0.4082646 0.1011342 0.0000965
0.4731810 0.1053932 0.0000992
0.5372414 0.1080151 0.0000715
0.5988368 0.1111608 0.0000458
0.6569258 0.1154226 0.0000321
0.7124084 0.1211243 0.0000185
0.7654748 0.1293801 0.0000143
0.8115850 0.1423113 0.0000441
0.8554642 0.1560011 0.0000546
0.8975917 0.1706047 0.0000411
0.9414985 0.1865902 0.0001265
0.9837473 0.2023132 0.0001323
1.0000000 0.2176421 0.0000808
1.0000000 0.2326836 0.0000279
1.0000000 0.2492654 0.0000395
1.0000000 0.2661926 0.0000572
1.0000000 0.2828447 0.0000872
1.0000000 0.3006933 0.0006376
1.0000000 0.3183794 0.0017783
1.0000000 0.3356166 0.0022468
0.0010128 0.1221385 0.0000923
0.0032362 0.1223800 0.0001029
0.0055408 0.1226906 0.0001115
0.0084952 0.1231951 0.0001181
0.0118961 0.1239612 0.0001177
0.0293460 0.1251889 0.0001084
0.0510066 0.1267576 0.0001109
0.0787039 0.1285352 0.0001487
0.1188319 0.1303323 0.0002182
0.1605797 0.1322816 0.0002561
0.2213663 0.1328123 0.0002082
0.2814091 0.1337630 0.0001580
0.3476261 0.1360701 0.0001455
0.4148540 0.1387897 0.0001405
0.4791480 0.1431237 0.0001205
0.5405824 0.1479723 0.0001087
0.6005543 0.1532336 0.0001454
0.6566687 0.1608004 0.0001691
0.7100672 0.1693717 0.0001825
0.7606873 0.1789506 0.0001834
0.8057327 0.1912843 0.0001508
0.8488040 0.2041949 0.0001086
0.8903924 0.2175392 0.0000656
0.9341091 0.2313897 0.0000451
0.9756823 0.2462505 0.0000173
1.0000000 0.2610388 0.0000026
1.0000000 0.2759163 0.0000210
1.0000000 0.2909033 0.0000532
1.0000000 0.3056784 0.0000989
1.0000000 0.3206386 0.0001628
1.0000000 0.3368242 0.0005206
1.0000000 0.3527792 0.0002230
1.0000000 0.3685667 0.0001311
0.0011192 0.1751468 0.0002558
0.0014063 0.1756065 0.0002337
0.0017100 0.1760999 0.0002094
0.0040657 0.1767292 0.0001891
0.0167916 0.1774076 0.0002324
0.0311359 0.1783351 0.0002854
0.0471636 0.1795499 0.0003439
0.0828609 0.1811189 0.0003255
0.1199999 0.1829299 0.0002862
0.1682473 0.1844748 0.0002360
0.2253728 0.1861301 0.0001924
0.2840686 0.1884216 0.0001562
0.3506986 0.1912012 0.0001414
0.4161986 0.1942008 0.0001217
0.4799997 0.1973207 0.0001598
0.5424088 0.2007121 0.0002781
0.6028768 0.2047052 0.0004472
0.6567002 0.2118888 0.0004264
0.7084825 0.2202705 0.0003538
0.7565905 0.2303749 0.0002610
0.7998980 0.2434958 0.0001569
0.8422832 0.2563118 0.0000820
0.8843213 0.2689592 0.0000360
0.9265507 0.2820066 0.0000166
0.9665575 0.2949045 0.0000054
1.0000000 0.3076676 0.0000004
1.0000000 0.3206874 0.0000362
1.0000000 0.3336476 0.0001000
1.0000000 0.3468986 0.0001718
1.0000000 0.3604572 0.0001696
1.0000000 0.3753227 0.0001459
1.0000000 0.3896315 0.0001153
1.0000000 0.4034511 0.0000795
0.0009251 0.2445421 0.0001262
0.0037708 0.2442272 0.0001319
0.0071592 0.2439520 0.0001394
0.0116247 0.2436118 0.0001490
0.0169658 0.2432430 0.0001594
0.0232067 0.2428976 0.0001690
0.0523368 0.2427610 0.0001805
0.0836892 0.2426931 0.0001889
0.1200130 0.2427877 0.0001868
0.1739224 0.2435274 0.0001498
0.2289122 0.2446860 0.0001137
0.2906367 0.2455630 0.0000853
0.3550775 0.2479382 0.0000630
0.4190132 0.2510856 0.0000347
0.4823037 0.2551311 0.0002154
0.5444691 0.2598992 0.0003674
0.6020435 0.2661370 0.0003824
0.6532780 0.2741573 0.0002717
0.7028607 0.2823129 0.0001698
0.7493079 0.2916398 0.0000938
0.7933068 0.3017225 0.0000498
0.8362307 0.3115493 0.0000216
0.8782190 0.3217545 0.0000077
0.9186284 0.3327839 0.0000022
0.9569899 0.3437854 0.0000002
0.9934512 0.3550384 0.0000000
1.0000000 0.3670240 0.0000894
1.0000000 0.3789938 0.0001461
1.0000000 0.3907781 0.0001562
1.0000000 0.4025930 0.0001384
1.0000000 0.4152277 0.0001110
1.0000000 0.4275086 0.0000792
1.0000000 0.4394880 0.0000445
0.0046373 0.3194655 0.0000784
0.0056321 0.3191195 0.0000964
0.0066906 0.3187699 0.0001173
0.0080930 0.3183392 0.0001478
0.0160428 0.3178155 0.0001879
0.0340062 0.3172070 0.0002330
0.0537622 0.3166503 0.0002829
0.0745383 0.3162173 0.0003368
0.1216749 0.3170063 0.0003313
0.1715472 0.3182285 0.0003310
0.2247578 0.3197444 0.0003393
0.2898385 0.3207698 0.0002429
0.3553642 0.3222824 0.0001140
0.4199343 0.3241499 0.0000737
0.4829689 0.3262673 0.0001407
0.5451717 0.3287629 0.0001926
0.5992086 0.3332028 0.0001588
0.6492859 0.3384806 0.0000945
0.6979472 0.3439846 0.0000265
0.7436891 0.3510296 0.0000026
0.7875957 0.3587309 0.0000090
0.8300318 0.3666325 0.0000063
0.8706614 0.3757996 0.0000000
0.9096711 0.3855746 0.0000000
0.9477216 0.3953022 0.0000191
0.9862545 0.4051650 0.0000714
1.0000000 0.4151210 0.0001143
1.0000000 0.4249915 0.0001296
1.0000000 0.4347647 0.0001324
1.0000000 0.4447896 0.0001262
1.0000000 0.4554285 0.0000958
1.0000000 0.4658885 0.0000634
1.0000000 0.4762430 0.0000278
0.0017047 0.3985243 0.0004126
0.0027899 0.3980436 0.0004441
0.0072891 0.3974373 0.0004648
0.0133695 0.3966401 0.0004926
0.0209020 0.3956907 0.0005267
0.0295636 0.3946576 0.0005655
0.0389355 0.3936221 0.0006068
0.0794250 0.3932024 0.0006407
0.1234721 0.3929134 0.0006987
0.1696314 0.3927731 0.0007882
0.2299914 0.3928563 0.0005938
0.2939633 0.3932238 0.0003219
0.3584420 0.3938656 0.0000348
0.4207662 0.3939183 0.0000656
0.4828892 0.3943277 0.0001043
0.5434989 0.3953350 0.0001370
0.5941519 0.3984583 0.0001328
0.6442108 0.4019218 0.0001434
0.6931844 0.4058810 0.0001674
0.7375607 0.4115810 0.0001355
0.7806651 0.4174077 0.0000843
0.8224729 0.4233600 0.0000106
0.8628348 0.4307952 0.0000054
0.9020983 0.4385350 0.0000211
0.9402429 0.4463483 0.0000379
0.9795940 0.4542436 0.0000517
1.0000000 0.4622454 0.0000674
1.0000000 0.4702303 0.0000878
1.0000000 0.4782166 0.0001139
1.0000000 0.4867071 0.0001037
1.0000000 0.4956704 0.0000678
1.0000000 0.5045516 0.0000382
1.0000000 0.5133286 0.0000148
0.0078026 0.4768914 0.0003291
0.0095777 0.4764126 0.0003505
0.0114996 0.4759044 0.0003747
0.0141041 0.4752341 0.0004093
0.0173410 0.4744331 0.0004560
0.0290831 0.4733857 0.0005291
0.0563845 0.4719679 0.0006370
0.0861335 0.4705000 0.0007548
0.1175079 0.4690483 0.0008768
0.1671925 0.4672358 0.0007567
0.2288272 0.4652676 0.0004921
0.2921094 0.4634287 0.0002235
0.3553227 0.4617812 0.0000950
0.4181591 0.4604298 0.0000871
0.4811888 0.4593971 0.0000822
0.5384449 0.4596265 0.0001225
0.5904279 0.4609642 0.0002165
0.6418481 0.4625964 0.0003362
0.6897459 0.4653355 0.0003734
0.7331385 0.4693388 0.0002411
0.7755854 0.4735126 0.0001073
0.8170117 0.4780443 0.0000000
0.8565708 0.4837512 0.0000061
0.8950456 0.4895795 0.0000173
0.9324685 0.4955124 0.0000295
0.9721375 0.5016721 0.0000472
1.0000000 0.5080335 0.0000622
1.0000000 0.5144936 0.0000697
1.0000000 0.5210503 0.0000723
1.0000000 0.5282115 0.0000551
1.0000000 0.5356283 0.0000330
1.0000000 0.5429244 0.0000163
1.0000000 0.5500291 0.0000048
0.0031625 0.5513228 0.0006225
0.0033604 0.5508474 0.0006868
0.0035538 0.5503342 0.0007596
0.0111134 0.5492098 0.0007916
0.0237380 0.5476170 0.0007976
0.0387898 0.5457406 0.0007940
0.0558517 0.5436450 0.0007727
0.0744139 0.5414062 0.0007239
0.1164567 0.5382786 0.0005789
0.1743433 0.5345745 0.0003905
0.2350599 0.5308072 0.0002044
0.2965393 0.5272568 0.0000526
0.3579670 0.5246265 0.0000236
0.4205196 0.5222202 0.0000074
0.4834221 0.5201317 0.0000093
0.5353369 0.5199368 0.0001462
0.5871160 0.5200574 0.0002636
0.6386067 0.5204900 0.0003654
0.6834160 0.5223094 0.0002783
0.7264925 0.5244363 0.0001702
0.7691323 0.5266309 0.0000760
0.8103098 0.5297417 0.0000381
0.8494405 0.5339652 0.0000551
0.8875766 0.5383041 0.0000643
0.9247125 0.5427356 0.0000622
0.9647103 0.5475567 0.0000521
1.0000000 0.5525852 0.0000409
1.0000000 0.5577599 0.0000305
1.0000000 0.5630784 0.0000233
1.0000000 0.5689355 0.0000114
1.0000000 0.5747532 0.0000025
1.0000000 0.5803497 0.0000000
1.0000000 0.5858005 0.0000000
0.0109205 0.6126606 0.0006933
0.0143033 0.6120092 0.0006663
0.0180091 0.6113039 0.0006362
0.0231069 0.6103491 0.0005936
0.0295755 0.6091655 0.0005377
0.0372533 0.6077942 0.0004682
0.0459100 0.6062574 0.0003881
0.0863951 0.6025576 0.0002946
0.1322373 0.5985015 0.0001966
0.1808588 0.5943075 0.0000975
0.2314220 0.5900755 0.0000006
0.2924780 0.5866147 0.0000058
0.3553767 0.5832939 0.0000123
0.4195372 0.5801641 0.0000196
0.4770521 0.5781734 0.0000803
0.5297635 0.5770258 0.0001825
0.5824837 0.5761037 0.0002951
0.6329784 0.5756051 0.0003693
0.6773169 0.5758629 0.0002917
0.7213589 0.5763002 0.0002069
0.7650590 0.5769324 0.0001096
0.8052440 0.5792806 0.0000968
0.8437899 0.5821365 0.0000949
0.8814148 0.5850923 0.0000755
0.9184973 0.5881859 0.0000377
0.9577506 0.5918642 0.0000118
0.9956481 0.5956128 0.0000004
1.0000000 0.5994104 0.0000008
1.0000000 0.6032769 0.0000000
1.0000000 0.6075816 0.0000000
1.0000000 0.6118793 0.0000000
1.0000000 0.6161699 0.0000000
1.0000000 0.6204543 0.0000000
0.0096986 0.6697767 0.0002979
0.0105258 0.6693472 0.0002869
0.0114104 0.6688778 0.0002743
0.0125869 0.6682340 0.0002559
0.0140047 0.6674204 0.0002306
0.0367705 0.6647546 0.0001925
0.0672525 0.6613720 0.0001484
0.1015369 0.6576265 0.0001009
0.1390128 0.6536092 0.0000517
0.1790258 0.6494167 0.0000027
0.2368713 0.6455058 0.0000092
0.2983276 0.6415960 0.0000197
0.3618724 0.6377307 0.0000310
0.4237062 0.6343137 0.0000719
0.4762682 0.6321079 0.0002177
0.5291725 0.6300214 0.0003914
0.5817138 0.6279240 0.0005946
0.6284440 0.6264508 0.0005758
0.6730957 0.6253918 0.0004560
0.7176922 0.6245721 0.0003096
0.7611836 0.6242976 0.0001588
0.7996561 0.6257399 0.0001182
0.8374325 0.6273986 0.0000677
0.8744332 0.6292857 0.0000206
0.9117606 0.6314255 0.0000021
0.9497675 0.6337691 0.0000025
0.9868217 0.6361803 0.0000020
1.0000000 0.6386449 0.0000010
1.0000000 0.6413546 0.0000000
1.0000000 0.6445069 0.0000000
1.0000000 0.6476977 0.0000000
1.0000000 0.6509264 0.0000000
1.0000000 0.6541934 0.0000000
0.0015752 0.7220413 0.0001629
0.0087496 0.7210007 0.0001574
0.0166768 0.7198522 0.0001513
0.0277027 0.7182567 0.0001429
0.0419064 0.7162050 0.0001319
0.0590834 0.7137286 0.0001184
0.0788762 0.7108813 0.0001025
0.1008037 0.7077335 0.0000842
0.1277477 0.7042996 0.0000670
0.1814890 0.7002018 0.0000755
0.2387493 0.6959365 0.0000852
0.2988763 0.6915759 0.0000964
0.3612611 0.6871865 0.0001096
0.4141661 0.6838143 0.0003073
0.4682378 0.6804899 0.0005303
0.5232484 0.6772400 0.0007794
0.5760365 0.6743779 0.0009220
0.6220050 0.6723352 0.0007212
0.6680810 0.6704101 0.0004800
0.7140493 0.6686242 0.0002030
0.7553123 0.6684079 0.0000897
0.7933182 0.6692491 0.0000719
0.8308636 0.6702389 0.0000479
0.8679141 0.6713531 0.0000141
0.9054442 0.6724394 0.0000029
0.9425149 0.6735646 0.0000021
0.9787275 0.6747613 0.0000012
1.0000000 0.6760179 0.0000003
1.0000000 0.6778066 0.0000000
1.0000000 0.6799767 0.0000000
1.0000000 0.6822204 0.0000000
1.0000000 0.6843965 0.0000158
1.0000000 0.6866436 0.0000446
0.0240416 0.7667013 0.0002052
0.0269981 0.7659068 0.0001949
0.0302472 0.7650275 0.0001831
0.0347330 0.7638017 0.0001659
0.0404490 0.7622176 0.0001422
0.0472556 0.7602938 0.0001111
0.0549323 0.7580650 0.0000714
0.0875281 0.7547869 0.0000641
0.1356309 0.7508081 0.0000769
0.1880700 0.7465401 0.0000927
0.2442339 0.7420534 0.0001119
0.3035130 0.7374176 0.0001350
0.3574892 0.7333288 0.0003565
0.4122190 0.7292616 0.0006188
0.4685374 0.7251611 0.0008612
0.5261373 0.7210854 0.0010758
0.5735925 0.7180595 0.0008325
0.6200547 0.7153421 0.0005740
0.6664614 0.7128696 0.0003537
0.7121531 0.7108072 0.0001872
0.7504150 0.7108320 0.0001644
0.7883504 0.7109324 0.0001261
0.8258986 0.7110893 0.0000690
0.8627995 0.7111150 0.0000000
0.8993380 0.7109248 0.0000000
0.9351983 0.7108908 0.0000000
0.9703797 0.7110255 0.0000000
1.0000000 0.7113419 0.0000000
1.0000000 0.7124653 0.0000203
1.0000000 0.7137665 0.0000529
1.0000000 0.7151824 0.0000977
1.0000000 0.7166323 0.0001538
1.0000000 0.7179528 0.0002226
0.0000557 0.8107015 0.0001440
0.0000598 0.8100461 0.0001251
0.0000646 0.8093189 0.0001046
0.0000719 0.8083024 0.0000766
0.0014400 0.8069351 0.0000451
0.0319636 0.8042211 0.0000791
0.0678141 0.8010389 0.0001203
0.1084642 0.7974374 0.0001689
0.1532404 0.7934780 0.0002249
0.2013661 0.7892304 0.0002880
0.2520031 0.7847687 0.0003580
0.3033900 0.7803737 0.0004885
0.3573769 0.7758369 0.0006018
0.4137194 0.7711842 0.0006864
0.4720649 0.7664591 0.0007377
0.5231328 0.7626820 0.0006503
0.5691951 0.7596648 0.0005187
0.6157535 0.7568221 0.0004281
0.6626428 0.7541714 0.0003819
0.7045728 0.7523734 0.0003386
0.7427906 0.7510983 0.0002618
0.7808342 0.7498625 0.0001690
0.8186206 0.7486897 0.0000595
0.8555292 0.7477224 0.0000000
0.8914414 0.7470354 0.0000000
0.9268246 0.7465510 0.0000000
0.9616702 0.7462822 0.0000000
0.9968047 0.7463370 0.0000124
1.0000000 0.7468145 0.0000737
1.0000000 0.7469691 0.0001355
1.0000000 0.7471480 0.0001963
1.0000000 0.7473510 0.0002533
1.0000000 0.7480107 0.0003402
0.0182070 0.8508614 0.0004958
0.0259765 0.8499454 0.0005006
0.0346217 0.8489252 0.0005059
0.0467539 0.8474920 0.0005133
0.0625732 0.8456202 0.0005230
0.0820033 0.8433160 0.0005349
0.1048222 0.8406017 0.0005489
0.1306821 0.8375131 0.0005646
0.1591328 0.8340967 0.0005818
0.1931874 0.8302789 0.0005901
0.2437649 0.8257032 0.0005551
0.2978326 0.8208806 0.0005085
0.3549541 0.8158671 0.0004495
0.4147125 0.8107170 0.0003775
0.4699954 0.8062302 0.0003294
0.5167299 0.8028582 0.0003485
0.5643739 0.7995441 0.0003938
0.6127115 0.7963084 0.0004676
0.6598765 0.7932860 0.0005358
0.6984175 0.7910026 0.0004236
0.7368875 0.7888554 0.0002984
0.7751733 0.7868735 0.0001597
0.8131779 0.7850881 0.0000070
0.8490831 0.7838615 0.0000000
0.8845376 0.7828724 0.0000000
0.9196228 0.7816760 0.0000052
0.9541993 0.7805435 0.0000034
0.9901365 0.7796071 0.0000443
1.0000000 0.7787981 0.0001166
1.0000000 0.7780460 0.0001813
1.0000000 0.7773508 0.0002360
1.0000000 0.7767130 0.0002784
1.0000000 0.7768703 0.0002036
0.0507910 0.8876649 0.0005938
0.0549920 0.8868782 0.0005875
0.0596605 0.8860006 0.0005804
0.0662008 0.8847650 0.0005701
0.0747070 0.8831468 0.0005561
0.0851170 0.8811475 0.0005380
0.0972817 0.8787819 0.0005153
0.1109748 0.8760763 0.0004876
0.1511802 0.8721775 0.0004269
0.1991701 0.8677881 0.0003571
0.2513638 0.8630742 0.0002832
0.3073278 0.8580929 0.0002072
0.3666223 0.8529021 0.0001316
0.4231036 0.8481005 0.0001154
0.4696508 0.8443391 0.0002290
0.5175701 0.8405312 0.0003603
0.5666031 0.8366999 0.0005098
0.6165230 0.8328633 0.0006782
0.6570812 0.8298839 0.0005985
0.6953050 0.8272837 0.0004449
0.7334965 0.8246729 0.0002848
0.7716790 0.8221153 0.0001248
0.8085403 0.8197499 0.0000382
0.8433659 0.8175191 0.0000384
0.8779163 0.8153742 0.0000321
0.9121411 0.8133354 0.0000194
0.9459990 0.8114242 0.0000009
0.9822195 0.8097300 0.0000548
1.0000000 0.8081939 0.0000979
1.0000000 0.8068172 0.0001272
1.0000000 0.8056035 0.0001435
1.0000000 0.8047397 0.0001380
1.0000000 0.8048127 0.0000970
0.0441335 0.9230425 0.0002813
0.0460229 0.9223673 0.0002718
0.0481298 0.9216138 0.0002612
0.0510948 0.9205525 0.0002467
0.0549754 0.9191617 0.0002283
0.0683228 0.9171288 0.0002064
0.0997521 0.9141457 0.0001811
0.1359498 0.9107169 0.0001527
0.1765412 0.9068807 0.0001217
0.2210553 0.9026848 0.0000887
0.2689504 0.8981834 0.0000539
0.3196047 0.8934038 0.0000229
0.3686573 0.8887863 0.0000577
0.4143579 0.8846159 0.0001895
0.4621005 0.8803292 0.0003238
0.5116297 0.8759599 0.0004593
0.5627155 0.8715383 0.0005948
0.6074289 0.8675187 0.0005901
0.6458179 0.8638677 0.0004579
0.6847579 0.8602048 0.0003285
0.7241421 0.8565506 0.0002022
0.7638819 0.8529258 0.0000793
0.7990037 0.8501797 0.0000654
0.8338086 0.8475957 0.0000511
0.8683617 0.8451736 0.0000338
0.9026048 0.8429361 0.0000138
0.9373632 0.8409036 0.0000112
0.9731499 0.8390399 0.0000352
1.0000000 0.8373318 0.0000505
1.0000000 0.8357838 0.0000575
1.0000000 0.8343996 0.0000571
1.0000000 0.8336759 0.0000504
1.0000000 0.8335570 0.0000520
0.0534155 0.9563796 0.0005490
0.0609522 0.9554960 0.0005337
0.0693821 0.9545073 0.0005165
0.0812908 0.9531096 0.0004920
0.0969601 0.9512687 0.0004592
0.1164313 0.9489782 0.0004177
0.1396289 0.9462444 0.0003671
0.1663720 0.9430858 0.0003071
0.1963885 0.9395302 0.0002376
0.2293311 0.9356139 0.0001586
0.2647941 0.9313787 0.0000701
0.3067330 0.9271390 0.0000989
0.3532815 0.9227825 0.0001839
0.4024472 0.9182329 0.0002726
0.4539370 0.9135271 0.0003642
0.5074737 0.9086998 0.0004581
0.5572309 0.9039785 0.0004918
0.5967099 0.8996203 0.0003984
0.6369731 0.8952663 0.0003044
0.6778788 0.8909470 0.0002100
0.7193050 0.8866918 0.0001152
0.7571375 0.8832004 0.0000651
0.7917933 0.8804027 0.0000501
0.8263069 0.8777980 0.0000345
0.8606023 0.8754119 0.0000186
0.8946145 0.8732693 0.0000028
0.9298644 0.8711360 0.0000076
0.9650512 0.8691061 0.0000127
0.9997863 0.8672309 0.0000135
1.0000000 0.8655150 0.0000108
1.0000000 0.8639627 0.0000052
1.0000000 0.8631364 0.0001096
1.0000000 0.8619904 0.0003857
0.0879613 0.9859782 0.0005385
0.0932133 0.9851683 0.0005161
0.0990889 0.9842610 0.0004910
0.1073913 0.9829765 0.0004555
