LumaGrade-Vercel/public/luts/velvia-50.cube
TITLE "FUJIFILM Velvia Official F-Log2 Photo Transform"
LUT_3D_SIZE 5
DOMAIN_MIN 0.0 0.0 0.0
DOMAIN_MAX 1.0 1.0 1.0
0.0000000 0.0000000 0.0000000
0.0823786 0.0019027 0.0003747
0.5624533 0.0007014 0.0001100
1.0000000 0.0369952 0.0008289
1.0000000 0.2040586 0.0160800
0.0010128 0.1221385 0.0000923
0.1188319 0.1303323 0.0002182
0.6005543 0.1532336 0.0001454
0.9756823 0.2462505 0.0000173
1.0000000 0.3685667 0.0001311
0.0096986 0.6697767 0.0002979
0.1390128 0.6536092 0.0000517
0.5817138 0.6279240 0.0005946
0.9117606 0.6314255 0.0000021
1.0000000 0.6541934 0.0000000
0.0879613 0.9859782 0.0005385
0.1876887 0.9703903 0.0001039
0.5521232 0.9340694 0.0003160
0.8543729 0.9064009 0.0000014
1.0000000 0.8883350 0.0001561
0.1763585 1.0000000 0.0070379
0.2719418 1.0000000 0.0046615
0.5222417 1.0000000 0.0015575
0.7979639 1.0000000 0.0003279
1.0000000 1.0000000 0.0000186
0.0001261 0.0004531 0.0522348
0.1329580 0.0000911 0.0850409
0.6746506 0.0001856 0.1591319
1.0000000 0.0335694 0.2328570
1.0000000 0.1939220 0.3059480
0.0026891 0.1590929 0.1742157
0.1544358 0.1561559 0.1526189
0.6613920 0.1650549 0.1246475
1.0000000 0.2472578 0.1479999
1.0000000 0.3598642 0.2209403
0.0087263 0.6684481 0.1125263
0.1455120 0.6495616 0.0826758
0.5976766 0.6182575 0.0629361
0.9236793 0.6164636 0.0739957
1.0000000 0.6350944 0.1225795
0.0858810 0.9652816 0.1115074
0.1789061 0.9502006 0.0937662
0.5519184 0.9135237 0.0782919
0.8541244 0.8860298 0.0781797
1.0000000 0.8729643 0.0967169
0.1796278 1.0000000 0.1233045
0.2733627 1.0000000 0.1139630
0.5222204 1.0000000 0.1042357
0.7962650 1.0000000 0.1026996
1.0000000 1.0000000 0.1149429
0.0033977 0.0004032 0.3936295
0.2479692 0.0001738 0.5380645
0.8078260 0.0001573 0.7589823
1.0000000 0.0439715 0.7799099
1.0000000 0.2080817 0.7621111
0.0000552 0.2287451 0.7958258
0.2083733 0.2056667 0.7795717
0.7206436 0.2019984 0.7237637
1.0000000 0.2671251 0.6973669
1.0000000 0.3631249 0.6822901
0.0027641 0.6847257 0.7153659
0.1377593 0.6586915 0.6809464
0.6182439 0.6173854 0.6173115
0.9404252 0.6104529 0.5799486
1.0000000 0.6195291 0.5693071
0.0778619 0.9457991 0.6055620
0.1580818 0.9305005 0.5867834
0.5471515 0.8927232 0.5409518
0.8549413 0.8653039 0.5040099
1.0000000 0.8508860 0.4897220
0.1822517 1.0000000 0.5100647
0.2666538 1.0000000 0.4983427
0.5179404 1.0000000 0.4726811
0.7946704 1.0000000 0.4480375
1.0000000 1.0000000 0.4345272
0.0928307 0.0021302 0.9330713
0.4395661 0.0001245 1.0000000
0.8795889 0.0101124 1.0000000
1.0000000 0.0961444 1.0000000
1.0000000 0.2469096 1.0000000
0.0046157 0.3121770 1.0000000
0.3003869 0.2808876 1.0000000
0.7713983 0.2707222 1.0000000
1.0000000 0.3108614 1.0000000
1.0000000 0.3863937 1.0000000
0.0215806 0.6994018 1.0000000
0.1561817 0.6761147 1.0000000
0.6343617 0.6343508 0.9978205
0.9621882 0.6163030 0.9462800
1.0000000 0.6207174 0.9069025
0.0514440 0.9438806 0.9832664
0.1563899 0.9279329 0.9607000
0.5445010 0.8875477 0.9049001
0.8613060 0.8564302 0.8573372
1.0000000 0.8418959 0.8214717
0.1699437 1.0000000 0.8406620
0.2337108 1.0000000 0.8264243
0.5057802 1.0000000 0.7956255
0.7798812 1.0000000 0.7593638
1.0000000 1.0000000 0.7267717
0.2953450 0.0540052 1.0000000
0.5879334 0.0420546 1.0000000
0.9293680 0.0687937 1.0000000
1.0000000 0.1701996 1.0000000
1.0000000 0.2967109 1.0000000
0.0667425 0.3859024 1.0000000
0.3930679 0.3463552 1.0000000
0.8089556 0.3322041 1.0000000
1.0000000 0.3581064 1.0000000
1.0000000 0.4168036 1.0000000
0.0213680 0.7170288 1.0000000
0.2267094 0.6908172 1.0000000
0.6486537 0.6499139 1.0000000
0.9801963 0.6289185 1.0000000
1.0000000 0.6292370 1.0000000
0.0644136 0.9385919 1.0000000
0.2046875 0.9197196 1.0000000
0.5403752 0.8809435 1.0000000
0.8593236 0.8490533 1.0000000
1.0000000 0.8275045 1.0000000
0.1059073 1.0000000 1.0000000
0.1811862 1.0000000 1.0000000
0.4905676 1.0000000 1.0000000
0.7600281 1.0000000 1.0000000
1.0000000 1.0000000 1.0000000
