LumaGrade-Vercel/public/luts/velvia-50.cube
TITLE "FUJIFILM Velvia Official F-Log2 Photo Transform"
LUT_3D_SIZE 9
DOMAIN_MIN 0.0 0.0 0.0
DOMAIN_MAX 1.0 1.0 1.0
0.0000000 0.0000000 0.0000000
0.0064396 0.0004536 0.0002493
0.0823786 0.0019027 0.0003747
0.2807287 0.0011023 0.0001591
0.5624533 0.0007014 0.0001100
0.8251644 0.0029316 0.0000101
1.0000000 0.0369952 0.0008289
1.0000000 0.1107943 0.0052069
1.0000000 0.2040586 0.0160800
0.0003755 0.0107691 0.0006098
0.0102921 0.0124097 0.0006152
0.0979781 0.0155330 0.0001115
0.3098274 0.0215564 0.0001104
0.5927728 0.0252153 0.0004280
0.8204660 0.0441064 0.0000047
1.0000000 0.0969826 0.0003085
1.0000000 0.1711538 0.0001310
1.0000000 0.2536751 0.0032857
0.0010128 0.1221385 0.0000923
0.0118961 0.1239612 0.0001177
0.1188319 0.1303323 0.0002182
0.3476261 0.1360701 0.0001455
0.6005543 0.1532336 0.0001454
0.8057327 0.1912843 0.0001508
0.9756823 0.2462505 0.0000173
1.0000000 0.3056784 0.0000989
1.0000000 0.3685667 0.0001311
0.0017047 0.3985243 0.0004126
0.0209020 0.3956907 0.0005267
0.1234721 0.3929134 0.0006987
0.3584420 0.3938656 0.0000348
0.5941519 0.3984583 0.0001328
0.7806651 0.4174077 0.0000843
0.9402429 0.4463483 0.0000379
1.0000000 0.4782166 0.0001139
1.0000000 0.5133286 0.0000148
0.0096986 0.6697767 0.0002979
0.0140047 0.6674204 0.0002306
0.1390128 0.6536092 0.0000517
0.3618724 0.6377307 0.0000310
0.5817138 0.6279240 0.0005946
0.7611836 0.6242976 0.0001588
0.9117606 0.6314255 0.0000021
1.0000000 0.6413546 0.0000000
1.0000000 0.6541934 0.0000000
0.0182070 0.8508614 0.0004958
0.0625732 0.8456202 0.0005230
0.1591328 0.8340967 0.0005818
0.3549541 0.8158671 0.0004495
0.5643739 0.7995441 0.0003938
0.7368875 0.7888554 0.0002984
0.8845376 0.7828724 0.0000000
1.0000000 0.7787981 0.0001166
1.0000000 0.7768703 0.0002036
0.0879613 0.9859782 0.0005385
0.1183185 0.9812817 0.0004084
0.1876887 0.9703903 0.0001039
0.3534439 0.9536517 0.0002181
0.5521232 0.9340694 0.0003160
0.7183878 0.9161868 0.0000271
0.8543729 0.9064009 0.0000014
0.9911521 0.8965354 0.0000376
1.0000000 0.8883350 0.0001561
0.1360735 1.0000000 0.0009344
0.1643097 1.0000000 0.0009480
0.2312951 1.0000000 0.0009878
0.3622531 1.0000000 0.0006761
0.5447117 1.0000000 0.0001001
0.6897275 1.0000000 0.0000409
0.8256372 1.0000000 0.0000714
0.9521561 1.0000000 0.0000186
1.0000000 0.9984888 0.0019304
0.1763585 1.0000000 0.0070379
0.2042369 1.0000000 0.0064012
0.2719418 1.0000000 0.0046615
0.3806436 1.0000000 0.0023853
0.5222417 1.0000000 0.0015575
0.6748370 1.0000000 0.0005899
0.7979639 1.0000000 0.0003279
0.9240676 1.0000000 0.0002375
1.0000000 1.0000000 0.0000186
0.0000107 0.0004744 0.0036476
0.0074573 0.0017480 0.0042275
0.1006865 0.0019355 0.0096798
0.3204451 0.0006217 0.0138069
0.6016430 0.0004138 0.0097352
0.8506314 0.0000034 0.0121009
1.0000000 0.0352378 0.0269887
1.0000000 0.1071742 0.0459473
1.0000000 0.1995974 0.0862368
0.0005751 0.0132744 0.0099822
0.0133172 0.0142219 0.0129529
0.1156497 0.0171769 0.0143105
0.3512774 0.0237684 0.0060853
0.6218471 0.0236388 0.0035960
0.8444937 0.0418854 0.0062417
1.0000000 0.0958748 0.0109320
1.0000000 0.1677053 0.0232190
1.0000000 0.2496931 0.0609724
0.0010307 0.1357837 0.0028256
0.0114355 0.1366163 0.0032372
0.1346196 0.1397371 0.0025285
0.3733876 0.1429555 0.0004547
0.6248692 0.1569660 0.0000318
0.8223035 0.1941844 0.0000998
0.9897099 0.2426952 0.0000565
1.0000000 0.3045229 0.0067319
1.0000000 0.3654216 0.0237491
0.0013767 0.4121272 0.0000854
0.0202295 0.4105707 0.0003630
0.1298885 0.4048500 0.0004377
0.3751422 0.3965115 0.0006597
0.6033816 0.4024739 0.0002573
0.7905653 0.4171016 0.0000000
0.9491743 0.4438937 0.0000872
1.0000000 0.4750602 0.0001130
1.0000000 0.5088067 0.0004727
0.0102525 0.6690048 0.0003068
0.0148101 0.6652619 0.0000035
0.1436833 0.6518515 0.0002590
0.3679936 0.6343590 0.0000978
0.5880236 0.6234885 0.0002694
0.7639344 0.6204758 0.0001268
0.9156069 0.6265398 0.0000293
1.0000000 0.6354957 0.0003616
1.0000000 0.6470594 0.0034703
0.0211513 0.8457862 0.0003130
0.0642416 0.8403824 0.0003709
0.1579734 0.8284623 0.0004792
0.3575480 0.8101763 0.0003050
0.5661846 0.7941150 0.0006697
0.7373475 0.7830534 0.0006059
0.8859681 0.7758144 0.0001407
1.0000000 0.7714253 0.0000165
1.0000000 0.7700190 0.0049787
0.0878996 0.9784794 0.0042395
0.1178075 0.9738041 0.0037913
0.1860771 0.9629803 0.0021583
0.3533396 0.9462337 0.0016305
0.5521698 0.9272412 0.0010122
0.7176541 0.9111790 0.0000637
0.8544311 0.9000949 0.0000964
0.9918480 0.8901387 0.0002907
1.0000000 0.8836598 0.0002901
0.1348123 1.0000000 0.0006290
0.1623308 1.0000000 0.0006896
0.2275712 1.0000000 0.0008445
0.3596331 1.0000000 0.0006150
0.5442590 1.0000000 0.0031615
0.6892296 1.0000000 0.0059516
0.8251155 1.0000000 0.0082080
0.9517322 1.0000000 0.0110433
1.0000000 0.9943369 0.0188284
0.1772384 1.0000000 0.0160089
0.2049446 1.0000000 0.0141048
0.2722326 1.0000000 0.0092999
0.3803879 1.0000000 0.0038028
0.5217912 1.0000000 0.0021676
0.6738612 1.0000000 0.0005571
0.7971014 1.0000000 0.0004414
0.9236817 1.0000000 0.0061322
1.0000000 1.0000000 0.0198180
0.0001261 0.0004531 0.0522348
0.0164622 0.0000838 0.0600310
0.1329580 0.0000911 0.0850409
0.3869111 0.0001128 0.1205913
0.6746506 0.0001856 0.1591319
0.8991255 0.0001504 0.1916835
1.0000000 0.0335694 0.2328570
1.0000000 0.1038267 0.2722813
1.0000000 0.1939220 0.3059480
0.0006037 0.0158044 0.1088358
0.0170579 0.0184485 0.1127574
0.1458787 0.0205848 0.1303938
0.4123928 0.0201349 0.1455521
0.6744613 0.0192144 0.1564464
0.8837625 0.0419230 0.1792117
1.0000000 0.0945075 0.2087770
1.0000000 0.1660761 0.2422803
1.0000000 0.2470391 0.2764320
0.0026891 0.1590929 0.1742157
0.0178695 0.1581166 0.1641156
0.1544358 0.1561559 0.1526189
0.4164840 0.1530424 0.1360136
0.6613920 0.1650549 0.1246475
0.8469114 0.2001812 0.1286406
1.0000000 0.2472578 0.1479999
1.0000000 0.3012056 0.1814540
1.0000000 0.3598642 0.2209403
0.0015759 0.4362236 0.1461055
0.0113668 0.4322466 0.1287167
0.1360457 0.4213986 0.1031115
0.3955050 0.4070107 0.0823879
0.6226582 0.4069113 0.0673705
0.8040474 0.4182582 0.0716065
0.9611237 0.4412406 0.0904199
1.0000000 0.4679198 0.1212916
1.0000000 0.4991440 0.1622314
0.0087263 0.6684481 0.1125263
0.0214719 0.6644257 0.1039436
0.1455120 0.6495616 0.0826758
0.3751075 0.6303989 0.0682418
0.5976766 0.6182575 0.0629361
0.7718034 0.6143697 0.0658360
0.9236793 0.6164636 0.0739957
1.0000000 0.6254938 0.0884281
1.0000000 0.6350944 0.1225795
0.0272532 0.8352985 0.1157025
0.0675019 0.8300314 0.1088594
0.1547367 0.8184950 0.0929026
0.3594840 0.7997443 0.0705678
0.5686426 0.7818566 0.0491215
0.7395084 0.7701165 0.0417639
0.8872644 0.7636908 0.0487620
1.0000000 0.7594467 0.0694190
1.0000000 0.7583850 0.0974173
0.0858810 0.9652816 0.1115074
0.1143062 0.9607289 0.1061389
0.1789061 0.9502006 0.0937662
0.3522814 0.9327102 0.0852273
0.5519184 0.9135237 0.0782919
0.7153927 0.8975805 0.0771042
0.8541244 0.8860298 0.0781797
0.9927700 0.8784805 0.0831350
1.0000000 0.8729643 0.0967169
0.1348503 1.0000000 0.1182971
0.1614914 1.0000000 0.1140104
0.2246186 1.0000000 0.1037184
0.3576884 1.0000000 0.0907455
0.5426666 1.0000000 0.0747254
0.6868563 1.0000000 0.0686939
0.8234979 1.0000000 0.0710052
0.9511949 0.9938729 0.0817275
1.0000000 0.9845720 0.1020125
0.1796278 1.0000000 0.1233045
0.2069677 1.0000000 0.1205816
0.2733627 1.0000000 0.1139630
0.3805568 1.0000000 0.1069553
0.5222204 1.0000000 0.1042357
0.6735264 1.0000000 0.1021716
0.7962650 1.0000000 0.1026996
0.9229542 1.0000000 0.1073296
1.0000000 1.0000000 0.1149429
0.0019005 0.0001581 0.1762067
0.0323393 0.0000522 0.2033158
0.1845800 0.0004520 0.2663533
0.4627350 0.0000498 0.3523923
0.7505874 0.0000012 0.4508794
0.9420502 0.0000366 0.5012345
1.0000000 0.0319603 0.5288504
1.0000000 0.1060870 0.5417991
1.0000000 0.1964124 0.5536318
0.0006923 0.0198137 0.3179191
0.0297455 0.0214290 0.3387591
0.1942175 0.0202356 0.3773376
0.4837106 0.0171592 0.4278681
0.7368872 0.0155773 0.4632027
0.9172224 0.0441994 0.4840583
1.0000000 0.0983319 0.5027962
1.0000000 0.1695310 0.5143324
1.0000000 0.2483613 0.5263367
0.0007831 0.1920349 0.4931104
0.0251765 0.1870644 0.4843231
0.1785649 0.1772331 0.4704913
0.4611824 0.1644422 0.4570017
0.6932206 0.1792098 0.4424283
0.8705791 0.2094519 0.4416044
1.0000000 0.2523748 0.4485305
1.0000000 0.3028691 0.4581779
1.0000000 0.3575914 0.4710385
0.0026055 0.4587293 0.4952307
0.0053839 0.4523848 0.4820299
0.1502372 0.4380011 0.4518610
0.4154564 0.4180524 0.4171819
0.6401666 0.4131656 0.3929751
0.8204215 0.4215244 0.3836294
0.9779567 0.4404072 0.3865757
1.0000000 0.4642298 0.3917802
1.0000000 0.4927890 0.4095068
0.0066346 0.6720545 0.4499572
0.0329420 0.6663559 0.4401125
0.1428805 0.6506412 0.4134988
0.3860858 0.6302139 0.3843203
0.6075698 0.6144329 0.3576501
0.7781105 0.6093474 0.3428562
0.9307723 0.6113596 0.3385903
1.0000000 0.6159471 0.3453549
1.0000000 0.6243797 0.3584471
0.0368774 0.8276216 0.4133702
0.0723798 0.8220076 0.4049113
0.1486933 0.8096894 0.3858747
0.3609235 0.7900736 0.3589859
0.5685323 0.7723651 0.3358317
0.7395957 0.7602853 0.3187125
0.8893557 0.7519945 0.3131336
1.0000000 0.7473144 0.3162106
1.0000000 0.7474886 0.3221885
0.0820802 0.9524189 0.3809141
0.1076972 0.9478042 0.3751211
0.1655188 0.9371374 0.3616593
0.3475784 0.9205615 0.3395707
0.5473935 0.9019893 0.3169002
0.7144851 0.8854023 0.3009166
0.8541754 0.8734340 0.2951773
0.9944861 0.8650341 0.2933487
1.0000000 0.8598005 0.2983636
0.1324954 1.0000000 0.3453493
0.1570292 1.0000000 0.3405583
0.2150122 1.0000000 0.3291407
0.3529241 1.0000000 0.3144888
0.5423055 1.0000000 0.2963004
0.6849242 1.0000000 0.2852285
0.8228704 0.9915860 0.2791462
0.9523135 0.9803625 0.2784866
1.0000000 0.9714235 0.2847103
0.1827189 1.0000000 0.3209415
0.2092341 1.0000000 0.3176751
0.2735890 1.0000000 0.3097689
0.3789177 1.0000000 0.2990442
0.5207298 1.0000000 0.2875230
0.6709235 1.0000000 0.2775059
0.7957230 1.0000000 0.2741602
0.9214086 1.0000000 0.2728835
1.0000000 1.0000000 0.2734443
0.0033977 0.0004032 0.3936295
0.0597980 0.0000442 0.4403307
0.2479692 0.0001738 0.5380645
0.5553330 0.0004160 0.6786658
0.8078260 0.0001573 0.7589823
0.9788649 0.0007861 0.7766567
1.0000000 0.0439715 0.7799099
1.0000000 0.1213613 0.7724776
1.0000000 0.2080817 0.7621111
0.0034318 0.0302899 0.6029069
0.0522636 0.0282876 0.6291286
0.2614009 0.0214193 0.6986827
0.5564285 0.0144358 0.7561140
0.7758674 0.0234766 0.7593788
0.9476327 0.0584616 0.7575266
1.0000000 0.1158421 0.7543142
1.0000000 0.1841274 0.7441975
1.0000000 0.2587651 0.7351293
0.0000552 0.2287451 0.7958258
0.0242602 0.2212464 0.7875341
0.2083733 0.2056667 0.7795717
0.4990001 0.1906297 0.7503083
0.7206436 0.2019984 0.7237637
0.8931708 0.2303078 0.7089433
1.0000000 0.2671251 0.6973669
1.0000000 0.3134187 0.6892864
1.0000000 0.3631249 0.6822901
0.0027109 0.4858693 0.7729941
0.0029065 0.4804022 0.7629150
0.1581541 0.4608227 0.7305099
0.4368060 0.4376672 0.6952810
0.6616275 0.4283074 0.6668852
0.8373201 0.4335587 0.6462838
0.9954775 0.4481017 0.6335384
1.0000000 0.4681725 0.6250375
1.0000000 0.4910740 0.6247547
0.0027641 0.6847257 0.7153659
0.0457040 0.6764693 0.7046117
0.1377593 0.6586915 0.6809464
0.4031960 0.6356665 0.6460663
0.6182439 0.6173854 0.6173115
0.7880480 0.6123496 0.5931232
0.9404252 0.6104529 0.5799486
1.0000000 0.6122858 0.5706480
1.0000000 0.6195291 0.5693071
0.0458162 0.8256926 0.6571343
0.0743991 0.8202014 0.6491460
0.1451337 0.8077500 0.6312250
0.3650052 0.7858330 0.6051751
0.5718885 0.7665982 0.5780151
0.7437604 0.7539425 0.5551342
0.8949095 0.7455662 0.5389349
1.0000000 0.7404832 0.5284385
1.0000000 0.7391067 0.5233444
0.0778619 0.9457991 0.6055620
0.0990442 0.9412524 0.6000149
0.1580818 0.9305005 0.5867834
0.3473877 0.9119645 0.5641276
0.5471515 0.8927232 0.5409518
0.7150608 0.8769540 0.5221795
0.8549413 0.8653039 0.5040099
0.9958785 0.8563811 0.4937135
1.0000000 0.8508860 0.4897220
0.1263141 1.0000000 0.5529804
0.1476107 1.0000000 0.5482654
0.1976464 1.0000000 0.5369603
0.3462383 1.0000000 0.5219356
0.5419834 1.0000000 0.5024726
0.6837373 0.9957721 0.4882379
0.8229168 0.9819571 0.4761571
0.9530940 0.9703481 0.4674604
1.0000000 0.9612038 0.4629640
0.1822517 1.0000000 0.5100647
0.2069086 1.0000000 0.5066508
0.2666538 1.0000000 0.4983427
0.3711002 1.0000000 0.4866428
0.5179404 1.0000000 0.4726811
0.6695795 1.0000000 0.4589065
0.7946704 1.0000000 0.4480375
0.9206435 1.0000000 0.4405268
1.0000000 1.0000000 0.4345272
0.0360598 0.0004937 0.6590399
0.1123477 0.0003669 0.7172861
0.3396072 0.0000580 0.8364332
0.6363679 0.0002062 0.9687045
0.8461591 0.0017031 0.9951094
1.0000000 0.0114166 0.9922935
1.0000000 0.0658282 0.9800685
1.0000000 0.1447196 0.9543427
1.0000000 0.2265263 0.9335062
0.0241628 0.0474448 0.8780953
0.0909338 0.0449987 0.9141107
0.3334419 0.0322772 0.9877444
0.6090461 0.0228396 1.0000000
0.8111820 0.0435261 0.9852467
0.9800997 0.0832461 0.9710279
1.0000000 0.1392607 0.9512508
1.0000000 0.2066826 0.9271503
1.0000000 0.2742094 0.9095034
0.0093330 0.2691378 1.0000000
0.0338270 0.2613893 1.0000000
0.2506371 0.2414191 1.0000000
0.5347021 0.2263494 0.9695310
0.7476105 0.2337431 0.9397142
0.9200628 0.2563568 0.9157917
1.0000000 0.2899512 0.8945209
1.0000000 0.3287899 0.8735350
1.0000000 0.3723261 0.8608409
0.0011400 0.5142340 0.9878320
0.0391356 0.5055173 0.9758506
0.1830178 0.4843085 0.9463544
0.4577963 0.4621766 0.9074720
0.6799817 0.4505046 0.8755289
0.8539022 0.4507832 0.8519869
1.0000000 0.4589268 0.8286863
1.0000000 0.4740739 0.8128533
1.0000000 0.4958263 0.8023394
0.0203766 0.6916426 0.9209028
0.0486306 0.6845171 0.9103088
0.1400971 0.6684302 0.8870127
0.4121370 0.6430898 0.8546791
0.6261807 0.6254035 0.8213282
0.7975393 0.6152506 0.7958507
0.9512341 0.6117939 0.7766275
1.0000000 0.6127892 0.7590651
1.0000000 0.6190328 0.7478510
0.0546023 0.8263242 0.8595400
0.0769416 0.8209825 0.8515521
0.1593068 0.8081684 0.8327294
0.3738285 0.7869348 0.8024610
0.5760484 0.7670769 0.7745816
0.7483209 0.7526553 0.7512546
0.9009813 0.7423287 0.7307320
1.0000000 0.7358899 0.7132993
1.0000000 0.7342027 0.7011166
0.0634063 0.9442445 0.7989619
0.0766762 0.9401530 0.7931578
0.1454760 0.9293595 0.7792788
0.3449964 0.9096688 0.7569217
0.5451979 0.8895676 0.7319007
0.7151027 0.8725917 0.7076131
0.8562087 0.8599560 0.6878128
0.9988531 0.8495261 0.6743165
1.0000000 0.8439002 0.6645439
0.1140827 1.0000000 0.7386740
0.1312285 1.0000000 0.7337277
0.1843512 1.0000000 0.7222876
0.3413573 1.0000000 0.7063946
0.5402887 1.0000000 0.6864025
0.6827790 0.9893030 0.6694457
0.8224918 0.9746079 0.6528998
0.9540834 0.9623733 0.6379613
1.0000000 0.9535587 0.6251667
0.1810695 1.0000000 0.6810228
0.2034215 1.0000000 0.6772048
0.2574456 1.0000000 0.6678789
0.3627560 1.0000000 0.6550204
0.5127026 1.0000000 0.6388109
0.6619630 1.0000000 0.6229705
0.7869547 1.0000000 0.6097282
0.9123308 1.0000000 0.5963919
1.0000000 1.0000000 0.5843384
0.0928307 0.0021302 0.9330713
0.1942976 0.0013059 0.9924098
0.4395661 0.0001245 1.0000000
0.6947635 0.0000000 1.0000000
0.8795889 0.0101124 1.0000000
1.0000000 0.0356302 1.0000000
1.0000000 0.0961444 1.0000000
1.0000000 0.1713022 1.0000000
1.0000000 0.2469096 1.0000000
0.0485629 0.0774456 1.0000000
0.1517287 0.0703678 1.0000000
0.4052842 0.0540869 1.0000000
0.6505784 0.0550489 1.0000000
0.8424193 0.0763895 1.0000000
1.0000000 0.1174699 1.0000000
1.0000000 0.1705312 1.0000000
1.0000000 0.2297910 1.0000000
1.0000000 0.2926503 1.0000000
0.0046157 0.3121770 1.0000000
0.0861761 0.2999494 1.0000000
0.3003869 0.2808876 1.0000000
0.5732050 0.2658363 1.0000000
0.7713983 0.2707222 1.0000000
0.9417860 0.2854002 1.0000000
1.0000000 0.3108614 1.0000000
1.0000000 0.3457315 1.0000000
1.0000000 0.3863937 1.0000000
0.0201740 0.5347414 1.0000000
0.0581260 0.5256568 1.0000000
0.2125466 0.5059560 1.0000000
0.4785339 0.4830643 1.0000000
0.6964665 0.4702551 1.0000000
0.8675274 0.4664849 1.0000000
1.0000000 0.4721896 0.9969934
1.0000000 0.4838138 0.9737651
1.0000000 0.5026753 0.9597369
0.0215806 0.6994018 1.0000000
0.0322863 0.6929773 1.0000000
0.1561817 0.6761147 1.0000000
0.4197255 0.6520543 1.0000000
0.6343617 0.6343508 0.9978205
0.8056449 0.6224681 0.9712983
0.9621882 0.6163030 0.9462800
1.0000000 0.6160596 0.9236448
1.0000000 0.6207174 0.9069025
0.0560782 0.8293427 1.0000000
0.0717041 0.8248761 1.0000000
0.1769536 0.8111473 1.0000000
0.3808103 0.7883962 0.9810587
0.5814881 0.7691900 0.9509181
0.7530920 0.7532989 0.9236193
0.9069125 0.7422500 0.8991137
1.0000000 0.7351491 0.8790459
1.0000000 0.7323979 0.8635393
0.0514440 0.9438806 0.9832664
0.0594502 0.9399937 0.9773867
0.1563899 0.9279329 0.9607000
0.3541736 0.9074619 0.9327027
0.5445010 0.8875477 0.9049001
0.7155784 0.8701558 0.8793508
0.8613060 0.8564302 0.8573372
1.0000000 0.8474664 0.8378980
1.0000000 0.8418959 0.8214717
0.0899312 1.0000000 0.9128695
0.1010721 1.0000000 0.9079017
0.1695205 1.0000000 0.8961906
0.3361984 1.0000000 0.8774856
0.5364210 1.0000000 0.8543813
0.6811562 0.9843738 0.8335316
0.8207103 0.9692847 0.8128425
0.9523989 0.9564377 0.7932578
1.0000000 0.9445548 0.7756404
0.1699437 1.0000000 0.8406620
0.1886703 1.0000000 0.8365241
0.2337108 1.0000000 0.8264243
0.3478199 1.0000000 0.8132181
0.5057802 1.0000000 0.7956255
0.6534151 1.0000000 0.7773595
0.7798812 1.0000000 0.7593638
0.9048413 1.0000000 0.7425422
1.0000000 1.0000000 0.7267717
0.1864223 0.0122738 1.0000000
0.3013806 0.0017080 1.0000000
0.5255454 0.0093657 1.0000000
0.7388308 0.0013125 1.0000000
0.9086784 0.0331486 1.0000000
1.0000000 0.0726347 1.0000000
1.0000000 0.1318553 1.0000000
1.0000000 0.2010221 1.0000000
1.0000000 0.2705669 1.0000000
0.1161354 0.1263954 1.0000000
0.2281534 0.1132158 1.0000000
0.4644451 0.0937434 1.0000000
0.6899108 0.0965822 1.0000000
0.8661483 0.1189958 1.0000000
1.0000000 0.1552754 1.0000000
1.0000000 0.2021593 1.0000000
1.0000000 0.2556218 1.0000000
1.0000000 0.3131608 1.0000000
0.0533188 0.3458615 1.0000000
0.0986628 0.3355387 1.0000000
0.3553696 0.3160426 1.0000000
0.5964443 0.3022066 1.0000000
0.7902653 0.3020804 1.0000000
0.9592698 0.3138032 1.0000000
1.0000000 0.3352354 1.0000000
1.0000000 0.3633900 1.0000000
1.0000000 0.4007437 1.0000000
0.0241596 0.5514548 1.0000000
0.0369541 0.5450725 1.0000000
0.2494312 0.5241899 1.0000000
0.5025568 0.5017888 1.0000000
0.7123766 0.4881850 1.0000000
0.8816642 0.4823022 1.0000000
1.0000000 0.4860381 1.0000000
1.0000000 0.4947841 1.0000000
1.0000000 0.5108409 1.0000000
0.0105423 0.7071095 1.0000000
0.0126572 0.7024936 1.0000000
0.1943395 0.6833898 1.0000000
0.4270221 0.6602348 1.0000000
0.6424488 0.6414468 1.0000000
0.8147018 0.6292930 1.0000000
0.9714811 0.6222971 1.0000000
1.0000000 0.6202641 1.0000000
1.0000000 0.6248004 1.0000000
0.0427389 0.8327288 1.0000000
0.0639495 0.8282050 1.0000000
0.1923053 0.8128364 1.0000000
0.3780250 0.7910156 1.0000000
0.5919611 0.7701556 1.0000000
0.7579320 0.7554877 1.0000000
0.9108943 0.7439284 1.0000000
1.0000000 0.7370266 1.0000000
1.0000000 0.7348295 1.0000000
0.0480905 0.9440301 1.0000000
0.0704963 0.9398948 1.0000000
0.1854001 0.9264798 1.0000000
0.3665409 0.9054954 1.0000000
0.5446477 0.8868954 1.0000000
0.7156994 0.8699396 1.0000000
0.8611874 0.8562475 1.0000000
1.0000000 0.8440793 0.9964447
1.0000000 0.8363103 0.9748457
0.0484714 1.0000000 1.0000000
0.0524514 1.0000000 1.0000000
0.1561840 1.0000000 1.0000000
0.3297682 1.0000000 1.0000000
0.5240531 0.9913263 1.0000000
0.6756864 0.9733883 0.9911845
0.8147945 0.9576642 0.9671792
0.9458884 0.9438202 0.9436937
1.0000000 0.9311856 0.9203497
0.1480943 1.0000000 0.9990071
0.1622838 1.0000000 0.9950895
0.2086244 1.0000000 0.9855971
0.3313360 1.0000000 0.9701177
0.4982390 1.0000000 0.9491818
0.6414135 1.0000000 0.9269345
0.7705240 1.0000000 0.9037005
0.8948310 1.0000000 0.8842593
1.0000000 1.0000000 0.8654219
0.2953450 0.0540052 1.0000000
0.4020663 0.0496255 1.0000000
0.5879334 0.0420546 1.0000000
0.7682523 0.0443911 1.0000000
0.9293680 0.0687937 1.0000000
1.0000000 0.1154954 1.0000000
1.0000000 0.1701996 1.0000000
1.0000000 0.2318564 1.0000000
1.0000000 0.2967109 1.0000000
0.2015698 0.1840715 1.0000000
0.3220847 0.1689500 1.0000000
0.5243691 0.1474842 1.0000000
0.7172819 0.1438315 1.0000000
0.8871944 0.1604646 1.0000000
1.0000000 0.1944020 1.0000000
1.0000000 0.2352490 1.0000000
1.0000000 0.2833100 1.0000000
1.0000000 0.3361220 1.0000000
0.0667425 0.3859024 1.0000000
0.1815965 0.3700217 1.0000000
0.3930679 0.3463552 1.0000000
0.6224023 0.3324140 1.0000000
0.8089556 0.3322041 1.0000000
0.9738505 0.3412218 1.0000000
1.0000000 0.3581064 1.0000000
1.0000000 0.3849253 1.0000000
1.0000000 0.4168036 1.0000000
0.0202554 0.5676818 1.0000000
0.1057799 0.5581393 1.0000000
0.2815730 0.5387597 1.0000000
0.5318920 0.5176342 1.0000000
0.7264600 0.5036317 1.0000000
0.8935889 0.4978772 1.0000000
1.0000000 0.4980162 1.0000000
1.0000000 0.5059148 1.0000000
1.0000000 0.5213594 1.0000000
0.0213680 0.7170288 1.0000000
0.0853021 0.7089072 1.0000000
0.2267094 0.6908172 1.0000000
0.4381715 0.6695856 1.0000000
0.6486537 0.6499139 1.0000000
0.8210775 0.6363267 1.0000000
0.9801963 0.6289185 1.0000000
1.0000000 0.6262899 1.0000000
1.0000000 0.6292370 1.0000000
0.0392727 0.8341402 1.0000000
0.0893854 0.8279103 1.0000000
0.2031164 0.8135558 1.0000000
0.3774008 0.7939980 1.0000000
0.5966593 0.7736009 1.0000000
0.7639725 0.7570541 1.0000000
0.9180110 0.7454635 1.0000000
1.0000000 0.7367399 1.0000000
1.0000000 0.7320278 1.0000000
0.0644136 0.9385919 1.0000000
0.1060326 0.9330063 1.0000000
0.2046875 0.9197196 1.0000000
0.3581773 0.8992372 1.0000000
0.5403752 0.8809435 1.0000000
0.7126115 0.8636415 1.0000000
0.8593236 0.8490533 1.0000000
1.0000000 0.8366000 1.0000000
1.0000000 0.8275045 1.0000000
0.0273982 1.0000000 1.0000000
0.0694056 1.0000000 1.0000000
0.1713239 1.0000000 1.0000000
0.3377159 0.9933571 1.0000000
0.5099713 0.9750079 1.0000000
0.6665214 0.9582725 1.0000000
0.8029083 0.9432991 1.0000000
0.9343366 0.9296033 1.0000000
1.0000000 0.9172720 1.0000000
0.1059073 1.0000000 1.0000000
0.1141591 1.0000000 1.0000000
0.1811862 1.0000000 1.0000000
0.3119979 1.0000000 1.0000000
0.4905676 1.0000000 1.0000000
0.6264049 1.0000000 1.0000000
0.7600281 1.0000000 1.0000000
0.8820093 1.0000000 1.0000000
1.0000000 1.0000000 1.0000000
