LumaGrade-Vercel/public/luts/vision3-250d-2383.cube
TITLE "Kodak Vision3 250D 5207 to 2383 Spectral Print"
LUT_3D_SIZE 9
0.0106561 0.0076021 0.0056580
0.0785442 0.0132390 0.0049492
0.3255476 0.0218111 0.0125840
0.4668884 0.0382231 0.0252784
0.5359007 0.0501052 0.0337550
0.5865622 0.0622651 0.0410546
0.6349939 0.0779084 0.0484737
0.6827319 0.0975850 0.0556425
0.7246850 0.1398783 0.0594827
0.0093524 0.0153165 0.0066094
0.0282806 0.0196268 0.0063073
0.1902407 0.0414715 0.0046739
0.4035421 0.0501129 0.0178887
0.5360048 0.0630019 0.0341718
0.6055840 0.0784219 0.0442090
0.6574333 0.0977490 0.0509235
0.7019175 0.1318861 0.0561458
0.7379962 0.1729667 0.0614340
0.0027155 0.0741061 0.0091365
0.0481595 0.0898694 0.0076478
0.1388645 0.1117708 0.0049504
0.3363579 0.1470369 0.0122333
0.5254038 0.1681567 0.0308982
0.6182104 0.1807251 0.0438848
0.6816583 0.1952811 0.0531771
0.7302752 0.2200110 0.0603022
0.7663742 0.2500274 0.0655947
0.0037852 0.1576551 0.0095748
0.0154225 0.1745235 0.0066784
0.1623518 0.2151325 0.0055500
0.3043196 0.2475367 0.0112355
0.4775071 0.2814468 0.0251731
0.6387877 0.3064518 0.0468973
0.7081566 0.3210089 0.0570601
0.7536111 0.3376880 0.0637232
0.7927288 0.3545375 0.0694591
0.0067164 0.2426518 0.0086441
0.0072721 0.2542949 0.0084127
0.2040557 0.3186665 0.0110084
0.3141128 0.3540291 0.0135800
0.4734253 0.3901250 0.0247173
0.6044829 0.4181632 0.0418756
0.7174404 0.4409590 0.0584209
0.7812312 0.4565404 0.0677731
0.8178363 0.4701554 0.0731413
0.0116922 0.3286956 0.0191734
0.0122295 0.3363038 0.0159762
0.1531700 0.3988813 0.0206928
0.3869505 0.4614611 0.0234104
0.4932708 0.4891098 0.0313613
0.6055955 0.5173514 0.0458042
0.6998089 0.5388995 0.0592499
0.7773841 0.5565183 0.0681557
0.8325222 0.5702302 0.0770092
0.0181187 0.4083618 0.0599561
0.0188107 0.4158018 0.0575553
0.0929758 0.4635124 0.0428780
0.3920227 0.5369086 0.0323784
0.5201252 0.5735264 0.0374430
0.6223671 0.5962757 0.0586397
0.6977542 0.6170266 0.0694182
0.7663749 0.6330649 0.0898836
0.8168232 0.6462434 0.1010017
0.0255374 0.4807386 0.1181357
0.0263122 0.4875194 0.1170813
0.0297487 0.5162418 0.1125044
0.3521699 0.5912120 0.0960153
0.5776910 0.6461294 0.0804042
0.6205516 0.6615727 0.0913319
0.7100366 0.6798841 0.0842974
0.7629603 0.6954447 0.1067790
0.8128552 0.7077554 0.1187890
0.0339780 0.5489964 0.1830343
0.0347861 0.5549750 0.1827253
0.0373112 0.5731421 0.1817318
0.3001868 0.6383539 0.1707551
0.5582447 0.6949341 0.1631430
0.6637691 0.7226694 0.1751374
0.6944587 0.7340971 0.1876877
0.7712981 0.7485096 0.1898798
0.8085527 0.7601309 0.2097765
0.0086018 0.0101164 0.0240995
0.0430563 0.0134788 0.0220681
0.2903850 0.0298093 0.0109305
0.4866654 0.0411220 0.0299063
0.5568388 0.0543503 0.0388244
0.5999507 0.0667610 0.0447365
0.6469188 0.0815582 0.0519322
0.6900234 0.1088331 0.0564978
0.7316529 0.1514651 0.0605041
0.0108190 0.0203658 0.0161807
0.0372452 0.0257747 0.0153841
0.2256403 0.0520826 0.0116826
0.4419375 0.0629440 0.0218997
0.5499957 0.0753229 0.0362311
0.6212485 0.0933267 0.0461821
0.6725147 0.1154253 0.0521124
0.7127175 0.1504854 0.0577286
0.7467704 0.1884870 0.0627203
0.0077817 0.0939472 0.0247200
0.0409553 0.1026124 0.0232818
0.1556353 0.1281947 0.0190494
0.3500156 0.1609639 0.0149783
0.5284775 0.1845466 0.0312897
0.6296426 0.1996927 0.0455585
0.6928794 0.2176596 0.0548214
0.7417447 0.2417485 0.0619836
0.7764242 0.2693645 0.0670683
0.0049067 0.1973492 0.0317957
0.0592645 0.2122716 0.0288282
0.1805365 0.2364994 0.0221222
0.3105699 0.2696526 0.0168937
0.5065413 0.3061768 0.0304799
0.6464956 0.3282875 0.0480261
0.7164445 0.3436745 0.0582748
0.7608066 0.3585589 0.0647782
0.8000196 0.3761959 0.0705283
0.0085255 0.2781512 0.0462843
0.0100712 0.3042111 0.0403319
0.2053258 0.3485381 0.0320651
0.3285063 0.3814051 0.0235282
0.4732603 0.4155231 0.0348057
0.6281960 0.4444583 0.0567852
0.7260804 0.4634298 0.0643030
0.7853445 0.4762588 0.0696297
0.8222170 0.4884732 0.0783702
0.0153832 0.3770893 0.0734659
0.0173790 0.4002121 0.0684599
0.1884019 0.4428665 0.0566720
0.4104376 0.4869686 0.0383493
0.4687400 0.5098380 0.0456154
0.6036108 0.5390597 0.0600401
0.7104360 0.5590890 0.0829347
0.7804469 0.5747316 0.0916243
0.8343357 0.5866449 0.1056260
0.0222445 0.4504446 0.1186230
0.0241229 0.4680318 0.1157726
0.1282271 0.5041794 0.1091369
0.4098679 0.5644668 0.0976243
0.5346925 0.5926074 0.0877367
0.6000196 0.6125297 0.0959565
0.6923444 0.6336265 0.0981736
0.7722555 0.6488830 0.1058567
0.8183520 0.6610205 0.1199768
0.0291069 0.5110338 0.1723608
0.0310103 0.5262865 0.1708857
0.0734335 0.5605008 0.1679309
0.3779717 0.6177779 0.1545883
0.5868189 0.6623502 0.1507422
0.6274427 0.6753246 0.1599826
0.6943127 0.6928177 0.1701985
0.7557691 0.7079932 0.1832424
0.8153918 0.7194455 0.1848305
0.0363735 0.5664825 0.2274821
0.0382381 0.5796275 0.2268306
0.0544965 0.6111570 0.2262171
0.3300028 0.6603815 0.2200994
0.5745639 0.7119881 0.2151911
0.6689337 0.7330531 0.2226932
0.6982054 0.7435452 0.2344053
0.7614823 0.7581318 0.2470207
0.8032870 0.7694308 0.2622102
0.0105326 0.0073613 0.1957913
0.0448996 0.0171161 0.1820671
0.2197821 0.0314648 0.1871351
0.4686998 0.0528642 0.1411227
0.5671825 0.0567692 0.1219776
0.6384834 0.0821045 0.1467464
0.6956788 0.1145198 0.1686868
0.7326037 0.1614487 0.1589876
0.7619376 0.2079259 0.1482111
0.0103927 0.0364195 0.1569415
0.0527897 0.0482181 0.1446137
0.2980275 0.0783222 0.1432710
0.4704130 0.0917310 0.1521733
0.5923467 0.1034956 0.1273920
0.6606587 0.1338698 0.1466908
0.7064604 0.1644764 0.1482933
0.7411901 0.1962092 0.1360192
0.7730414 0.2336690 0.1302921
0.0039639 0.1278431 0.1651509
0.0178358 0.1395696 0.1656903
0.1696112 0.1664844 0.1622897
0.3880289 0.1999217 0.1520173
0.5820090 0.2244972 0.1430021
0.6748525 0.2416461 0.1321524
0.7219906 0.2600836 0.1350633
0.7627545 0.2829081 0.1381822
0.7963765 0.3111596 0.1405782
0.0068096 0.2446591 0.1798486
0.0201683 0.2550994 0.1839411
0.1338236 0.2806846 0.1814615
0.3179667 0.3164993 0.1736375
0.5269616 0.3510429 0.1675282
0.6467966 0.3673985 0.1545962
0.7275033 0.3838734 0.1531377
0.7804050 0.4001465 0.1648451
0.8167028 0.4166473 0.1635004
0.0423836 0.3712792 0.2052697
0.0895975 0.3807958 0.2089635
0.1809105 0.4005764 0.2038881
0.2910450 0.4265473 0.2081329
0.4997935 0.4642272 0.1967905
0.6452601 0.4863617 0.1791441
0.7259316 0.4991488 0.1641249
0.7895082 0.5132115 0.1738245
0.8297563 0.5258978 0.1903771
0.1457355 0.4838841 0.2254054
0.1842235 0.4903806 0.2260028
0.2413571 0.5024752 0.2271928
0.3695877 0.5264981 0.2224386
0.4806539 0.5515388 0.2230643
0.6077508 0.5767516 0.2168474
0.7150659 0.5950640 0.2088531
0.7843742 0.6071219 0.2049843
0.8360585 0.6169900 0.2072357
0.0286903 0.5076174 0.2485255
0.0573649 0.5219710 0.2488140
0.1447071 0.5565368 0.2498598
0.3918596 0.5992190 0.2459179
0.5464112 0.6287735 0.2454790
0.5905604 0.6465309 0.2683859
0.6958011 0.6639118 0.2544529
0.7760393 0.6780736 0.2526163
0.8259349 0.6882334 0.2573144
0.0349352 0.5560690 0.2795024
0.0372643 0.5728117 0.2800357
0.1466630 0.6140454 0.2835079
0.3883116 0.6550512 0.2828200
0.5742215 0.6874647 0.2773176
0.6412899 0.7041924 0.2914749
0.6819499 0.7189325 0.3110195
0.7572405 0.7315378 0.3034120
0.8181527 0.7419298 0.3030923
0.0587848 0.6257194 0.3215799
0.1198223 0.6383975 0.3220622
0.1968809 0.6683571 0.3239501
0.3897736 0.7024932 0.3244289
0.5673264 0.7345833 0.3213062
0.6835778 0.7550488 0.3242858
0.7055090 0.7651874 0.3418677
0.7485095 0.7771370 0.3561552
0.8028423 0.7870473 0.3563801
0.0265955 0.0171265 0.2875375
0.0463503 0.0130161 0.3228145
0.2113533 0.0500944 0.3306428
0.4035782 0.0735286 0.3468601
0.5625815 0.0927736 0.3334853
0.6450663 0.1022042 0.3415834
0.6999730 0.1307532 0.2907221
0.7530217 0.1936581 0.3236502
0.7905830 0.2485549 0.3705639
0.0288014 0.0399196 0.3415361
0.0483184 0.0608489 0.3361387
0.3959844 0.0998034 0.3247240
0.5105904 0.1195251 0.3139591
0.6232668 0.1359558 0.3161816
0.6727328 0.1708325 0.3496974
0.7214980 0.1927248 0.3048019
0.7674603 0.2394162 0.3360121
0.8013396 0.2850856 0.3645804
0.0239710 0.1554275 0.3188148
0.0570324 0.1695019 0.3311933
0.2196824 0.2045338 0.3439859
0.4413213 0.2363723 0.3413029
0.5863304 0.2577177 0.3312992
0.6906608 0.2809217 0.3516019
0.7549014 0.3031396 0.3310852
0.7927355 0.3302377 0.3385083
0.8161919 0.3537068 0.3406785
0.0132481 0.2801789 0.3501490
0.0279495 0.2908636 0.3531368
0.1556966 0.3244669 0.3631763
0.3551250 0.3575709 0.3630360
0.5451111 0.3885099 0.3605834
0.6846949 0.4086618 0.3493784
0.7617797 0.4257891 0.3472273
0.8091523 0.4420362 0.3422845
0.8343785 0.4567157 0.3368559
0.0183574 0.4109488 0.3771898
0.0675980 0.4186555 0.3775396
0.1657934 0.4401994 0.3850062
0.3280458 0.4688114 0.3804795
0.4838344 0.4996743 0.3752219
0.6532241 0.5252912 0.3716059
0.7391272 0.5384219 0.3683419
0.7979360 0.5497582 0.3633267
0.8376148 0.5605865 0.3589391
0.0648297 0.5034399 0.3916960
0.0910465 0.5127650 0.3962189
0.1655739 0.5359876 0.4065540
0.3329279 0.5614413 0.4016903
0.4474638 0.5858556 0.4029830
0.6246663 0.6149252 0.3959725
0.7246648 0.6315836 0.3923453
0.7907214 0.6392632 0.3758424
0.8298719 0.6477003 0.3776348
0.1940219 0.6046042 0.4186653
0.2425413 0.6119045 0.4209195
0.3100284 0.6230820 0.4216205
0.4026051 0.6395031 0.4211022
0.4909978 0.6581641 0.4253954
0.5927670 0.6784707 0.4272949
0.7069632 0.6968782 0.4202272
0.7866192 0.7083092 0.4126234
0.8254653 0.7147757 0.4034322
0.3373707 0.6759537 0.4371696
0.3748594 0.6826789 0.4386312
0.4180531 0.6909497 0.4406227
0.4706622 0.7020223 0.4432468
0.5529600 0.7174528 0.4431294
0.6264747 0.7311187 0.4407883
0.6807693 0.7441519 0.4472669
0.7594795 0.7573280 0.4428028
0.8164380 0.7662125 0.4387054
0.2786496 0.7049735 0.4542059
0.3054554 0.7113976 0.4549128
0.3784220 0.7250676 0.4558041
0.4837648 0.7450618 0.4570574
0.5538341 0.7587018 0.4581337
0.6536396 0.7757341 0.4574986
0.7050011 0.7874035 0.4675140
0.7432923 0.7977337 0.4781480
0.8029143 0.8062775 0.4686406
0.0433067 0.0306770 0.3790823
0.0557304 0.0233432 0.4276887
0.2301136 0.0536421 0.4499948
0.4127201 0.0980078 0.4672758
0.5417186 0.1233576 0.4816499
0.6708919 0.1343324 0.4411196
0.7228312 0.1856734 0.4577150
0.7597145 0.2326710 0.4919139
0.7906303 0.2582484 0.4459329
0.0461723 0.0700695 0.4402477
0.0718271 0.0907636 0.4491859
0.2233025 0.1124932 0.4810427
0.5294456 0.1524042 0.4797928
0.6070651 0.1735473 0.4845518
0.6974547 0.1979598 0.4544520
0.7405347 0.2294840 0.4582935
0.7783160 0.2744887 0.4877729
0.8055966 0.3022036 0.4572769
0.0222736 0.1858931 0.4507239
0.1135505 0.2041709 0.4535933
0.2790899 0.2385171 0.4730605
0.4970008 0.2720018 0.4812102
0.6482816 0.2936928 0.4795081
0.7241419 0.3135649 0.4835156
0.7634453 0.3367188 0.4986252
0.8030537 0.3595387 0.4942388
0.8314266 0.3863520 0.4791812
0.0392895 0.3118777 0.4723977
0.0280031 0.3297648 0.4855006
0.2003251 0.3573507 0.4989322
0.4110957 0.3931506 0.5092515
0.5794724 0.4190342 0.5018156
0.6805890 0.4369538 0.4919184
0.7477934 0.4544426 0.5039567
0.8184876 0.4744285 0.5110874
0.8530719 0.4929091 0.4980915
0.0594291 0.4301357 0.4974115
0.0866614 0.4381593 0.5004715
0.1163367 0.4624091 0.5131036
0.3621185 0.5016295 0.5218848
0.5284528 0.5302525 0.5239720
0.6569189 0.5517110 0.5221469
0.7530542 0.5662402 0.5149559
0.8168631 0.5796984 0.5137730
0.8567904 0.5922403 0.5115504
0.1071948 0.5464277 0.5290179
0.1383591 0.5504295 0.5277631
0.2595707 0.5704282 0.5332980
0.3828045 0.5939053 0.5402311
0.5297616 0.6202295 0.5396889
0.6159677 0.6376805 0.5327610
0.7401033 0.6558056 0.5282567
0.7964054 0.6666192 0.5308704
0.8408052 0.6734464 0.5264730
0.1427215 0.6118685 0.5322467
0.1656823 0.6175048 0.5347730
0.2156867 0.6307952 0.5409580
0.3243132 0.6513056 0.5469355
0.4894477 0.6793392 0.5472977
0.5779769 0.6974161 0.5473903
0.7035655 0.7180148 0.5442898
0.7817659 0.7303143 0.5431165
0.8279597 0.7378920 0.5420925
0.2817634 0.6923585 0.5579945
0.3073873 0.6963295 0.5598611
0.3649551 0.7059318 0.5644721
0.4446092 0.7199871 0.5659447
0.5354179 0.7360101 0.5620670
0.6040102 0.7499541 0.5624969
0.6799166 0.7650076 0.5658278
0.7677979 0.7784753 0.5630510
0.8219322 0.7867916 0.5593727
0.3845883 0.7476787 0.5716273
0.4147245 0.7528980 0.5730792
0.4806510 0.7647974 0.5764029
0.5286681 0.7733701 0.5767451
0.5849208 0.7835486 0.5768673
0.6354206 0.7936522 0.5792857
0.6805289 0.8035534 0.5836461
0.7460461 0.8147917 0.5817292
0.8083665 0.8243738 0.5779026
0.0578313 0.0591202 0.4849157
0.0613789 0.0787555 0.5135190
0.2421961 0.1037973 0.5501175
0.4360875 0.1350089 0.5724623
0.5769249 0.1587366 0.5840189
0.6515304 0.1928956 0.5940673
0.7367046 0.2291886 0.5597495
0.7756189 0.2787785 0.5848909
0.8100765 0.3180844 0.5851607
0.0492851 0.1191461 0.5110018
0.0888008 0.1422723 0.5243200
0.2475883 0.1562293 0.5657379
0.4315475 0.1913980 0.5900353
0.6341061 0.2197643 0.5843952
0.6825119 0.2443677 0.5967396
0.7547804 0.2704101 0.5541472
0.7904989 0.3134075 0.5771974
0.8208248 0.3525197 0.5921362
0.0335870 0.2214215 0.5460739
0.0990770 0.2344386 0.5629975
0.2182111 0.2634866 0.5841236
0.6019557 0.3108155 0.5792673
0.6613932 0.3291889 0.5801950
0.7356793 0.3471606 0.5815248
0.7895965 0.3715400 0.5869164
0.8124931 0.3907979 0.5809592
0.8428451 0.4268522 0.6057226
0.0725116 0.3462098 0.5593191
0.0720221 0.3589156 0.5707185
0.2099360 0.3814972 0.5862600
0.4521758 0.4241889 0.6027522
0.6317395 0.4541920 0.6111385
0.7383664 0.4711798 0.6083538
0.7820013 0.4827893 0.6008638
0.8215961 0.5010661 0.6126181
0.8554528 0.5204640 0.6189288
0.1035838 0.4628837 0.5921071
0.1624596 0.4740020 0.5992589
0.2448753 0.5008342 0.6148188
0.3772951 0.5251806 0.6218035
0.5813311 0.5593607 0.6275443
0.6751778 0.5736414 0.6173642
0.7510585 0.5877069 0.6105774
0.8029965 0.6007091 0.6163816
0.8559906 0.6143295 0.6236020
0.1325038 0.5574344 0.6115516
0.1290648 0.5652936 0.6154017
0.1693219 0.5826574 0.6236184
0.3605962 0.6097892 0.6309195
0.5394413 0.6398978 0.6365609
0.6460088 0.6581233 0.6363977
0.7336802 0.6726865 0.6332497
0.7984695 0.6835790 0.6310557
0.8488125 0.6926172 0.6255618
0.2469994 0.6481026 0.6371804
0.2634172 0.6514724 0.6373513
0.3051221 0.6606201 0.6379339
0.4408296 0.6846722 0.6453066
0.5609227 0.7058740 0.6498481
0.6543524 0.7225119 0.6486192
0.7135038 0.7342336 0.6437528
0.7880418 0.7456034 0.6385568
0.8395430 0.7539271 0.6364157
0.2902849 0.7058214 0.6406321
0.3039803 0.7104990 0.6425935
0.3509372 0.7205279 0.6462781
0.4353591 0.7339036 0.6509928
0.5238520 0.7487354 0.6532229
0.6080700 0.7637674 0.6497824
0.6704817 0.7767438 0.6497325
0.7572489 0.7915111 0.6484372
0.8238785 0.8008718 0.6469035
0.3220277 0.7536690 0.6526681
0.3452660 0.7571202 0.6540024
0.3977497 0.7653539 0.6572461
0.4720072 0.7777601 0.6623863
0.5548911 0.7920834 0.6642694
0.6334045 0.8059213 0.6633174
0.6850962 0.8161119 0.6635376
0.7397100 0.8265467 0.6632894
0.8098666 0.8368112 0.6600501
0.0571828 0.1280554 0.5477791
0.0551488 0.1466890 0.5709334
0.2432254 0.1789832 0.6171594
0.4521481 0.2009485 0.6436438
0.5845291 0.2337587 0.6594636
0.6865429 0.2559854 0.6606602
0.7255583 0.2886667 0.6732056
0.7914427 0.3272579 0.6538270
0.8191586 0.3703729 0.6795857
0.0371022 0.1767867 0.5716674
0.1094736 0.1920038 0.5925599
0.2585123 0.2194560 0.6308185
0.4491048 0.2458878 0.6558359
0.5849228 0.2728653 0.6693805
0.7125187 0.3015556 0.6615545
0.7425278 0.3259480 0.6767189
0.8022618 0.3536241 0.6479970
0.8303037 0.3981828 0.6786107
0.0825629 0.2634702 0.6050537
0.1436429 0.2750809 0.6212797
0.2381613 0.3066335 0.6570257
0.4322540 0.3356584 0.6753625
0.6815169 0.3687804 0.6736896
0.7492371 0.3883406 0.6571816
0.7868402 0.4105708 0.6728207
0.8262388 0.4297008 0.6595429
0.8541230 0.4599088 0.6702182
0.1041356 0.3649650 0.6226832
0.0937195 0.3828959 0.6368816
0.3634560 0.4303396 0.6635818
0.5375456 0.4590622 0.6728298
0.6619787 0.4830929 0.6772014
0.7449130 0.4996222 0.6828040
0.8046564 0.5132479 0.6785399
0.8498355 0.5323573 0.6855786
0.8624509 0.5413206 0.6771746
0.1358440 0.4867775 0.6534829
0.1861774 0.4966609 0.6598791
0.2590944 0.5203577 0.6760558
0.4312431 0.5515928 0.6907380
0.5907266 0.5805066 0.6997051
0.7169601 0.6010328 0.7022696
0.7859520 0.6126677 0.6996940
0.8219264 0.6209663 0.6892502
0.8587273 0.6335558 0.6940557
0.1926747 0.5891982 0.6855181
0.2119373 0.5996975 0.6924917
0.3232033 0.6152176 0.6990371
0.4250992 0.6334376 0.7047495
0.5626589 0.6581027 0.7104703
0.6836362 0.6785979 0.7107530
0.7474681 0.6887635 0.7047666
0.8004349 0.6984468 0.6987736
0.8405855 0.7076225 0.6993441
0.1873839 0.6608033 0.6998094
0.2182856 0.6643979 0.7008004
0.2867984 0.6728346 0.7029410
0.3830643 0.6887607 0.7084472
0.5490228 0.7168400 0.7151951
0.6544862 0.7351154 0.7180506
0.7267516 0.7474779 0.7175059
0.7872110 0.7574796 0.7144514
0.8337195 0.7658346 0.7146142
0.3470938 0.7264434 0.7154218
0.3594538 0.7292289 0.7159774
0.3893265 0.7360980 0.7172842
0.4780869 0.7508274 0.7206179
0.5821876 0.7688241 0.7252010
0.6654932 0.7835304 0.7272672
0.7301928 0.7951946 0.7260579
0.7784491 0.8043622 0.7240930
0.8221215 0.8117452 0.7191826
0.4435781 0.7817255 0.7229997
0.4501241 0.7829124 0.7224697
0.4829360 0.7884036 0.7241704
0.5313997 0.7966785 0.7266890
0.5880847 0.8065570 0.7296991
0.6486526 0.8172955 0.7301994
0.7063511 0.8276231 0.7279610
0.7512521 0.8362327 0.7261913
0.8002570 0.8452446 0.7255564
0.0414972 0.1995090 0.6018976
0.0907989 0.2130605 0.6178468
0.2379233 0.2494301 0.6670455
0.4566723 0.2763474 0.6963843
0.5966123 0.2948116 0.7098305
0.6830772 0.3223831 0.7195026
0.7577816 0.3502723 0.7179921
0.7813391 0.3778132 0.7312996
0.8331129 0.4171789 0.7202286
0.0657371 0.2340671 0.6184289
0.1350214 0.2474746 0.6323925
0.2606685 0.2853523 0.6809005
0.4663573 0.3067530 0.7053206
0.5959743 0.3311097 0.7191064
0.6847124 0.3509403 0.7263355
0.7738982 0.3834467 0.7194377
0.7915663 0.4055758 0.7349333
0.8410336 0.4398372 0.7188218
0.1481948 0.3110528 0.6542394
0.1732970 0.3251507 0.6716244
0.2744815 0.3541631 0.7027256
0.4502116 0.3842561 0.7242939
0.5923386 0.4078446 0.7374188
0.7503436 0.4350490 0.7351744
0.8014005 0.4527853 0.7201778
0.8233712 0.4757820 0.7374008
0.8578483 0.4892744 0.7149277
0.1117479 0.4038853 0.6792774
0.1077325 0.4205049 0.6969247
0.2442338 0.4476403 0.7181264
0.4883182 0.4836389 0.7342977
0.7338396 0.5143125 0.7277972
0.7811268 0.5335746 0.7343157
0.7977955 0.5437859 0.7413522
0.8494521 0.5580942 0.7340630
0.8785891 0.5765138 0.7384413
0.1781992 0.5168203 0.7077910
0.2409610 0.5275655 0.7109585
0.3695398 0.5556746 0.7265503
0.4215717 0.5692618 0.7353403
0.6238370 0.6024012 0.7454106
0.7297606 0.6222751 0.7508367
0.8042386 0.6364955 0.7522962
0.8536866 0.6467211 0.7502642
0.8793038 0.6569733 0.7494645
0.2230513 0.6032413 0.7260715
0.2362094 0.6122690 0.7322663
0.3217894 0.6292669 0.7415081
0.4688106 0.6535962 0.7518955
0.5877133 0.6751125 0.7587585
0.6947799 0.6938986 0.7627565
0.7715384 0.7069312 0.7640529
0.8207689 0.7151662 0.7596806
0.8524671 0.7221189 0.7521724
0.3089225 0.6852539 0.7514945
0.3445323 0.6904805 0.7538211
0.4107071 0.7011724 0.7581673
0.4843852 0.7143937 0.7623196
0.5581692 0.7287493 0.7658997
0.6756802 0.7489104 0.7689357
0.7508511 0.7611295 0.7677500
0.7969913 0.7688523 0.7650496
0.8358894 0.7759140 0.7610903
0.3475355 0.7357525 0.7572263
0.3654078 0.7382976 0.7578916
0.4001552 0.7453019 0.7601545
0.4584787 0.7578176 0.7648352
0.5524992 0.7744404 0.7695490
0.6612620 0.7924790 0.7728064
0.7335095 0.8049053 0.7744356
0.7827722 0.8135136 0.7739118
0.8248663 0.8205864 0.7714853
0.4557875 0.7908899 0.7722610
0.4652291 0.7924963 0.7724597
0.4876118 0.7963372 0.7728383
0.5224805 0.8024305 0.7731739
0.6044490 0.8163084 0.7765163
0.6803172 0.8295764 0.7797110
0.7371770 0.8393687 0.7805530
0.7832164 0.8475816 0.7796789
0.8215699 0.8543754 0.7793669
0.0898236 0.2633387 0.6421350
0.1278507 0.2762681 0.6570320
0.2310859 0.3143389 0.7039217
0.4584025 0.3498597 0.7358745
0.6077235 0.3684559 0.7507805
0.6942829 0.3895934 0.7595508
0.7525142 0.4135518 0.7661831
0.8136641 0.4413606 0.7646460
0.8260633 0.4642559 0.7768063
0.1163628 0.2918373 0.6573110
0.1496170 0.3050978 0.6689590
0.2556064 0.3449421 0.7160472
0.4679732 0.3732745 0.7426905
0.6098629 0.3881662 0.7555631
0.6956956 0.4197901 0.7667067
0.7534256 0.4317894 0.7703117
0.8239525 0.4674907 0.7663981
0.8316987 0.4840392 0.7798391
0.1421973 0.3638231 0.6901095
0.1783108 0.3806522 0.7110478
0.3072127 0.4062679 0.7381836
0.4770707 0.4315415 0.7578768
0.6024000 0.4586156 0.7717107
0.6959911 0.4759307 0.7791686
0.7980919 0.4990809 0.7783106
0.8390871 0.5166702 0.7692968
0.8527478 0.5350170 0.7832965
0.1057423 0.4481900 0.7211199
0.1097179 0.4633436 0.7366677
0.2820945 0.4856910 0.7540365
0.4471997 0.5149404 0.7744601
0.6073468 0.5381696 0.7835202
0.7727188 0.5595747 0.7805955
0.8390486 0.5803886 0.7761799
0.8394881 0.5897669 0.7846270
0.8795452 0.6042110 0.7790004
0.0614188 0.5303319 0.7378913
0.1608504 0.5410792 0.7445543
0.2899358 0.5657030 0.7587978
0.5955479 0.6123344 0.7795709
0.7005588 0.6297130 0.7822704
0.7700898 0.6468375 0.7886344
0.8083503 0.6557990 0.7861220
0.8543414 0.6676021 0.7895674
0.8849135 0.6764466 0.7869761
0.2755652 0.6335745 0.7672036
0.3048082 0.6380228 0.7696638
0.3699563 0.6487390 0.7755147
0.4702765 0.6664931 0.7844425
0.6093752 0.6905589 0.7929001
0.7050865 0.7085550 0.7981060
0.7875240 0.7230874 0.8007625
0.8430213 0.7327301 0.7998183
0.8784372 0.7400665 0.7991419
0.3095684 0.6956305 0.7822996
0.3458247 0.7009274 0.7847138
0.4236431 0.7131813 0.7901228
0.5189511 0.7294640 0.7967574
0.6043609 0.7446719 0.8014927
0.6784603 0.7586245 0.8050349
0.7610905 0.7724080 0.8078330
0.8184162 0.7821609 0.8071326
0.8500339 0.7875276 0.8028740
0.4385836 0.7592703 0.7984660
0.4562650 0.7622951 0.7996653
0.4929054 0.7691655 0.8022960
0.5414284 0.7780447 0.8049119
0.5980301 0.7888009 0.8076977
0.6639078 0.8012754 0.8099023
0.7501842 0.8157704 0.8114036
0.7977965 0.8232583 0.8094195
0.8325486 0.8294330 0.8084486
0.4543201 0.7965876 0.8024524
0.4643929 0.7983265 0.8029409
0.4881183 0.8024830 0.8040583
0.5271794 0.8095537 0.8061436
0.5777116 0.8190541 0.8091695
0.6677697 0.8340934 0.8124079
0.7378159 0.8459477 0.8142563
0.7874460 0.8543155 0.8150531
0.8212369 0.8601997 0.8143710
