LumaGrade-Vercel/public/luts/vision3-250d-2383.cube
TITLE "Kodak Vision3 250D 5207 to 2383 Spectral Print"
LUT_3D_SIZE 5
0.0106561 0.0076021 0.0056580
0.3255476 0.0218111 0.0125840
0.5359007 0.0501052 0.0337550
0.6349939 0.0779084 0.0484737
0.7246850 0.1398783 0.0594827
0.0027155 0.0741061 0.0091365
0.1388645 0.1117708 0.0049504
0.5254038 0.1681567 0.0308982
0.6816583 0.1952811 0.0531771
0.7663742 0.2500274 0.0655947
0.0067164 0.2426518 0.0086441
0.2040557 0.3186665 0.0110084
0.4734253 0.3901250 0.0247173
0.7174404 0.4409590 0.0584209
0.8178363 0.4701554 0.0731413
0.0181187 0.4083618 0.0599561
0.0929758 0.4635124 0.0428780
0.5201252 0.5735264 0.0374430
0.6977542 0.6170266 0.0694182
0.8168232 0.6462434 0.1010017
0.0339780 0.5489964 0.1830343
0.0373112 0.5731421 0.1817318
0.5582447 0.6949341 0.1631430
0.6944587 0.7340971 0.1876877
0.8085527 0.7601309 0.2097765
0.0105326 0.0073613 0.1957913
0.2197821 0.0314648 0.1871351
0.5671825 0.0567692 0.1219776
0.6956788 0.1145198 0.1686868
0.7619376 0.2079259 0.1482111
0.0039639 0.1278431 0.1651509
0.1696112 0.1664844 0.1622897
0.5820090 0.2244972 0.1430021
0.7219906 0.2600836 0.1350633
0.7963765 0.3111596 0.1405782
0.0423836 0.3712792 0.2052697
0.1809105 0.4005764 0.2038881
0.4997935 0.4642272 0.1967905
0.7259316 0.4991488 0.1641249
0.8297563 0.5258978 0.1903771
0.0286903 0.5076174 0.2485255
0.1447071 0.5565368 0.2498598
0.5464112 0.6287735 0.2454790
0.6958011 0.6639118 0.2544529
0.8259349 0.6882334 0.2573144
0.0587848 0.6257194 0.3215799
0.1968809 0.6683571 0.3239501
0.5673264 0.7345833 0.3213062
0.7055090 0.7651874 0.3418677
0.8028423 0.7870473 0.3563801
0.0433067 0.0306770 0.3790823
0.2301136 0.0536421 0.4499948
0.5417186 0.1233576 0.4816499
0.7228312 0.1856734 0.4577150
0.7906303 0.2582484 0.4459329
0.0222736 0.1858931 0.4507239
0.2790899 0.2385171 0.4730605
0.6482816 0.2936928 0.4795081
0.7634453 0.3367188 0.4986252
0.8314266 0.3863520 0.4791812
0.0594291 0.4301357 0.4974115
0.1163367 0.4624091 0.5131036
0.5284528 0.5302525 0.5239720
0.7530542 0.5662402 0.5149559
0.8567904 0.5922403 0.5115504
0.1427215 0.6118685 0.5322467
0.2156867 0.6307952 0.5409580
0.4894477 0.6793392 0.5472977
0.7035655 0.7180148 0.5442898
0.8279597 0.7378920 0.5420925
0.3845883 0.7476787 0.5716273
0.4806510 0.7647974 0.5764029
0.5849208 0.7835486 0.5768673
0.6805289 0.8035534 0.5836461
0.8083665 0.8243738 0.5779026
0.0571828 0.1280554 0.5477791
0.2432254 0.1789832 0.6171594
0.5845291 0.2337587 0.6594636
0.7255583 0.2886667 0.6732056
0.8191586 0.3703729 0.6795857
0.0825629 0.2634702 0.6050537
0.2381613 0.3066335 0.6570257
0.6815169 0.3687804 0.6736896
0.7868402 0.4105708 0.6728207
0.8541230 0.4599088 0.6702182
0.1358440 0.4867775 0.6534829
0.2590944 0.5203577 0.6760558
0.5907266 0.5805066 0.6997051
0.7859520 0.6126677 0.6996940
0.8587273 0.6335558 0.6940557
0.1873839 0.6608033 0.6998094
0.2867984 0.6728346 0.7029410
0.5490228 0.7168400 0.7151951
0.7267516 0.7474779 0.7175059
0.8337195 0.7658346 0.7146142
0.4435781 0.7817255 0.7229997
0.4829360 0.7884036 0.7241704
0.5880847 0.8065570 0.7296991
0.7063511 0.8276231 0.7279610
0.8002570 0.8452446 0.7255564
0.0898236 0.2633387 0.6421350
0.2310859 0.3143389 0.7039217
0.6077235 0.3684559 0.7507805
0.7525142 0.4135518 0.7661831
0.8260633 0.4642559 0.7768063
0.1421973 0.3638231 0.6901095
0.3072127 0.4062679 0.7381836
0.6024000 0.4586156 0.7717107
0.7980919 0.4990809 0.7783106
0.8527478 0.5350170 0.7832965
0.0614188 0.5303319 0.7378913
0.2899358 0.5657030 0.7587978
0.7005588 0.6297130 0.7822704
0.8083503 0.6557990 0.7861220
0.8849135 0.6764466 0.7869761
0.3095684 0.6956305 0.7822996
0.4236431 0.7131813 0.7901228
0.6043609 0.7446719 0.8014927
0.7610905 0.7724080 0.8078330
0.8500339 0.7875276 0.8028740
0.4543201 0.7965876 0.8024524
0.4881183 0.8024830 0.8040583
0.5777116 0.8190541 0.8091695
0.7378159 0.8459477 0.8142563
0.8212369 0.8601997 0.8143710
