LumaGrade-Vercel/public/luts/vision3-250d-2383.cube
TITLE "Kodak Vision3 250D 5207 to 2383 Spectral Print"
LUT_3D_SIZE 33
0.0106561 0.0076021 0.0056580
0.0133551 0.0079298 0.0055972
0.0213709 0.0088019 0.0054975
0.0398770 0.0103861 0.0053407
0.0785442 0.0132390 0.0049492
0.1323364 0.0167087 0.0044192
0.1973900 0.0187880 0.0049080
0.2628097 0.0202918 0.0081061
0.3255476 0.0218111 0.0125840
0.3723883 0.0265830 0.0161578
0.4102361 0.0309202 0.0194951
0.4414716 0.0347855 0.0225597
0.4668884 0.0382231 0.0252784
0.4881741 0.0414134 0.0277200
0.5059595 0.0443622 0.0298788
0.5216627 0.0472675 0.0318734
0.5359007 0.0501052 0.0337550
0.5492766 0.0529385 0.0355884
0.5620361 0.0558387 0.0373997
0.5743954 0.0589164 0.0392162
0.5865622 0.0622651 0.0410546
0.5983872 0.0657466 0.0428454
0.6103605 0.0695103 0.0446725
0.6225522 0.0735651 0.0465469
0.6349939 0.0779084 0.0484737
0.6473839 0.0823881 0.0504086
0.6590161 0.0866413 0.0522472
0.6707622 0.0910449 0.0541252
0.6827319 0.0975850 0.0556425
0.6936665 0.1062975 0.0564115
0.7048962 0.1155261 0.0571010
0.7153101 0.1268352 0.0581086
0.7246850 0.1398783 0.0594827
0.0105113 0.0079539 0.0057162
0.0113707 0.0081342 0.0057013
0.0148270 0.0085909 0.0056365
0.0240032 0.0096349 0.0055322
0.0413131 0.0112418 0.0053907
0.0803603 0.0144919 0.0049807
0.1408925 0.0188620 0.0043695
0.2112229 0.0216393 0.0054011
0.2795198 0.0233669 0.0089757
0.3419043 0.0248256 0.0138119
0.3880134 0.0299075 0.0175328
0.4253301 0.0344212 0.0209844
0.4565606 0.0386148 0.0241966
0.4820027 0.0424417 0.0270479
0.5027481 0.0458239 0.0295323
0.5202186 0.0489152 0.0317349
0.5357476 0.0518790 0.0337794
0.5500880 0.0548460 0.0357443
0.5637448 0.0579584 0.0376882
0.5770065 0.0612839 0.0396467
0.5896588 0.0647028 0.0415544
0.6020800 0.0683478 0.0434334
0.6145550 0.0722475 0.0453350
0.6272171 0.0764350 0.0472798
0.6398128 0.0807770 0.0492288
0.6517692 0.0849873 0.0510952
0.6632646 0.0891234 0.0529112
0.6755161 0.0942005 0.0547662
0.6865580 0.1026035 0.0556074
0.6976199 0.1112839 0.0563628
0.7087107 0.1209783 0.0571413
0.7181693 0.1337012 0.0585277
0.7272807 0.1460501 0.0598632
0.0101217 0.0092694 0.0059171
0.0113535 0.0096619 0.0059036
0.0141090 0.0100566 0.0058368
0.0195133 0.0108145 0.0057602
0.0373846 0.0127781 0.0055798
0.0688463 0.0157728 0.0052588
0.1093917 0.0195235 0.0048077
0.1661734 0.0237417 0.0040568
0.2336691 0.0261933 0.0063129
0.3071490 0.0276585 0.0106731
0.3665512 0.0292131 0.0157838
0.4104691 0.0346450 0.0196233
0.4456761 0.0394729 0.0231152
0.4739563 0.0436659 0.0261990
0.4975494 0.0473491 0.0289668
0.5169338 0.0506255 0.0313770
0.5339643 0.0537885 0.0336003
0.5499519 0.0570900 0.0357849
0.5648949 0.0604588 0.0379126
0.5790555 0.0639051 0.0400080
0.5927867 0.0675460 0.0420703
0.6061271 0.0713759 0.0440835
0.6193076 0.0754377 0.0460892
0.6323076 0.0796432 0.0480826
0.6446625 0.0837630 0.0499919
0.6562805 0.0877320 0.0518040
0.6685300 0.0921593 0.0537345
0.6797908 0.0999933 0.0547118
0.6908073 0.1081655 0.0555375
0.7021335 0.1169425 0.0562792
0.7119021 0.1289056 0.0576091
0.7212009 0.1410404 0.0589720
0.7300104 0.1526124 0.0602633
0.0097084 0.0113159 0.0061834
0.0124980 0.0120276 0.0061150
0.0145676 0.0125997 0.0060958
0.0194058 0.0133487 0.0060254
0.0283438 0.0146426 0.0059216
0.0555155 0.0177934 0.0056353
0.1022840 0.0230553 0.0049626
0.1486816 0.0278237 0.0047059
0.1999791 0.0320285 0.0049963
0.2604407 0.0346549 0.0075802
0.3263269 0.0348205 0.0116517
0.3837698 0.0368528 0.0169234
0.4288816 0.0405201 0.0215201
0.4640638 0.0457018 0.0252143
0.4922432 0.0501003 0.0284512
0.5156856 0.0540292 0.0313368
0.5349846 0.0575744 0.0338522
0.5519691 0.0610049 0.0361756
0.5676246 0.0644741 0.0384119
0.5824934 0.0680365 0.0406188
0.5970234 0.0718153 0.0427855
0.6113812 0.0758051 0.0449435
0.6252154 0.0798893 0.0470410
0.6379638 0.0837714 0.0489892
0.6502711 0.0876743 0.0508856
0.6626841 0.0930044 0.0525633
0.6742002 0.1003695 0.0536032
0.6854534 0.1080049 0.0545281
0.6968445 0.1164893 0.0554023
0.7066714 0.1280918 0.0568425
0.7161683 0.1396271 0.0582344
0.7250869 0.1506578 0.0595416
0.7336801 0.1615511 0.0608013
0.0093524 0.0153165 0.0066094
0.0120104 0.0161197 0.0065395
0.0162023 0.0173544 0.0064717
0.0205964 0.0182497 0.0064058
0.0282806 0.0196268 0.0063073
0.0460964 0.0222663 0.0060898
0.0805908 0.0272206 0.0055617
0.1343820 0.0346925 0.0051395
0.1902407 0.0414715 0.0046739
0.2428151 0.0461281 0.0067239
0.2954010 0.0491166 0.0095280
0.3526663 0.0501044 0.0134390
0.4035421 0.0501129 0.0178887
0.4449214 0.0522210 0.0225989
0.4826243 0.0544508 0.0273938
0.5117986 0.0586591 0.0310325
0.5360048 0.0630019 0.0341718
0.5562149 0.0670150 0.0369512
0.5740526 0.0708755 0.0395283
0.5904036 0.0746951 0.0419538
0.6055840 0.0784219 0.0442090
0.6195957 0.0819788 0.0463021
0.6328323 0.0860086 0.0481915
0.6453760 0.0916813 0.0496348
0.6574333 0.0977490 0.0509235
0.6690025 0.1040141 0.0520796
0.6810009 0.1111735 0.0531622
0.6917705 0.1213156 0.0546588
0.7019175 0.1318861 0.0561458
0.7116199 0.1424310 0.0575677
0.7207443 0.1526167 0.0589051
0.7295027 0.1627670 0.0601889
0.7379962 0.1729667 0.0614340
0.0084606 0.0226239 0.0072222
0.0109111 0.0236596 0.0071373
0.0169597 0.0255808 0.0069809
0.0215128 0.0276707 0.0069333
0.0308273 0.0294037 0.0067409
0.0459860 0.0323883 0.0065041
0.0721347 0.0374385 0.0060294
0.1063716 0.0441325 0.0052925
0.1624679 0.0534304 0.0054679
0.2284158 0.0620350 0.0060872
0.2845989 0.0675633 0.0088907
0.3365698 0.0713340 0.0122485
0.3844542 0.0739308 0.0160024
0.4265281 0.0754355 0.0198364
0.4676136 0.0758907 0.0240771
0.5014411 0.0761280 0.0279464
0.5315753 0.0777541 0.0318693
0.5570184 0.0807519 0.0356037
0.5776535 0.0842000 0.0386599
0.5956807 0.0881614 0.0412883
0.6120818 0.0926129 0.0435495
0.6272883 0.0973347 0.0455575
0.6414837 0.1022863 0.0473477
0.6543803 0.1088418 0.0491809
0.6663539 0.1164171 0.0509349
0.6775873 0.1244005 0.0525806
0.6882669 0.1327635 0.0541454
0.6983792 0.1413370 0.0556272
0.7078469 0.1498631 0.0570148
0.7168593 0.1585808 0.0583357
0.7256595 0.1675974 0.0596256
0.7343847 0.1770327 0.0609046
0.7428594 0.1866695 0.0621470
0.0066237 0.0356754 0.0079394
0.0086498 0.0368468 0.0078258
0.0148656 0.0391091 0.0075697
0.0259284 0.0434714 0.0073088
0.0305177 0.0460180 0.0072627
0.0510252 0.0495634 0.0068612
0.0720627 0.0544264 0.0064674
0.1040994 0.0612771 0.0056619
0.1375186 0.0679600 0.0055984
0.1972081 0.0780888 0.0057129
0.2635376 0.0871797 0.0077394
0.3247054 0.0936778 0.0114169
0.3797470 0.0981409 0.0156049
0.4204483 0.1010904 0.0192509
0.4572853 0.1036679 0.0229642
0.4901477 0.1058707 0.0266162
0.5236949 0.1074710 0.0306818
0.5509200 0.1091336 0.0342368
0.5745481 0.1112271 0.0375110
0.5965528 0.1147295 0.0407152
0.6151462 0.1189751 0.0434362
0.6316549 0.1242269 0.0458530
0.6467370 0.1299277 0.0480615
0.6606741 0.1361116 0.0501029
0.6734121 0.1425829 0.0519689
0.6849443 0.1492614 0.0536586
0.6956492 0.1562300 0.0552272
0.7057511 0.1635326 0.0567076
0.7152708 0.1710710 0.0581029
0.7242878 0.1788680 0.0594245
0.7328603 0.1869122 0.0606812
0.7411644 0.1952762 0.0618985
0.7492876 0.2040174 0.0630894
0.0040261 0.0545544 0.0085283
0.0053694 0.0555060 0.0084416
0.0110333 0.0578609 0.0082054
0.0245463 0.0623861 0.0078646
0.0384896 0.0674107 0.0076141
0.0493229 0.0712099 0.0074257
0.0798836 0.0764758 0.0066023
0.1042324 0.0823165 0.0058725
0.1389451 0.0897268 0.0054954
0.1754444 0.0969572 0.0062531
0.2330776 0.1069486 0.0063554
0.2982581 0.1163749 0.0097018
0.3678505 0.1242925 0.0146281
0.4186802 0.1292726 0.0190827
0.4592627 0.1328469 0.0231749
0.4917464 0.1358767 0.0268022
0.5216386 0.1389312 0.0304227
0.5478354 0.1419177 0.0338224
0.5744789 0.1444667 0.0375011
0.5971110 0.1470417 0.0407969
0.6156780 0.1497773 0.0435141
0.6333913 0.1534033 0.0461073
0.6498142 0.1577542 0.0485122
0.6646687 0.1626024 0.0506880
0.6783401 0.1681263 0.0526909
0.6908401 0.1740567 0.0545225
0.7022054 0.1803761 0.0561880
0.7127504 0.1870628 0.0577335
0.7226980 0.1941448 0.0591915
0.7321169 0.2016005 0.0605722
0.7410551 0.2093963 0.0618825
0.7495824 0.2175357 0.0631326
0.7578915 0.2261762 0.0643509
0.0027155 0.0741061 0.0091365
0.0027198 0.0750126 0.0091131
0.0057892 0.0776021 0.0089168
0.0190289 0.0822534 0.0084613
0.0481595 0.0898694 0.0076478
0.0598553 0.0942110 0.0073108
0.0795558 0.0989984 0.0067467
0.1133843 0.1056222 0.0053147
0.1388645 0.1117708 0.0049504
0.1770130 0.1198550 0.0062119
0.2175511 0.1278471 0.0071789
0.2683931 0.1369191 0.0079941
0.3363579 0.1470369 0.0122333
0.4026328 0.1553533 0.0175967
0.4551522 0.1609012 0.0227383
0.4937893 0.1648395 0.0270410
0.5254038 0.1681567 0.0308982
0.5518141 0.1712564 0.0343576
0.5757583 0.1744959 0.0376835
0.5968460 0.1777435 0.0407582
0.6182104 0.1807251 0.0438848
0.6364554 0.1836973 0.0465560
0.6521977 0.1868519 0.0488613
0.6665105 0.1903947 0.0509579
0.6816583 0.1952811 0.0531771
0.6954735 0.2005542 0.0552015
0.7081162 0.2064810 0.0570543
0.7196271 0.2130397 0.0587414
0.7302752 0.2200110 0.0603022
0.7402718 0.2273468 0.0617677
0.7495977 0.2348483 0.0631349
0.7582656 0.2423914 0.0644058
0.7663742 0.2500274 0.0655947
0.0028419 0.0942789 0.0096010
0.0028477 0.0950107 0.0095649
0.0028707 0.0977781 0.0094398
0.0124663 0.1026606 0.0088258
0.0421356 0.1105703 0.0076888
0.0740443 0.1191943 0.0070756
0.0851199 0.1235176 0.0068606
0.1151663 0.1296427 0.0051201
0.1492423 0.1367376 0.0046950
0.1767152 0.1434599 0.0059736
0.2177508 0.1521869 0.0072323
0.2608979 0.1606432 0.0081783
0.3053757 0.1688389 0.0101446
0.3750403 0.1794669 0.0152136
0.4352954 0.1877443 0.0206997
0.4899613 0.1939677 0.0265946
0.5261764 0.1982338 0.0309963
0.5572457 0.2019466 0.0350961
0.5821804 0.2053648 0.0386066
0.6033393 0.2087696 0.0417084
0.6231891 0.2125146 0.0446137
0.6404951 0.2163658 0.0471475
0.6574419 0.2200578 0.0496295
0.6731551 0.2237287 0.0519314
0.6871815 0.2275717 0.0539865
0.7000123 0.2315813 0.0558667
0.7130783 0.2364325 0.0577816
0.7256847 0.2419203 0.0596294
0.7368993 0.2475541 0.0612734
0.7471734 0.2537339 0.0627795
0.7567351 0.2602547 0.0641814
0.7656282 0.2669791 0.0654853
0.7739290 0.2739048 0.0667024
0.0030610 0.1160815 0.0098220
0.0030702 0.1168228 0.0097472
0.0030970 0.1189206 0.0095618
0.0059419 0.1245370 0.0088351
0.0315844 0.1332078 0.0074026
0.0804289 0.1440496 0.0066950
0.1005689 0.1508346 0.0065169
0.1139733 0.1559128 0.0055080
0.1532283 0.1631930 0.0043211
0.1888217 0.1710799 0.0058282
0.2172708 0.1781369 0.0072373
0.2610729 0.1875155 0.0086838
0.3058935 0.1962766 0.0101773
0.3481319 0.2041304 0.0130964
0.4116589 0.2143927 0.0184233
0.4701715 0.2227863 0.0243576
0.5176331 0.2291084 0.0299216
0.5575721 0.2339402 0.0351407
0.5867959 0.2378162 0.0392781
0.6115952 0.2413426 0.0429165
0.6310930 0.2447710 0.0457708
0.6487495 0.2483487 0.0483563
0.6646694 0.2522322 0.0506882
0.6788285 0.2561875 0.0527625
0.6928716 0.2599921 0.0548202
0.7065896 0.2636431 0.0568306
0.7191100 0.2674074 0.0586656
0.7306221 0.2712947 0.0603531
0.7412426 0.2753663 0.0619100
0.7524622 0.2806796 0.0635549
0.7625401 0.2862098 0.0650325
0.7718241 0.2919721 0.0663937
0.7805975 0.2984911 0.0676802
0.0033672 0.1367946 0.0096986
0.0033813 0.1376040 0.0095801
0.0034094 0.1391900 0.0093700
0.0035117 0.1446759 0.0086260
0.0215964 0.1541069 0.0069316
0.0721958 0.1655295 0.0075473
0.1186974 0.1779674 0.0056074
0.1312171 0.1826824 0.0045360
0.1455389 0.1880251 0.0046042
0.1925696 0.1965410 0.0056024
0.2308296 0.2051243 0.0073334
0.2611685 0.2126727 0.0091891
0.3038680 0.2218637 0.0103349
0.3489672 0.2306492 0.0131590
0.3912933 0.2386017 0.0165912
0.4458806 0.2478785 0.0217720
0.5019824 0.2562077 0.0280111
0.5444373 0.2624571 0.0333692
0.5863008 0.2679297 0.0392057
0.6135961 0.2720332 0.0432093
0.6367084 0.2757536 0.0465929
0.6567045 0.2793166 0.0495214
0.6725054 0.2827691 0.0518360
0.6867955 0.2864268 0.0539298
0.7001501 0.2904127 0.0558868
0.7123549 0.2944839 0.0576755
0.7244113 0.2984645 0.0594426
0.7367819 0.3022104 0.0612560
0.7481356 0.3061073 0.0629205
0.7584960 0.3101609 0.0644395
0.7678857 0.3143728 0.0658162
0.7772386 0.3193336 0.0671876
0.7865157 0.3249940 0.0685480
0.0037852 0.1576551 0.0095748
0.0038051 0.1585198 0.0093858
0.0038290 0.1595529 0.0091649
0.0039462 0.1644381 0.0081878
0.0154225 0.1745235 0.0066784
0.0611593 0.1870703 0.0072111
0.1181588 0.2004251 0.0058879
0.1492228 0.2100872 0.0053586
0.1623518 0.2151325 0.0055500
0.1871416 0.2218697 0.0058164
0.2343184 0.2309253 0.0075140
0.2754381 0.2402125 0.0093101
0.3043196 0.2475367 0.0112355
0.3461367 0.2566072 0.0129474
0.3916839 0.2654677 0.0166252
0.4342816 0.2735746 0.0205988
0.4775071 0.2814468 0.0251731
0.5314041 0.2898848 0.0316649
0.5721763 0.2963323 0.0371742
0.6079611 0.3019071 0.0423845
0.6387877 0.3064518 0.0468973
0.6606138 0.3103420 0.0500939
0.6796751 0.3140340 0.0528864
0.6952167 0.3175423 0.0551637
0.7081566 0.3210089 0.0570601
0.7203846 0.3247912 0.0588523
0.7320091 0.3289337 0.0605563
0.7429049 0.3332756 0.0621536
0.7536111 0.3376880 0.0637232
0.7648715 0.3417314 0.0653742
0.7751076 0.3458824 0.0668751
0.7843328 0.3501462 0.0682279
0.7927288 0.3545375 0.0694591
0.0043420 0.1792664 0.0093407
0.0043676 0.1801544 0.0091162
0.0043982 0.1812040 0.0088561
0.0045157 0.1851458 0.0079925
0.0076640 0.1955795 0.0065760
0.0431942 0.2089540 0.0084762
0.1092298 0.2226762 0.0072093
0.1639821 0.2372962 0.0064732
0.1816795 0.2438518 0.0067720
0.1964512 0.2495476 0.0070411
0.2309026 0.2573777 0.0074473
0.2791592 0.2671440 0.0098573
0.3195751 0.2763554 0.0117069
0.3479165 0.2837421 0.0133667
0.3876331 0.2925494 0.0162744
0.4349027 0.3018357 0.0206606
0.4753739 0.3098025 0.0249343
0.5112205 0.3167806 0.0291298
0.5585453 0.3247662 0.0352741
0.5986058 0.3314436 0.0410156
0.6308858 0.3370902 0.0457403
0.6631103 0.3419715 0.0504596
0.6836988 0.3459126 0.0534759
0.7014126 0.3496211 0.0560717
0.7166415 0.3532014 0.0583036
0.7292929 0.3567478 0.0601581
0.7404355 0.3603488 0.0617915
0.7512811 0.3644200 0.0633815
0.7617303 0.3688120 0.0649135
0.7716100 0.3733306 0.0663622
0.7810171 0.3779445 0.0677416
0.7910598 0.3820233 0.0692143
0.8000679 0.3861840 0.0705353
0.0050380 0.2011832 0.0089775
0.0050718 0.2021504 0.0087035
0.0051124 0.2033039 0.0083869
0.0052317 0.2066350 0.0075494
0.0055938 0.2162634 0.0072385
0.0305380 0.2302615 0.0085667
0.0978669 0.2451267 0.0080262
0.1594484 0.2603003 0.0075731
0.2019977 0.2731439 0.0082496
0.2154841 0.2784052 0.0085397
0.2313026 0.2845110 0.0088857
0.2789112 0.2942446 0.0095221
0.3233757 0.3038577 0.0123856
0.3624777 0.3130643 0.0145583
0.3900500 0.3203897 0.0164831
0.4295764 0.3293141 0.0201340
0.4768769 0.3386438 0.0251024
0.5127200 0.3459552 0.0293138
0.5447598 0.3524593 0.0334121
0.5843135 0.3596789 0.0389161
0.6235428 0.3663650 0.0446654
0.6540759 0.3720184 0.0491363
0.6808546 0.3770218 0.0530592
0.7052135 0.3811854 0.0566287
0.7216713 0.3849036 0.0590409
0.7360672 0.3885030 0.0611511
0.7489424 0.3920509 0.0630386
0.7595884 0.3955500 0.0645995
0.7694265 0.3991062 0.0660420
0.7792089 0.4031869 0.0674764
0.7885915 0.4075173 0.0688523
0.7973863 0.4119500 0.0701420
0.8056105 0.4165457 0.0713481
0.0058261 0.2221092 0.0086875
0.0058694 0.2231735 0.0083632
0.0059213 0.2244388 0.0079859
0.0060341 0.2271536 0.0072119
0.0063890 0.2354004 0.0077505
0.0209578 0.2499941 0.0086484
0.0812904 0.2658964 0.0096816
0.1508475 0.2817765 0.0087295
0.2117523 0.2978930 0.0096795
0.2364678 0.3066573 0.0102258
0.2521792 0.3125055 0.0106020
0.2693216 0.3189411 0.0110268
0.3253624 0.3295529 0.0121440
0.3666099 0.3392074 0.0154372
0.4038755 0.3481706 0.0178966
0.4320084 0.3555466 0.0203734
0.4703910 0.3642531 0.0243818
0.5140046 0.3728640 0.0294720
0.5464213 0.3795989 0.0336334
0.5756299 0.3856913 0.0376651
0.6077812 0.3920954 0.0423583
0.6457012 0.3986817 0.0479099
0.6748774 0.4042482 0.0521836
0.6990166 0.4092472 0.0557206
0.7243923 0.4136531 0.0594398
0.7396923 0.4172557 0.0616826
0.7532536 0.4207688 0.0636707
0.7654672 0.4242527 0.0654615
0.7765287 0.4277451 0.0670834
0.7858682 0.4312161 0.0684530
0.7947412 0.4348249 0.0697542
0.8035963 0.4390541 0.0710528
0.8119247 0.4433076 0.0722742
0.0067164 0.2426518 0.0086441
0.0067714 0.2438385 0.0082455
0.0068378 0.2452632 0.0077834
0.0069413 0.2474567 0.0075822
0.0072721 0.2542949 0.0084127
0.0149880 0.2685299 0.0099585
0.0595374 0.2856602 0.0117357
0.1406719 0.3022524 0.0099486
0.2040557 0.3186665 0.0110084
0.2588554 0.3349501 0.0121327
0.2738437 0.3406068 0.0125404
0.2896843 0.3467117 0.0129903
0.3141128 0.3540291 0.0135800
0.3697420 0.3643254 0.0163163
0.4084618 0.3737894 0.0190662
0.4455287 0.3827872 0.0219123
0.4734253 0.3901250 0.0247173
0.5078110 0.3980831 0.0287138
0.5478731 0.4059864 0.0338274
0.5774278 0.4122724 0.0379221
0.6044829 0.4181632 0.0418756
0.6302484 0.4239103 0.0456471
0.6659282 0.4304081 0.0508725
0.6943499 0.4359287 0.0550368
0.7174404 0.4409590 0.0584209
0.7380146 0.4455720 0.0614367
0.7567108 0.4493058 0.0641777
0.7695685 0.4529411 0.0660629
0.7812312 0.4565404 0.0677731
0.7919670 0.4600644 0.0693474
0.8015996 0.4634670 0.0707600
0.8099702 0.4667940 0.0719876
0.8178363 0.4701554 0.0731413
0.0077807 0.2643341 0.0092162
0.0078515 0.2656893 0.0087399
0.0079328 0.2672359 0.0083847
0.0080447 0.2693428 0.0086643
0.0083475 0.2749352 0.0094076
0.0090745 0.2877695 0.0114547
0.0465391 0.3052791 0.0120313
0.1258691 0.3230972 0.0115787
0.1951014 0.3400708 0.0125014
0.2598228 0.3575705 0.0138160
0.2953763 0.3693004 0.0147450
0.3098763 0.3749057 0.0152026
0.3260383 0.3811071 0.0157261
0.3608251 0.3895192 0.0165275
0.4114090 0.3991271 0.0202957
0.4508519 0.4086834 0.0233983
0.4865887 0.4174208 0.0265476
0.5118321 0.4242310 0.0292047
0.5418413 0.4314466 0.0330255
0.5790707 0.4388703 0.0381579
0.6063362 0.4448800 0.0421468
0.6315127 0.4505514 0.0458321
0.6544614 0.4559610 0.0491928
0.6848953 0.4621499 0.0536513
0.7127860 0.4676864 0.0577387
0.7346771 0.4727236 0.0609475
0.7529575 0.4772084 0.0636275
0.7724146 0.4809390 0.0664803
0.7847928 0.4842248 0.0682954
0.7958843 0.4874752 0.0699220
0.8061580 0.4907542 0.0714286
0.8157341 0.4940555 0.0728330
0.8240880 0.4973158 0.0740583
0.0089971 0.2864403 0.0109370
0.0090724 0.2877337 0.0104581
0.0091561 0.2891621 0.0099361
0.0092760 0.2911936 0.0099708
0.0095418 0.2956299 0.0106176
0.0102171 0.3065208 0.0123885
0.0363202 0.3244034 0.0136887
0.1069514 0.3435181 0.0150995
0.1846179 0.3609656 0.0140810
0.2509548 0.3783175 0.0154854
0.3113036 0.3955000 0.0169599
0.3312399 0.4027330 0.0176058
0.3467504 0.4086128 0.0181418
0.3627332 0.4148303 0.0187491
0.4052418 0.4237441 0.0197182
0.4533964 0.4334011 0.0249134
0.4923651 0.4429518 0.0284907
0.5235990 0.4508941 0.0317022
0.5462770 0.4572803 0.0344818
0.5728784 0.4640227 0.0372737
0.6078230 0.4710985 0.0423643
0.6332236 0.4769238 0.0460826
0.6562340 0.4822800 0.0494524
0.6775844 0.4873135 0.0525801
0.7022945 0.4927046 0.0562009
0.7291566 0.4979142 0.0601382
0.7504081 0.5025782 0.0632536
0.7675459 0.5068346 0.0657664
0.7832362 0.5107618 0.0680671
0.7986725 0.5139306 0.0703308
0.8092776 0.5170879 0.0718861
0.8191527 0.5202622 0.0733344
0.8283401 0.5234516 0.0746819
0.0103010 0.3078377 0.0140836
0.0103807 0.3090825 0.0135924
0.0104721 0.3105026 0.0130299
0.0106034 0.3125266 0.0122396
0.0108186 0.3158092 0.0120359
0.0114549 0.3252603 0.0136236
0.0260158 0.3426196 0.0159876
0.0826177 0.3628959 0.0192638
0.1703911 0.3804015 0.0156598
0.2411751 0.3980578 0.0171866
0.3080083 0.4159698 0.0188265
0.3528554 0.4298613 0.0201621
0.3669584 0.4352458 0.0206949
0.3818707 0.4410595 0.0212961
0.3975766 0.4473059 0.0219705
0.4495527 0.4571119 0.0241033
0.4944392 0.4667656 0.0305291
0.5294309 0.4755824 0.0343241
0.5567833 0.4826656 0.0375160
0.5773442 0.4884281 0.0400281
0.6010758 0.4944205 0.0448378
0.6338987 0.5009837 0.0471110
0.6575129 0.5063203 0.0496397
0.6789820 0.5113400 0.0527848
0.6985982 0.5160833 0.0556592
0.7182021 0.5208692 0.0585324
0.7439595 0.5259243 0.0623081
0.7645785 0.5303611 0.0653312
0.7807719 0.5344568 0.0677057
0.7949110 0.5383424 0.0697791
0.8106799 0.5416149 0.0720917
0.8214278 0.5446156 0.0736680
0.8308902 0.5476060 0.0750559
0.0116922 0.3286956 0.0191734
0.0117770 0.3299107 0.0187362
0.0118738 0.3312927 0.0181201
0.0120177 0.3333317 0.0172303
0.0122295 0.3363038 0.0159762
0.0128407 0.3446983 0.0153772
0.0143199 0.3600067 0.0186345
0.0716358 0.3802571 0.0206207
0.1531700 0.3988813 0.0206928
0.2302908 0.4170864 0.0189318
0.2993001 0.4352623 0.0206965
0.3620846 0.4526523 0.0224753
0.3869505 0.4614611 0.0234104
0.4010336 0.4667869 0.0239874
0.4160076 0.4724690 0.0246481
0.4378192 0.4791578 0.0254583
0.4932708 0.4891098 0.0313613
0.5313119 0.4976723 0.0365241
0.5626749 0.5055337 0.0403325
0.5868183 0.5119437 0.0433974
0.6055955 0.5173514 0.0458042
0.6270995 0.5229545 0.0517224
0.6574487 0.5290574 0.0548308
0.6799358 0.5341560 0.0570232
0.6998089 0.5388995 0.0592499
0.7175483 0.5433035 0.0614619
0.7345106 0.5476612 0.0637401
0.7574563 0.5523781 0.0660115
0.7773841 0.5565183 0.0681557
0.7928529 0.5603542 0.0709604
0.8063286 0.5639973 0.0733959
0.8191156 0.5674276 0.0757173
0.8325222 0.5702302 0.0770092
0.0131631 0.3490211 0.0264009
0.0132581 0.3502816 0.0260577
0.0133712 0.3517752 0.0254268
0.0135459 0.3540660 0.0244408
0.0137835 0.3571501 0.0231229
0.0143039 0.3637909 0.0201918
0.0153383 0.3765471 0.0202772
0.0588658 0.3972346 0.0230242
0.1322327 0.4169206 0.0274519
0.2161048 0.4350961 0.0232140
0.2898860 0.4535937 0.0225741
0.3554720 0.4709094 0.0244391
0.4071438 0.4861234 0.0261516
0.4205624 0.4910992 0.0267269
0.4350739 0.4964984 0.0273848
0.4505693 0.5022840 0.0281142
0.4816315 0.5098959 0.0291428
0.5327735 0.5187142 0.0389924
0.5642629 0.5265302 0.0429655
0.5926636 0.5338122 0.0466330
0.6141537 0.5396674 0.0494592
0.6316283 0.5447399 0.0517562
0.6510867 0.5499110 0.0569255
0.6790622 0.5554566 0.0630319
0.7005575 0.5602357 0.0650777
0.7185374 0.5645336 0.0671267
0.7350179 0.5686058 0.0691876
0.7503617 0.5725330 0.0712814
0.7696611 0.5768442 0.0734433
0.7885097 0.5807495 0.0754476
0.8037742 0.5843603 0.0775551
0.8166777 0.5878398 0.0797990
0.8283029 0.5912240 0.0839113
0.0147197 0.3689870 0.0349506
0.0148338 0.3703959 0.0345678
0.0149632 0.3719863 0.0338796
0.0151415 0.3741640 0.0328890
0.0153690 0.3769180 0.0316397
0.0158025 0.3820966 0.0292554
0.0167399 0.3929962 0.0242077
0.0441213 0.4130629 0.0257932
0.1107525 0.4335261 0.0338313
0.2004371 0.4518295 0.0301684
0.2799456 0.4709013 0.0244382
0.3467596 0.4882171 0.0263927
0.4085498 0.5046339 0.0283296
0.4406013 0.5150862 0.0296057
0.4545380 0.5201912 0.0302536
0.4691751 0.5255986 0.0309765
0.4846796 0.5313184 0.0317533
0.5228328 0.5392478 0.0359701
0.5659843 0.5466900 0.0459516
0.5940370 0.5537885 0.0494654
0.6200131 0.5603919 0.0528535
0.6394998 0.5656732 0.0554030
0.6556785 0.5703467 0.0575345
0.6729347 0.5750433 0.0620429
0.6991606 0.5801914 0.0696095
0.7192531 0.5845895 0.0729865
0.7357819 0.5885723 0.0749405
0.7512011 0.5924113 0.0769427
0.7653336 0.5960963 0.0789995
0.7808201 0.5999857 0.0811648
0.7987685 0.6037678 0.0831672
0.8138604 0.6073044 0.0853103
0.8262513 0.6108287 0.0878042
0.0164101 0.3892059 0.0469719
0.0165201 0.3904762 0.0466446
0.0166421 0.3918782 0.0461349
0.0168166 0.3938716 0.0452573
0.0170581 0.3966104 0.0440568
0.0173935 0.4003745 0.0423943
0.0183661 0.4110416 0.0372370
0.0271419 0.4286366 0.0299124
0.1019113 0.4489261 0.0377797
0.1827329 0.4682789 0.0392995
0.2670525 0.4873444 0.0383576
0.3373560 0.5050287 0.0283772
0.4003411 0.5214111 0.0303941
0.4550206 0.5365266 0.0323286
0.4740825 0.5429677 0.0331749
0.4881325 0.5479369 0.0338786
0.5027949 0.5531394 0.0346255
0.5173779 0.5584276 0.0353938
0.5588607 0.5659038 0.0439726
0.5955252 0.5724913 0.0523912
0.6211665 0.5789604 0.0556615
0.6453481 0.5851064 0.0588754
0.6627879 0.5899032 0.0612044
0.6775106 0.5942221 0.0632117
0.6932483 0.5986314 0.0674735
0.7174888 0.6034234 0.0744180
0.7362518 0.6075427 0.0799527
0.7517643 0.6114101 0.0833992
0.7660452 0.6151567 0.0855958
0.7789885 0.6187385 0.0878511
0.7912654 0.6223333 0.0902202
0.8082126 0.6259693 0.0922096
0.8229409 0.6293147 0.0942151
0.0181187 0.4083618 0.0599561
0.0182308 0.4095787 0.0596914
0.0183605 0.4109814 0.0593661
0.0185506 0.4130257 0.0585973
0.0188107 0.4158018 0.0575553
